; generated by PrusaSlicer 2.6.0-alpha4+win64 on 2023-03-06 at 15:38:24 UTC

; 

; external perimeters extrusion width = 0.45mm
; perimeters extrusion width = 0.45mm
; infill extrusion width = 0.45mm
; solid infill extrusion width = 0.45mm
; top infill extrusion width = 0.40mm
; first layer extrusion width = 0.50mm

M107
M190 S60 ; set bed temperature and wait for it to be reached
M104 S205 ; set temperature
;TYPE:Custom
SET_GCODE_VARIABLE MACRO=START_PRINT VARIABLE=bed_temp VALUE=60
SET_GCODE_VARIABLE MACRO=START_PRINT VARIABLE=extruder_temp VALUE=205
START_PRINT
M109 S205 ; set temperature and wait for it to be reached
G21 ; set units to millimeters
G90 ; use absolute coordinates
M82 ; use absolute distances for extrusion
G92 E0
; Filament gcode
M107
;LAYER_CHANGE
;Z:0.25
;HEIGHT:0.25
;BEFORE_LAYER_CHANGE
;0.25


G1 Z.25 F18000
;AFTER_LAYER_CHANGE
;0.25
G1 E-.6 F2700
G92 E0
G1 X84.652 Y84.979 F18000
G1 E.6 F2700
;TYPE:Skirt/Brim
;WIDTH:0.5
G1 F2400
G1 X86.694 Y83.068 E.72975
G1 X88.879 Y81.322 E.85951
G1 X91.588 Y79.512 E1.01066
G1 X94.037 Y78.161 E1.14042
G1 X96.584 Y77.007 E1.27014
G1 X98.774 Y76.199 E1.37843
G1 X101.911 Y75.314 E1.52964
G1 X104.657 Y74.787 E1.65936
G1 X107.436 Y74.476 E1.78909
G1 X109.769 Y74.384 E1.89741
G1 X112.386 Y74.469 E2.01888
G1 X115.343 Y74.787 E2.15685
G1 X118.539 Y75.422 E2.30802
G1 X121.226 Y76.199 E2.43778
G1 X123.843 Y77.184 E2.5675
G1 X125.963 Y78.161 E2.67579
G1 X128.806 Y79.753 E2.82696
G1 X131.122 Y81.322 E2.95674
G1 X133.306 Y83.068 E3.08646
G1 X135.021 Y84.652 E3.19477
G1 X136.932 Y86.694 E3.32452
G1 X138.678 Y88.879 E3.45428
G1 X140.488 Y91.588 E3.60543
G1 X141.839 Y94.037 E3.73519
G1 X142.993 Y96.584 E3.86491
G1 X143.801 Y98.774 E3.9732
G1 X144.686 Y101.911 E4.12441
G1 X145.213 Y104.657 E4.25413
G1 X145.488 Y106.975 E4.36242
G1 X145.616 Y109.769 E4.49218
G1 X145.524 Y112.564 E4.62192
G1 X145.213 Y115.343 E4.75165
G1 X144.578 Y118.539 E4.90282
G1 X143.801 Y121.226 E5.03258
G1 X142.816 Y123.843 E5.1623
G1 X141.839 Y125.963 E5.27059
G1 X140.247 Y128.806 E5.42176
G1 X138.678 Y131.122 E5.55154
G1 X136.932 Y133.306 E5.68126
G1 X135.348 Y135.021 E5.78957
G1 X133.306 Y136.932 E5.91932
G1 X131.121 Y138.678 E6.04908
G1 X128.412 Y140.488 E6.20023
G1 X125.963 Y141.839 E6.32999
G1 X123.416 Y142.993 E6.45971
G1 X121.226 Y143.801 E6.568
G1 X118.089 Y144.686 E6.71921
G1 X115.343 Y145.213 E6.84893
G1 X113.025 Y145.488 E6.95722
G1 X110.231 Y145.616 E7.08698
G1 X107.436 Y145.524 E7.21672
G1 X104.657 Y145.213 E7.34645
G1 X101.461 Y144.578 E7.49762
G1 X98.774 Y143.801 E7.62738
G1 X96.157 Y142.816 E7.7571
G1 X94.037 Y141.839 E7.86539
G1 X91.194 Y140.247 E8.01656
G1 X88.878 Y138.678 E8.14634
G1 X86.694 Y136.932 E8.27606
G1 X84.979 Y135.348 E8.38437
G1 X83.068 Y133.306 E8.51412
G1 X81.322 Y131.121 E8.64388
G1 X79.512 Y128.412 E8.79503
G1 X78.161 Y125.963 E8.92479
G1 X77.007 Y123.416 E9.05451
G1 X76.199 Y121.226 E9.1628
G1 X75.314 Y118.089 E9.31401
G1 X74.787 Y115.343 E9.44373
G1 X74.512 Y113.025 E9.55202
G1 X74.384 Y110.231 E9.68178
G1 X74.476 Y107.436 E9.81152
G1 X74.787 Y104.657 E9.94125
G1 X75.422 Y101.461 E10.09242
G1 X76.199 Y98.774 E10.22218
G1 X77.184 Y96.157 E10.3519
G1 X78.161 Y94.037 E10.46019
G1 X79.753 Y91.194 E10.61136
G1 X81.322 Y88.878 E10.74114
G1 X83.068 Y86.694 E10.87086
G1 X84.612 Y85.024 E10.97637
G1 X84.94 Y85.327 F18000
G1 F2400
G1 X86.997 Y83.396 E11.10726
G1 X89.155 Y81.673 E11.23537
G1 X91.806 Y79.901 E11.3833
G1 X94.224 Y78.566 E11.51144
G1 X96.739 Y77.426 E11.63954
G1 X98.929 Y76.618 E11.74783
G1 X101.998 Y75.752 E11.89577
G1 X104.709 Y75.23 E12.02385
G1 X107.454 Y74.922 E12.152
G1 X109.786 Y74.83 E12.26027
G1 X112.368 Y74.915 E12.38012
G1 X115.291 Y75.23 E12.51651
G1 X118.418 Y75.852 E12.66442
G1 X121.071 Y76.618 E12.79253
G1 X123.656 Y77.589 E12.92064
G1 X125.776 Y78.567 E13.02895
G1 X128.558 Y80.125 E13.17688
G1 X130.845 Y81.673 E13.305
G1 X133.003 Y83.396 E13.43311
G1 X134.718 Y84.98 E13.54142
G1 X136.604 Y86.997 E13.66953
G1 X138.327 Y89.155 E13.79764
G1 X140.099 Y91.806 E13.94557
G1 X141.434 Y94.224 E14.07371
G1 X142.574 Y96.739 E14.20181
G1 X143.382 Y98.929 E14.3101
G1 X144.248 Y101.998 E14.45804
G1 X144.77 Y104.709 E14.58612
G1 X145.078 Y107.454 E14.71427
G1 X145.17 Y109.786 E14.82254
G1 X145.078 Y112.546 E14.95065
G1 X144.703 Y115.713 E15.0986
G1 X144.148 Y118.418 E15.22671
G1 X143.382 Y121.071 E15.35482
G1 X142.411 Y123.656 E15.48293
G1 X141.433 Y125.776 E15.59124
G1 X139.875 Y128.558 E15.73917
G1 X138.327 Y130.845 E15.86729
G1 X136.604 Y133.003 E15.9954
G1 X135.02 Y134.718 E16.10371
G1 X133.003 Y136.604 E16.23182
G1 X130.845 Y138.327 E16.35993
G1 X128.194 Y140.099 E16.50786
G1 X125.776 Y141.434 E16.636
G1 X123.261 Y142.574 E16.7641
G1 X121.071 Y143.382 E16.87239
G1 X118.002 Y144.248 E17.02033
G1 X115.291 Y144.77 E17.14841
G1 X112.546 Y145.078 E17.27656
G1 X110.214 Y145.17 E17.38483
G1 X107.454 Y145.078 E17.51294
G1 X104.287 Y144.703 E17.66089
G1 X101.582 Y144.148 E17.789
G1 X98.929 Y143.382 E17.91711
G1 X96.344 Y142.411 E18.04522
G1 X94.224 Y141.433 E18.15353
G1 X91.442 Y139.875 E18.30146
G1 X89.155 Y138.327 E18.42958
G1 X86.997 Y136.604 E18.55769
G1 X85.282 Y135.02 E18.666
G1 X83.396 Y133.003 E18.79411
G1 X81.673 Y130.845 E18.92222
G1 X79.901 Y128.194 E19.07015
G1 X78.566 Y125.776 E19.19829
G1 X77.426 Y123.261 E19.32639
G1 X76.618 Y121.071 E19.43468
G1 X75.752 Y118.002 E19.58262
G1 X75.23 Y115.291 E19.7107
G1 X74.922 Y112.546 E19.83885
G1 X74.83 Y110.214 E19.94712
G1 X74.922 Y107.454 E20.07523
G1 X75.297 Y104.287 E20.22318
G1 X75.852 Y101.582 E20.35129
G1 X76.618 Y98.929 E20.4794
G1 X77.589 Y96.344 E20.60751
G1 X78.567 Y94.224 E20.71582
G1 X80.125 Y91.442 E20.86375
G1 X81.673 Y89.155 E20.99187
G1 X83.396 Y86.997 E21.11998
G1 X84.899 Y85.371 E21.2227
;WIPE_START
G1 F14400
G1 X86.997 Y83.396 E20.70946
G1 X87.378 Y83.092 E20.6227
;WIPE_END
G92 E0
G1 X110.009 Y137.922 F18000
G1 E.6 F2700
;TYPE:Perimeter
;WIDTH:0.642281
G1 F2400
G1 X107.763 Y137.832 E.73752
G1 X105.58 Y137.57 E.87204
;WIDTH:0.647566
G1 X103.301 Y137.101 E1.01567
;WIDTH:0.642281
G1 X101.327 Y136.541 E1.14121
G1 X99.358 Y135.814 E1.26962
G1 X97.365 Y134.9 E1.40376
G1 X95.451 Y133.832 E1.53786
G1 X93.55 Y132.562 E1.67773
G1 X91.831 Y131.202 E1.81183
G1 X90.289 Y129.777 E1.94029
G1 X88.798 Y128.169 E2.07445
G1 X87.438 Y126.45 E2.20855
G1 X86.217 Y124.629 E2.34269
G1 X85.143 Y122.718 E2.47681
G1 X84.186 Y120.642 E2.61667
G1 X83.459 Y118.673 E2.74508
G1 X82.861 Y116.564 E2.8792
G1 X82.429 Y114.414 E3.01337
G1 X82.168 Y112.237 E3.14752
G1 X82.078 Y109.953 E3.28737
G1 X82.168 Y107.763 E3.42147
G1 X82.43 Y105.58 E3.55599
;WIDTH:0.647566
G1 X82.899 Y103.301 E3.69962
;WIDTH:0.642281
G1 X83.459 Y101.327 E3.82516
G1 X84.221 Y99.272 E3.95925
G1 X85.143 Y97.282 E4.09343
G1 X86.168 Y95.451 E4.22181
G1 X87.438 Y93.55 E4.36168
G1 X88.798 Y91.831 E4.49578
G1 X90.289 Y90.223 E4.62994
G1 X91.902 Y88.738 E4.76408
G1 X93.55 Y87.438 E4.8925
G1 X95.371 Y86.217 E5.02664
G1 X97.282 Y85.143 E5.16076
G1 X99.358 Y84.186 E5.30062
G1 X101.327 Y83.459 E5.42903
G1 X103.436 Y82.861 E5.56315
;WIDTH:0.64284
G1 X103.482 Y82.849 E5.56606
G1 X103.527 Y82.839 E5.56888
;WIDTH:0.64229
G1 X105.678 Y82.415 E5.70301
G1 X107.763 Y82.168 E5.83147
G1 X109.889 Y82.081 E5.96165
;WIDTH:0.644827
G1 X112.141 Y82.16 E6.10011
;WIDTH:0.642265
G1 X114.42 Y82.43 E6.24051
;WIDTH:0.647566
G1 X116.699 Y82.899 E6.38414
;WIDTH:0.642281
G1 X118.673 Y83.459 E6.50968
G1 X120.642 Y84.186 E6.63809
G1 X122.635 Y85.1 E6.77223
G1 X124.549 Y86.168 E6.90633
G1 X126.45 Y87.438 E7.0462
G1 X128.169 Y88.798 E7.1803
G1 X129.711 Y90.223 E7.30876
G1 X131.202 Y91.831 E7.44292
G1 X132.562 Y93.55 E7.57702
G1 X133.783 Y95.371 E7.71116
G1 X134.857 Y97.282 E7.84528
G1 X135.814 Y99.358 E7.98514
G1 X136.57 Y101.416 E8.11928
G1 X137.139 Y103.436 E8.24768
G1 X137.571 Y105.586 E8.38185
G1 X137.832 Y107.763 E8.516
G1 X137.922 Y110.047 E8.65585
G1 X137.832 Y112.237 E8.78995
G1 X137.57 Y114.42 E8.92447
;WIDTH:0.647566
G1 X137.101 Y116.699 E9.0681
;WIDTH:0.642281
G1 X136.541 Y118.673 E9.19364
G1 X135.814 Y120.642 E9.32205
G1 X134.9 Y122.635 E9.45619
G1 X133.832 Y124.549 E9.59029
G1 X132.617 Y126.374 E9.72443
G1 X131.262 Y128.098 E9.85859
G1 X129.777 Y129.711 E9.99273
G1 X128.169 Y131.202 E10.12689
G1 X126.45 Y132.562 E10.26099
G1 X124.629 Y133.783 E10.39513
G1 X122.718 Y134.857 E10.52925
G1 X120.728 Y135.779 E10.66343
G1 X118.673 Y136.541 E10.79752
G1 X116.564 Y137.139 E10.93164
G1 X114.414 Y137.571 E11.06581
G1 X112.237 Y137.832 E11.19996
G1 X110.069 Y137.921 E11.33271
G1 X110.009 Y137.405 F18000
;WIDTH:0.499999
G1 F2400
G1 X107.824 Y137.318 E11.43416
G1 X105.684 Y137.063 E11.53414
G1 X103.49 Y136.615 E11.63803
G1 X101.556 Y136.071 E11.73124
G1 X99.537 Y135.329 E11.83103
G1 X97.582 Y134.43 E11.93086
G1 X95.659 Y133.353 E12.03311
G1 X93.871 Y132.155 E12.13296
G1 X92.222 Y130.856 E12.23035
G1 X90.641 Y129.397 E12.33016
G1 X89.178 Y127.818 E12.43002
G1 X87.814 Y126.087 E12.53226
G1 X86.647 Y124.341 E12.62969
G1 X85.594 Y122.465 E12.7295
G1 X84.691 Y120.512 E12.82932
G1 X83.945 Y118.493 E12.92918
G1 X83.346 Y116.372 E13.03143
G1 X82.937 Y114.313 E13.12882
G1 X82.682 Y112.176 E13.22866
G1 X82.595 Y110.026 E13.32849
G1 X82.682 Y107.824 E13.43073
G1 X82.937 Y105.684 E13.53071
G1 X83.385 Y103.49 E13.6346
G1 X83.929 Y101.556 E13.72781
G1 X84.671 Y99.537 E13.8276
G1 X85.57 Y97.582 E13.92743
G1 X86.647 Y95.659 E14.02968
G1 X87.814 Y93.913 E14.12711
G1 X89.144 Y92.222 E14.22692
G1 X90.603 Y90.641 E14.32673
G1 X92.182 Y89.178 E14.42659
G1 X93.913 Y87.814 E14.52883
G1 X95.659 Y86.647 E14.62626
G1 X97.535 Y85.594 E14.72607
G1 X99.488 Y84.691 E14.82589
G1 X101.507 Y83.945 E14.92575
G1 X103.628 Y83.346 E15.028
G1 X105.739 Y82.929 E15.12783
G1 X107.824 Y82.682 E15.22523
G1 X109.909 Y82.598 E15.32204
G1 X112.124 Y82.678 E15.42487
G1 X114.316 Y82.937 E15.52727
G1 X116.51 Y83.385 E15.63116
G1 X118.444 Y83.929 E15.72437
G1 X120.463 Y84.671 E15.82416
G1 X122.465 Y85.594 E15.92643
G1 X124.341 Y86.647 E16.02624
G1 X126.087 Y87.814 E16.12367
G1 X127.778 Y89.144 E16.22348
G1 X129.359 Y90.603 E16.32329
G1 X130.822 Y92.182 E16.42315
G1 X132.186 Y93.913 E16.52539
G1 X133.353 Y95.659 E16.62282
G1 X134.406 Y97.535 E16.72263
G1 X135.309 Y99.488 E16.82245
G1 X136.055 Y101.507 E16.92231
G1 X136.654 Y103.628 E17.02456
G1 X137.063 Y105.687 E17.12195
G1 X137.318 Y107.824 E17.22179
G1 X137.405 Y109.974 E17.32162
G1 X137.318 Y112.176 E17.42386
G1 X137.063 Y114.316 E17.52384
G1 X136.615 Y116.51 E17.62773
G1 X136.071 Y118.444 E17.72094
G1 X135.329 Y120.463 E17.82073
G1 X134.43 Y122.418 E17.92056
G1 X133.353 Y124.341 E18.02281
G1 X132.186 Y126.087 E18.12024
G1 X130.856 Y127.778 E18.22005
G1 X129.397 Y129.359 E18.31986
G1 X127.818 Y130.822 E18.41972
G1 X126.087 Y132.186 E18.52196
G1 X124.341 Y133.353 E18.61939
G1 X122.465 Y134.406 E18.7192
G1 X120.512 Y135.309 E18.81902
G1 X118.493 Y136.055 E18.91888
G1 X116.372 Y136.654 E19.02113
G1 X114.261 Y137.071 E19.12096
G1 X112.176 Y137.318 E19.21836
G1 X110.069 Y137.403 E19.31619
G1 X109.764 Y136.95 F18000
;TYPE:External perimeter
G1 F2400
G1 X107.876 Y136.875 E19.40385
G1 X105.773 Y136.625 E19.5021
G1 X103.579 Y136.178 E19.60598
G1 X101.678 Y135.642 E19.69761
G1 X99.675 Y134.903 E19.79666
G1 X97.753 Y134.016 E19.89486
G1 X95.922 Y132.991 E19.99221
G1 X94.161 Y131.815 E20.09045
G1 X92.498 Y130.505 E20.18866
G1 X90.931 Y129.056 E20.28767
G1 X89.495 Y127.502 E20.38583
G1 X88.195 Y125.853 E20.48325
G1 X87.019 Y124.093 E20.58145
G1 X85.984 Y122.247 E20.67963
G1 X85.09 Y120.309 E20.77864
G1 X84.364 Y118.339 E20.87604
G1 X83.788 Y116.302 E20.97425
G1 X83.375 Y114.226 E21.07245
G1 X83.125 Y112.124 E21.17065
G1 X83.041 Y109.991 E21.26968
G1 X83.125 Y107.876 E21.36788
G1 X83.375 Y105.773 E21.46613
G1 X83.826 Y103.563 E21.57077
G1 X84.364 Y101.661 E21.66247
G1 X85.09 Y99.691 E21.75987
G1 X85.976 Y97.769 E21.85805
G1 X87.019 Y95.907 E21.95706
G1 X88.185 Y94.161 E22.05446
G1 X89.495 Y92.498 E22.15267
G1 X90.931 Y90.944 E22.25083
G1 X92.485 Y89.506 E22.34905
G1 X94.161 Y88.185 E22.44805
G1 X95.907 Y87.019 E22.54545
G1 X97.753 Y85.984 E22.64363
G1 X99.675 Y85.097 E22.74183
G1 X101.661 Y84.364 E22.84004
G1 X103.715 Y83.784 E22.93906
G1 X105.791 Y83.372 E23.03725
G1 X107.876 Y83.125 E23.13465
G1 X109.927 Y83.044 E23.22988
G1 X112.106 Y83.124 E23.33104
G1 X114.227 Y83.375 E23.43013
G1 X116.437 Y83.826 E23.53477
G1 X118.339 Y84.364 E23.62647
G1 X120.309 Y85.09 E23.72387
G1 X122.231 Y85.976 E23.82205
G1 X124.093 Y87.019 E23.92106
G1 X125.839 Y88.185 E24.01846
G1 X127.502 Y89.495 E24.11667
G1 X129.056 Y90.931 E24.21483
G1 X130.494 Y92.485 E24.31305
G1 X131.815 Y94.161 E24.41205
G1 X132.981 Y95.907 E24.50945
G1 X134.016 Y97.753 E24.60763
G1 X134.903 Y99.675 E24.70583
G1 X135.642 Y101.678 E24.80488
G1 X136.212 Y103.698 E24.90225
G1 X136.625 Y105.774 E25.00045
G1 X136.875 Y107.876 E25.09865
G1 X136.959 Y110.009 E25.19768
G1 X136.875 Y112.124 E25.29588
G1 X136.625 Y114.227 E25.39413
G1 X136.178 Y116.421 E25.49801
G1 X135.642 Y118.322 E25.58964
G1 X134.903 Y120.325 E25.68869
G1 X134.016 Y122.247 E25.78689
G1 X132.991 Y124.078 E25.88424
G1 X131.815 Y125.839 E25.98248
G1 X130.505 Y127.502 E26.08069
G1 X129.056 Y129.069 E26.1797
G1 X127.502 Y130.505 E26.27786
G1 X125.853 Y131.805 E26.37528
G1 X124.093 Y132.981 E26.47348
G1 X122.247 Y134.016 E26.57166
G1 X120.309 Y134.91 E26.67067
G1 X118.339 Y135.636 E26.76807
G1 X116.302 Y136.212 E26.86628
G1 X114.226 Y136.625 E26.96448
G1 X112.106 Y136.876 E27.06352
G1 X110.009 Y136.959 E27.16088
G1 X109.824 Y136.952 E27.16947
G1 X109.559 Y137.293 F18000
;WIPE_START
G1 F14400
G1 X107.876 Y136.875 E26.82221
G1 X106.467 Y136.708 E26.56947
;WIPE_END
G92 E0
G1 X118.813 Y137.114 F18000
G1 E.6 F2700
;TYPE:Perimeter
;WIDTH:0.642296
G1 F2400
G1 X116.723 Y137.706 E.7329
G1 X114.529 Y138.148 E.86983
G1 X112.167 Y138.428 E1.01536
G1 X110.07 Y138.51 E1.14376
G1 X107.833 Y138.428 E1.28072
G1 X105.464 Y138.147 E1.42668
;WIDTH:0.647566
G1 X103.141 Y137.668 E1.5731
;WIDTH:0.642297
G1 X101.124 Y137.093 E1.70142
G1 X99.154 Y136.366 E1.8299
G1 X97.119 Y135.434 E1.96684
G1 X95.044 Y134.272 E2.11235
G1 X93.186 Y133.024 E2.24929
G1 X91.431 Y131.634 E2.38626
G1 X89.791 Y130.11 E2.52324
G1 X88.366 Y128.569 E2.65166
G1 X86.976 Y126.814 E2.78863
G1 X85.728 Y124.956 E2.92557
G1 X84.629 Y123.005 E3.06257
G1 X83.634 Y120.846 E3.20802
G1 X82.907 Y118.876 E3.3365
G1 X82.294 Y116.723 E3.47346
G1 X81.852 Y114.529 E3.61039
G1 X81.583 Y112.306 E3.74739
G1 X81.49 Y109.93 E3.89287
G1 X81.583 Y107.694 E4.02979
G1 X81.853 Y105.464 E4.16722
;WIDTH:0.647566
G1 X82.332 Y103.141 E4.31364
;WIDTH:0.642311
G1 X82.907 Y101.124 E4.44197
G1 X83.634 Y99.154 E4.57045
G1 X84.566 Y97.119 E4.7074
G1 X85.655 Y95.163 E4.84437
G1 X86.894 Y93.299 E4.98131
G1 X88.276 Y91.537 E5.11832
G1 X89.791 Y89.89 E5.25524
G1 X91.431 Y88.366 E5.39222
G1 X93.186 Y86.976 E5.5292
G1 X95.044 Y85.728 E5.66614
G1 X96.995 Y84.629 E5.80315
G1 X99.025 Y83.687 E5.94008
G1 X101.124 Y82.907 E6.07709
G1 X103.277 Y82.294 E6.21405
G1 X105.471 Y81.852 E6.35099
G1 X107.694 Y81.583 E6.48799
G1 X109.866 Y81.493 E6.621
;WIDTH:0.644827
G1 X112.164 Y81.572 E6.76229
;WIDTH:0.642296
G1 X114.536 Y81.853 E6.90843
;WIDTH:0.647566
G1 X116.859 Y82.332 E7.05485
;WIDTH:0.642307
G1 X118.876 Y82.907 E7.18317
G1 X120.846 Y83.634 E7.31165
G1 X122.881 Y84.566 E7.4486
G1 X124.837 Y85.655 E7.58557
G1 X126.701 Y86.894 E7.72251
G1 X128.463 Y88.276 E7.85952
G1 X130.11 Y89.791 E7.99644
G1 X131.634 Y91.431 E8.13342
G1 X133.024 Y93.186 E8.2704
G1 X134.272 Y95.044 E8.40734
G1 X135.371 Y96.995 E8.54435
G1 X136.313 Y99.025 E8.68127
G1 X137.093 Y101.124 E8.81828
G1 X137.706 Y103.277 E8.95524
G1 X138.148 Y105.471 E9.09217
G1 X138.417 Y107.694 E9.22917
G1 X138.51 Y109.93 E9.3661
;WIDTH:0.642878
G1 X138.512 Y110.012 E9.37112
G1 X138.51 Y110.07 E9.37467
;WIDTH:0.642296
G1 X138.417 Y112.306 E9.51159
G1 X138.147 Y114.536 E9.64902
;WIDTH:0.647566
G1 X137.668 Y116.859 E9.79544
;WIDTH:0.642296
G1 X137.093 Y118.876 E9.92376
G1 X136.313 Y120.975 E10.06076
G1 X135.371 Y123.005 E10.19768
G1 X134.345 Y124.837 E10.32615
G1 X133.024 Y126.814 E10.47163
G1 X131.724 Y128.463 E10.6001
