; generated by PrusaSlicer 2.6.0-alpha4+win64 on 2023-03-06 at 16:29:53 UTC

; 

; external perimeters extrusion width = 0.45mm
; perimeters extrusion width = 0.45mm
; infill extrusion width = 0.45mm
; solid infill extrusion width = 0.45mm
; top infill extrusion width = 0.40mm
; first layer extrusion width = 0.50mm

M190 S60 ; set bed temperature and wait for it to be reached
M104 S205 ; set temperature
;TYPE:Custom
SET_GCODE_VARIABLE MACRO=START_PRINT VARIABLE=bed_temp VALUE=60
SET_GCODE_VARIABLE MACRO=START_PRINT VARIABLE=extruder_temp VALUE=205
START_PRINT
M109 S205 ; set temperature and wait for it to be reached
G21 ; set units to millimeters
G90 ; use absolute coordinates
M82 ; use absolute distances for extrusion
G92 E0
; Filament gcode
M106 S160.65
;LAYER_CHANGE
;Z:0.25
;HEIGHT:0.25
;BEFORE_LAYER_CHANGE
;0.25


G1 Z.25 F18000
;AFTER_LAYER_CHANGE
;0.25
G1 E-.6 F2700
G92 E0
G1 Z.75 F18000
G1 X81.182 Y99.028
G1 Z.25
G1 E.6 F2700
;TYPE:Skirt/Brim
;WIDTH:0.5
G1 F2400
G1 X82.089 Y98.428 E.65045
G1 X83.02 Y97.983 E.69832
G1 X84.045 Y97.658 E.74821
G1 X85.082 Y97.481 E.79701
G1 X108.806 Y96.028 E1.89969
G1 X110.328 Y95.992 E1.97032
G1 X113.011 Y96.201 E2.09517
G1 X115.775 Y96.793 E2.22631
G1 X118.146 Y97.628 E2.34293
G1 X120.588 Y98.854 E2.4697
G1 X122.864 Y100.4 E2.59735
G1 X124.884 Y102.202 E2.72293
G1 X126.732 Y104.355 E2.85456
G1 X128.188 Y106.599 E2.97866
G1 X128.763 Y108.022 E3.04986
G1 X129.034 Y109.668 E3.12725
G1 X128.949 Y111.15 E3.19612
G1 X128.507 Y112.719 E3.27174
G1 X127.592 Y114.401 E3.36057
G1 X126.219 Y116.305 E3.46947
G1 X124.654 Y118.029 E3.57749
G1 X122.909 Y119.565 E3.68534
G1 X121.424 Y120.629 E3.77009
G1 X120.009 Y121.474 E3.84655
G1 X118.447 Y122.242 E3.9273
G1 X116.901 Y122.851 E4.00439
G1 X115.221 Y123.357 E4.08579
G1 X113.577 Y123.709 E4.16379
G1 X111.963 Y123.922 E4.23932
G1 X110.146 Y124.01 E4.32371
G1 X84.753 Y122.478 E5.5039
G1 X83.358 Y122.142 E5.57047
G1 X82.101 Y121.579 E5.63437
G1 X80.82 Y120.673 E5.70716
G1 X79.889 Y119.697 E5.76974
G1 X79.398 Y119.002 E5.80922
G1 X78.855 Y117.964 E5.86357
G1 X78.524 Y117.03 E5.90954
G1 X78.267 Y115.696 E5.97257
G1 X78.244 Y104.57 E6.48874
G1 X78.524 Y102.97 E6.5641
G1 X79.119 Y101.483 E6.6384
G1 X80.056 Y100.101 E6.71586
G1 X81.139 Y99.07 E6.78523
G1 X81.449 Y99.4 F18000
G1 F2400
G1 X81.526 Y99.328 E6.79012
G1 X82.305 Y98.818 E6.83332
G1 X83.182 Y98.399 E6.87841
G1 X84.147 Y98.093 E6.92538
G1 X85.124 Y97.926 E6.97136
G1 X108.833 Y96.473 E8.07335
G1 X110.325 Y96.438 E8.14259
G1 X113.032 Y96.656 E8.26858
G1 X115.655 Y97.223 E8.39308
G1 X117.97 Y98.038 E8.50694
G1 X120.359 Y99.237 E8.63095
G1 X122.587 Y100.75 E8.75589
G1 X124.568 Y102.517 E8.87904
G1 X126.376 Y104.623 E9.00781
G1 X127.794 Y106.81 E9.12873
G1 X128.335 Y108.147 E9.19564
G1 X128.59 Y109.722 E9.26966
G1 X128.472 Y111.281 E9.34219
G1 X128.008 Y112.752 E9.41375
G1 X126.965 Y114.544 E9.50994
G1 X125.582 Y116.374 E9.61636
G1 X124.05 Y117.992 E9.71973
G1 X122.342 Y119.438 E9.82355
G1 X121.015 Y120.362 E9.89857
G1 X119.627 Y121.172 E9.97313
G1 X118.071 Y121.919 E10.0532
G1 X116.549 Y122.499 E10.12876
G1 X114.877 Y122.983 E10.20951
G1 X113.302 Y123.303 E10.28407
G1 X111.559 Y123.508 E10.36549
G1 X109.984 Y123.564 E10.4386
G1 X84.82 Y122.037 E11.60817
G1 X83.455 Y121.703 E11.67336
G1 X82.177 Y121.108 E11.73876
G1 X81.059 Y120.289 E11.80305
G1 X80.118 Y119.263 E11.86764
G1 X79.607 Y118.478 E11.91109
G1 X79.163 Y117.535 E11.95944
G1 X78.857 Y116.53 E12.00818
G1 X78.712 Y115.653 E12.04942
G1 X78.689 Y104.604 E12.56201
G1 X78.952 Y103.096 E12.63303
G1 X79.556 Y101.613 E12.70732
G1 X80.398 Y100.388 E12.77628
G1 X81.406 Y99.441 E12.84044
;WIPE_START
G1 F14400
G1 X81.526 Y99.328 E12.81108
G1 X82.305 Y98.818 E12.64523
G1 X83.182 Y98.399 E12.4721
G1 X84.147 Y98.093 E12.29177
G1 X84.431 Y98.044 E12.24044
;WIPE_END
G92 E0
G1 Z.75 F18000
G1 X122.887 Y110.087
G1 Z.25
G1 E.6 F2700
;TYPE:External perimeter
;WIDTH:0.499999
G1 F2400
G1 X122.877 Y110.205 E.60549
G1 X122.702 Y110.614 E.62613
G1 X122.333 Y111.214 E.65881
G1 X122.029 Y111.667 E.68412
G1 X121.648 Y112.183 E.71388
G1 X121.1 Y112.873 E.75476
;WIDTH:0.460048
G1 X120.973 Y113.047 E.76386
;WIDTH:0.420097
G1 X120.845 Y113.22 E.77206
;WIDTH:0.418001
G1 X120.682 Y113.361 E.78022
;WIDTH:0.455857
G1 X120.519 Y113.503 E.78926
;WIDTH:0.493713
G1 X120.356 Y113.644 E.79912
;WIDTH:0.499999
G1 X119.89 Y114.081 E.82876
G1 X119.325 Y114.566 E.8633
G1 X118.759 Y115.004 E.8965
G1 X118.247 Y115.366 E.92559
G1 X117.73 Y115.698 E.95409
G1 X117.085 Y116.071 E.98866
G1 X116.251 Y116.494 E1.03204
G1 X115.361 Y116.874 E1.07694
G1 X114.443 Y117.194 E1.12204
G1 X113.509 Y117.454 E1.16702
G1 X112.555 Y117.652 E1.21222
G1 X111.684 Y117.776 E1.25304
G1 X110.78 Y117.849 E1.29512
G1 X109.824 Y117.865 E1.33948
G1 X109.154 Y117.839 E1.37059
G1 X85.927 Y116.424 E2.45015
G1 X85.417 Y116.35 E2.47406
G1 X85.074 Y116.201 E2.49141
G1 X84.766 Y115.952 E2.50978
G1 X84.582 Y115.703 E2.52414
G1 X84.422 Y115.307 E2.54395
G1 X84.366 Y114.871 E2.56434
G1 X84.367 Y111.457 E2.72272
;WIDTH:0.519819
G1 X84.367 Y109.966 E2.79496
;WIDTH:0.521208
G1 X84.368 Y108.599 E2.86139
;WIDTH:0.499999
G1 X84.369 Y105.045 E3.02627
G1 X84.491 Y104.485 E3.05286
G1 X84.696 Y104.132 E3.0718
G1 X84.995 Y103.849 E3.0909
G1 X85.32 Y103.69 E3.10769
G1 X85.792 Y103.585 E3.13012
G1 X109.174 Y102.159 E4.21689
G1 X110.064 Y102.134 E4.2582
G1 X111.124 Y102.172 E4.30741
G1 X111.93 Y102.253 E4.34499
G1 X112.747 Y102.383 E4.38337
G1 X113.831 Y102.629 E4.43494
G1 X114.631 Y102.866 E4.47365
G1 X115.683 Y103.256 E4.5257
G1 X116.535 Y103.643 E4.56911
G1 X117.442 Y104.13 E4.61687
G1 X118.162 Y104.578 E4.65621
G1 X119.073 Y105.233 E4.70826
G1 X119.867 Y105.899 E4.75634
G1 X120.537 Y106.541 E4.79939
G1 X121.145 Y107.203 E4.84109
G1 X121.765 Y107.969 E4.88681
G1 X122.297 Y108.723 E4.92962
G1 X122.697 Y109.381 E4.96534
G1 X122.862 Y109.733 E4.98338
G1 X122.883 Y110.027 E4.99705
;WIPE_START
G1 F14400
G1 X122.877 Y110.205 E4.96533
G1 X122.702 Y110.614 E4.88609
G1 X122.333 Y111.214 E4.76062
G1 X122.029 Y111.667 E4.66344
G1 X121.648 Y112.183 E4.54919
G1 X121.117 Y112.852 E4.39705
;WIPE_END
G92 E0
G1 Z.75 F18000
G1 X118.98 Y111.869
G1 Z.25
G1 E.6 F2700
G1 F2400
G1 X119.724 Y111.834 E.63455
G1 X120.223 Y111.894 E.65787
G1 X120.526 Y112.034 E.67335
G1 X120.736 Y112.311 E.68948
G1 X120.786 Y112.578 E.70208
G1 X120.731 Y112.748 E.71037
;WIDTH:0.458727
G1 X120.676 Y112.918 E.71789
;WIDTH:0.429367
G1 X120.376 Y113.212 E.73429
;WIDTH:0.464683
G1 X120.163 Y113.271 E.74373
;WIDTH:0.499999
G1 X119.949 Y113.329 E.75402
G1 X117.546 Y113.337 E.8655
G1 X117.425 Y113.304 E.87132
G1 X117.122 Y113.093 E.88845
G1 X116.951 Y112.617 E.91191
G1 X116.968 Y112.341 E.92474
G1 X117.151 Y111.871 E.94814
G1 X118.714 Y109.693 E1.07251
G1 X118.233 Y109.731 E1.09489
G1 X117.675 Y109.696 E1.12083
G1 X117.377 Y109.615 E1.13516
G1 X117.142 Y109.44 E1.14875
G1 X117.019 Y109.179 E1.16214
;WIDTH:0.499657
G1 X117.026 Y108.728 E1.18305
;WIDTH:0.499999
G1 X117.193 Y108.453 E1.19798
G1 X117.554 Y108.271 E1.21674
G1 X118.041 Y108.23 E1.23941
G1 X120.027 Y108.235 E1.33155
G1 X120.375 Y108.332 E1.34831
G1 X120.554 Y108.5 E1.3597
G1 X120.695 Y108.853 E1.37733
G1 X120.703 Y109.112 E1.38935
G1 X120.634 Y109.413 E1.40368
G1 X120.314 Y109.967 E1.43336
G1 X119.011 Y111.818 E1.53838
;WIPE_START
G1 F14400
G1 X119.724 Y111.834 E1.41134
G1 X120.223 Y111.894 E1.32182
G1 X120.526 Y112.034 E1.26237
G1 X120.736 Y112.311 E1.20045
G1 X120.786 Y112.578 E1.15206
G1 X120.731 Y112.748 E1.12023
G1 X120.676 Y112.918 E1.0884
G1 X120.376 Y113.212 E1.01358
G1 X120.163 Y113.271 E.97421
G1 X119.969 Y113.324 E.93838
;WIPE_END
G92 E0
G1 Z.75 F18000
G1 X114.564 Y110.601
G1 Z.25
G1 E.6 F2700
G1 F2400
G1 X114.715 Y110.102 E.62419
G1 X115.104 Y108.996 E.67858
G1 X115.362 Y108.534 E.70313
G1 X115.715 Y108.26 E.72386
G1 X115.973 Y108.267 E.73583
G1 X116.193 Y108.336 E.74653
G1 X116.494 Y108.684 E.76788
;WIDTH:0.499657
G1 X116.573 Y109.113 E.7881
;WIDTH:0.499999
G1 X116.463 Y109.484 E.80605
G1 X116.225 Y110.027 E.83355
G1 X116.013 Y110.671 E.865
G1 X115.061 Y113.331 E.99607
G1 X114.484 Y114.744 E1.06688
G1 X114.132 Y115.315 E1.098
G1 X113.799 Y115.589 E1.11801
G1 X113.518 Y115.723 E1.13245
G1 X113.036 Y115.856 E1.15565
G1 X112.576 Y115.832 E1.17702
G1 X112.234 Y115.586 E1.19656
G1 X112.056 Y115.198 E1.21636
G1 X112.074 Y114.804 E1.23466
G1 X112.335 Y114.522 E1.25249
G1 X112.841 Y114.362 E1.27711
G1 X113.131 Y114.193 E1.29268
G1 X113.394 Y113.766 E1.31595
G1 X113.735 Y112.957 E1.35668
G1 X113.795 Y112.726 E1.36775
G1 X113.683 Y112.349 E1.386
G1 X113.482 Y111.89 E1.40925
G1 X112.509 Y109.273 E1.53878
;WIDTH:0.534944
G1 X112.473 Y109.111 E1.54708
;WIDTH:0.569888
G1 X112.437 Y108.95 E1.55593
G1 X112.486 Y108.671 E1.57113
;WIDTH:0.536632
G1 X112.589 Y108.493 E1.58145
;WIDTH:0.499999
G1 X112.801 Y108.295 E1.59491
G1 X113.085 Y108.234 E1.60839
G1 X113.346 Y108.271 E1.62062
G1 X113.713 Y108.466 E1.6399
G1 X113.947 Y108.861 E1.6612
G1 X114.128 Y109.492 E1.69165
G1 X114.539 Y110.546 E1.74413
;WIPE_START
G1 F14400
G1 X114.715 Y110.102 E1.65906
G1 X115.104 Y108.996 E1.45022
G1 X115.362 Y108.534 E1.35596
G1 X115.715 Y108.26 E1.27636
G1 X115.973 Y108.267 E1.23039
G1 X116.193 Y108.336 E1.18932
G1 X116.359 Y108.528 E1.14413
;WIPE_END
G92 E0
G1 Z.75 F18000
G1 X111.922 Y108.952
G1 Z.25
G1 E.6 F2700
;WIDTH:0.569888
G1 F2400
G1 X111.861 Y109.114 E.60929
;WIDTH:0.534944
G1 X111.799 Y109.276 E.61797
;WIDTH:0.499999
G1 X111.132 Y110.404 E.67877
G1 X111.041 Y110.698 E.69305
G1 X111.142 Y111.016 E.70853
G1 X111.763 Y112.049 E.76445
G1 X111.912 Y112.398 E.78205
G1 X111.943 Y112.66 E.79429
G1 X111.899 Y112.91 E.80607
G1 X111.771 Y113.121 E.81752
G1 X111.52 Y113.287 E.83148
G1 X111.086 Y113.336 E.85174
G1 X110.87 Y113.257 E.86241
G1 X110.704 Y113.12 E.8724
G1 X110.441 Y112.718 E.89469
G1 X110.104 Y112.11 E.92694
G1 X109.789 Y112.73 E.9592
G1 X109.442 Y113.169 E.98516
G1 X109.157 Y113.323 E1.00019
G1 X108.837 Y113.3 E1.01507
G1 X108.533 Y113.108 E1.03175
G1 X108.405 Y112.91 E1.04269
;WIDTH:0.491823
G1 X108.376 Y112.583 E1.05764
;WIDTH:0.492653
G1 X108.471 Y112.223 E1.07463
;WIDTH:0.499999
G1 X109.034 Y111.242 E1.1271
G1 X109.321 Y110.828 E1.15047
G1 X109.338 Y110.754 E1.15399
G1 X108.622 Y109.525 E1.21998
G1 X108.516 Y109.271 E1.23275
G1 X108.434 Y109.038 E1.24421
G1 X108.44 Y108.727 E1.25864
G1 X108.573 Y108.481 E1.27161
G1 X108.81 Y108.308 E1.28522
G1 X109.131 Y108.232 E1.30052
G1 X109.387 Y108.292 E1.31272
G1 X109.59 Y108.417 E1.32378
G1 X109.937 Y108.854 E1.34967
G1 X110.191 Y109.339 E1.37507
G1 X110.467 Y108.764 E1.40466
G1 X110.824 Y108.382 E1.42892
G1 X111.151 Y108.236 E1.44553
G1 X111.459 Y108.285 E1.46
G1 X111.706 Y108.476 E1.47449
;WIDTH:0.536632
G1 X111.854 Y108.68 E1.48714
;WIDTH:0.569888
G1 X111.908 Y108.893 E1.49893
;WIPE_START
G1 F14400
G1 X111.861 Y109.114 E1.45868
G1 X111.799 Y109.276 E1.42778
G1 X111.132 Y110.404 E1.19436
G1 X111.041 Y110.698 E1.13954
G1 X111.142 Y111.016 E1.08011
G1 X111.666 Y111.888 E.89893
;WIPE_END
G92 E0
G1 Z.75 F18000
G1 X105.524 Y112.315
G1 Z.25
G1 E.6 F2700
;WIDTH:0.499999
G1 F2400
G1 X105.586 Y112.155 E.60796
;WIDTH:0.456695
G1 X105.649 Y111.994 E.6152
;WIDTH:0.413391
G1 X105.711 Y111.833 E.62165
;WIDTH:0.406664
G1 X105.784 Y111.707 E.62699
;WIDTH:0.44324
G1 X105.857 Y111.581 E.63289
;WIDTH:0.479816
G1 X105.929 Y111.455 E.63932
;WIDTH:0.499999
G1 X106.301 Y111.208 E.66004
G1 X106.792 Y111.119 E.68319
G1 X107.263 Y111.219 E.70553
G1 X107.628 Y111.462 E.72587
G1 X107.891 Y111.825 E.74667
G1 X108.003 Y112.346 E.77139
;WIDTH:0.474246
G1 X107.976 Y112.499 E.77818
;WIDTH:0.491823
G1 X107.911 Y112.829 E.7935
;WIDTH:0.499999
G1 X107.644 Y113.251 E.81667
G1 X107.19 Y113.539 E.84161
G1 X106.757 Y113.611 E.86197
G1 X106.317 Y113.525 E.88277
G1 X105.89 Y113.255 E.90621
G1 X105.622 Y112.853 E.92862
G1 X105.535 Y112.374 E.95121
;WIPE_START
G1 F14400
G1 X105.586 Y112.155 E.91116
G1 X105.649 Y111.994 E.88036
G1 X105.711 Y111.833 E.84963
G1 X105.784 Y111.707 E.82369
G1 X105.857 Y111.581 E.79775
G1 X105.929 Y111.455 E.7719
G1 X106.301 Y111.208 E.69236
G1 X106.792 Y111.119 E.60348
G1 X107.263 Y111.219 E.51771
G1 X107.628 Y111.462 E.4396
G1 X107.891 Y111.825 E.35975
G1 X107.901 Y111.872 E.35121
;WIPE_END
G92 E0
G1 Z.75 F18000
G1 X100.944 Y107.111
G1 Z.25
G1 E.6 F2700
G1 F2400
G1 X101.17 Y106.913 E.61394
G1 X101.451 Y106.813 E.62778
G1 X101.74 Y106.784 E.64125
G1 X103.328 Y106.82 E.71494
G1 X103.81 Y106.884 E.7375
G1 X104.293 Y107.014 E.76071
G1 X104.677 Y107.208 E.78067
G1 X105.036 Y107.506 E.80232
G1 X105.354 Y107.917 E.82643
G1 X105.543 Y108.246 E.84403
G1 X105.748 Y108.839 E.87314
G1 X105.849 Y109.457 E.90219
G1 X105.855 Y110.349 E.94357
G1 X105.767 Y110.96 E.97221
G1 X105.694 Y111.139 E.98118
;WIDTH:0.466558
G1 X105.622 Y111.317 E.98942
;WIDTH:0.433117
G1 X105.55 Y111.496 E.99703
;WIDTH:0.399676
G1 X105.388 Y111.779 E1.00876
;WIDTH:0.421945
G1 X105.334 Y111.905 E1.01401
;WIDTH:0.460972
G1 X105.279 Y112.031 E1.01983
;WIDTH:0.499999
G1 X105.225 Y112.158 E1.02623
G1 X104.873 Y112.535 E1.05016
G1 X104.38 Y112.857 E1.07748
G1 X103.9 Y113.022 E1.10103
G1 X103.388 Y113.105 E1.12509
G1 X102.858 Y113.134 E1.14971
G1 X102.145 Y113.127 E1.18279
G1 X101.608 Y113.166 E1.20777
G1 X101.211 Y113.082 E1.2266
G1 X100.96 Y112.786 E1.2446
G1 X100.863 Y112.255 E1.26964
G1 X100.88 Y111.664 E1.29707
G1 X100.884 Y108.072 E1.46371
G1 X100.844 Y107.459 E1.49221
G1 X100.928 Y107.169 E1.50622
;WIPE_START
G1 F14400
G1 X101.17 Y106.913 E1.44347
G1 X101.451 Y106.813 E1.39034
G1 X101.74 Y106.784 E1.3386
G1 X103.328 Y106.82 E1.05566
G1 X103.81 Y106.884 E.96905
G1 X104.151 Y106.976 E.90622
;WIPE_END
G92 E0
G1 Z.75 F18000
G1 X95.928 Y107.594
G1 Z.25
G1 E.6 F2700
;WIDTH:0.554418
G1 F2400
G1 X96.014 Y107.427 E.60978
;WIDTH:0.527209
G1 X96.099 Y107.26 E.619
;WIDTH:0.499999
G1 X96.464 Y106.941 E.64149
G1 X96.998 Y106.715 E.66839
G1 X97.606 Y106.625 E.6969
G1 X98.251 Y106.655 E.72686
G1 X98.783 Y106.792 E.75235
G1 X99.215 Y107.05 E.77569
G1 X99.539 Y107.451 E.79961
G1 X99.639 Y107.673 E.81091
G1 X99.702 Y107.926 E.82301
G1 X99.684 Y108.651 E.85665
G1 X99.553 Y109.08 E.87746
G1 X99.437 Y109.252 E.88708
G1 X99.21 Y109.433 E.90055
G1 X99.065 Y109.506 E.90808
G1 X99.298 Y109.61 E.91992
G1 X99.578 Y109.88 E.93797
G1 X99.782 Y110.342 E.9614
G1 X99.953 Y111.087 E.99686
G1 X99.931 Y111.563 E1.01897
G1 X99.733 Y112.145 E1.04749
G1 X99.408 Y112.637 E1.07485
G1 X99.036 Y112.955 E1.09755
G1 X98.642 Y113.158 E1.11811
G1 X98.222 Y113.27 E1.13828
G1 X97.84 Y113.305 E1.15608
G1 X97.219 Y113.272 E1.18493
G1 X96.613 Y113.098 E1.21418
G1 X96.198 Y112.797 E1.23796
G1 X96 Y112.454 E1.25633
G1 X95.954 Y112.19 E1.26876
G1 X96.01 Y111.862 E1.2842
G1 X96.186 Y111.617 E1.29819
G1 X96.434 Y111.481 E1.31131
G1 X96.762 Y111.44 E1.32665
G1 X97.193 Y111.552 E1.34731
G1 X97.715 Y111.901 E1.37644
G1 X97.936 Y111.899 E1.38669
G1 X98.048 Y111.845 E1.39246
G1 X98.214 Y111.727 E1.40191
G1 X98.356 Y111.457 E1.41606
G1 X98.349 Y111.152 E1.43021
G1 X98.221 Y110.867 E1.4447
G1 X97.921 Y110.58 E1.46396
G1 X97.38 Y110.391 E1.49055
G1 X96.908 Y110.269 E1.51317
G1 X96.697 Y110.04 E1.52762
G1 X96.64 Y109.809 E1.53866
G1 X96.721 Y109.354 E1.5601
;WIDTH:0.537335
G1 X96.963 Y109.024 E1.58067
;WIDTH:0.576351
G1 X97.199 Y108.895 E1.59528
;WIDTH:0.618103
G1 X97.473 Y108.814 E1.61204
;WIDTH:0.659854
G1 X97.746 Y108.732 E1.63
G1 X97.925 Y108.586 E1.64455
;WIDTH:0.657978
G1 X97.992 Y108.351 E1.6599
G1 X97.939 Y108.224 E1.66854
G1 X97.85 Y108.141 E1.67618
G1 X97.612 Y108.13 E1.69115
G1 X97.309 Y108.273 E1.7122
;WIDTH:0.617165
G1 X97.007 Y108.417 E1.7318
;WIDTH:0.576351
G1 X96.848 Y108.447 E1.74059
;WIDTH:0.549946
G1 X96.69 Y108.477 E1.74889
;WIDTH:0.52354
G1 X96.396 Y108.398 E1.76376
;WIDTH:0.499999
G1 X96.131 Y108.154 E1.78047
;WIDTH:0.533828
G1 X95.944 Y107.769 E1.80183
;WIDTH:0.554418
G1 X95.934 Y107.654 E1.80784
;WIPE_START
G1 F14400
G1 X96.014 Y107.427 E1.76497
G1 X96.099 Y107.26 E1.73159
G1 X96.464 Y106.941 E1.64524
G1 X96.998 Y106.715 E1.54195
G1 X97.606 Y106.625 E1.43247
G1 X98.251 Y106.655 E1.31746
G1 X98.783 Y106.792 E1.21961
G1 X98.84 Y106.826 E1.20784
;WIPE_END
G92 E0
