; generated by SuperSlicer 2.5.59 on 2023-03-04 at 18:09:51 UTC

; 

; external perimeters extrusion width = 0.44mm
; perimeters extrusion width = 0.46mm
; infill extrusion width = 0.44mm
; solid infill extrusion width = 0.46mm
; top infill extrusion width = 0.44mm
; first layer extrusion width = 0.56mm

; external perimeters extrusion width = 0.44mm
; perimeters extrusion width = 0.46mm
; infill extrusion width = 0.44mm
; solid infill extrusion width = 0.46mm
; top infill extrusion width = 0.44mm
; first layer extrusion width = 0.56mm

; external perimeters extrusion width = 0.44mm
; perimeters extrusion width = 0.46mm
; infill extrusion width = 0.44mm
; solid infill extrusion width = 0.46mm
; top infill extrusion width = 0.44mm
; first layer extrusion width = 0.56mm

; external perimeters extrusion width = 0.44mm
; perimeters extrusion width = 0.46mm
; infill extrusion width = 0.44mm
; solid infill extrusion width = 0.46mm
; top infill extrusion width = 0.44mm
; first layer extrusion width = 0.56mm

; external perimeters extrusion width = 0.44mm
; perimeters extrusion width = 0.46mm
; infill extrusion width = 0.44mm
; solid infill extrusion width = 0.46mm
; top infill extrusion width = 0.44mm
; first layer extrusion width = 0.56mm

; object:{"name":"bridge_test","id":"bridge_test id:0 copy 0","object_center":[65.500000,53.000000,0.000000],"boundingbox_center":[65.500000,53.000000,2.500000],"boundingbox_size":[42.000000,10.000000,5.000000]}
EXCLUDE_OBJECT_DEFINE NAME=bridge_test_id_0_copy_0 CENTER=65.500000,53.000000 POLYGON=[[44.500000,48.000000],[66.500000,48.000000],[86.500000,53.000000],[86.500000,58.000000],[44.500000,58.000000],[44.500000,48.000000]]
; object:{"name":"bridge_test","id":"bridge_test id:1 copy 0","object_center":[65.500000,110.000000,0.000000],"boundingbox_center":[65.500000,110.000000,2.500000],"boundingbox_size":[42.000000,10.000000,5.000000]}
EXCLUDE_OBJECT_DEFINE NAME=bridge_test_id_1_copy_0 CENTER=65.500000,110.000000 POLYGON=[[44.500000,105.000000],[66.500000,105.000000],[86.500000,110.000000],[86.500000,115.000000],[44.500000,115.000000],[44.500000,105.000000]]
; object:{"name":"bridge_test","id":"bridge_test id:2 copy 0","object_center":[154.500000,53.000000,0.000000],"boundingbox_center":[154.500000,53.000000,2.500000],"boundingbox_size":[42.000000,10.000000,5.000000]}
EXCLUDE_OBJECT_DEFINE NAME=bridge_test_id_2_copy_0 CENTER=154.500000,53.000000 POLYGON=[[133.500000,48.000000],[155.500000,48.000000],[175.500000,53.000000],[175.500000,58.000000],[133.500000,58.000000],[133.500000,48.000000]]
; object:{"name":"bridge_test","id":"bridge_test id:3 copy 0","object_center":[154.500000,110.000000,0.000000],"boundingbox_center":[154.500000,110.000000,2.500000],"boundingbox_size":[42.000000,10.000000,5.000000]}
EXCLUDE_OBJECT_DEFINE NAME=bridge_test_id_3_copy_0 CENTER=154.500000,110.000000 POLYGON=[[133.500000,105.000000],[155.500000,105.000000],[175.500000,110.000000],[175.500000,115.000000],[133.500000,115.000000],[133.500000,105.000000]]
; object:{"name":"bridge_test","id":"bridge_test id:4 copy 0","object_center":[110.000000,167.000000,0.000000],"boundingbox_center":[110.000000,167.000000,2.500000],"boundingbox_size":[42.000000,10.000000,5.000000]}
EXCLUDE_OBJECT_DEFINE NAME=bridge_test_id_4_copy_0 CENTER=110.000000,167.000000 POLYGON=[[89.000000,162.000000],[111.000000,162.000000],[131.000000,167.000000],[131.000000,172.000000],[89.000000,172.000000],[89.000000,162.000000]]
; plater:{"center":[110.000000,110.000000,0.000000],"boundingbox_center":[110.000000,110.000000,2.500000],"boundingbox_size":[131.000000,124.000000,5.000000]}

;TYPE:Custom
SET_GCODE_VARIABLE MACRO=START_PRINT VARIABLE=bed_temp VALUE=60
SET_GCODE_VARIABLE MACRO=START_PRINT VARIABLE=extruder_temp VALUE=215
START_PRINT
M107
G21 ; set units to millimeters
G90 ; use absolute coordinates
M82 ; use absolute distances for extrusion
G92 E0
; Filament gcode
;_TOOLCHANGE 0
M104 S215 ; set temperature
M109 S215 ; set temperature and wait for it to be reached
M190 S60 ; set bed temperature and wait for it to be reached
M107
;LAYER_CHANGE
;Z:0.2
;HEIGHT:0.2
;BEFORE_LAYER_CHANGE
;0.2


G1 E-0.8 F1800
G1 Z0.2 F9000
;AFTER_LAYER_CHANGE
;0.2
G92 E0
M204 S500
G1 X40.86 Y43.392
G1 E0.8 F1800
;TYPE:Skirt
;WIDTH:0.48
G1 F1200
G1 X39.775 Y44.557 E0.85786
G1 X39.381 Y46.1 E0.91573
G1 X39.381 Y116.9 E3.48883
G1 X40.063 Y118.881 E3.56496
G1 X84.563 Y175.881 E6.19307
G1 X85.557 Y176.725 E6.24048
G1 X87.1 Y177.119 E6.29834
G1 X132.9 Y177.119 E7.96286
G1 X134.177 Y176.854 E8.01027
G1 X135.437 Y175.881 E8.06813
G1 X179.937 Y118.881 E10.69624
G1 X180.619 Y116.9 E10.77237
G1 X180.619 Y51.1 E13.16376
G1 X180.449 Y50.069 E13.20173
G1 X179.582 Y48.734 E13.2596
G1 X178.181 Y47.978 E13.31746
G1 X158.181 Y42.978 E14.0667
G1 X157.4 Y42.881 E14.09528
G1 X42.6 Y42.881 E18.26749
G1 X40.918 Y43.375 E18.33121
G92 E0
;WIPE_START
G1 F7200
G1 X42.6 Y42.881 E-0.41638
G1 X44.047 Y42.881 E-0.76
;WIPE_END
G1 E-0.8 F1800
; acceleration to travel
M204 S1500
G1 X119.186 Y152.592 F9000
; decel to extrusion
M204 S500
G1 X128.366 Y165.995
; end travel
G1 E0 F1800
;WIDTH:0.56292
G1 F1200
G1 X128.451 Y165.938 E0.00443
G1 X128.737 Y165.82 E0.0178
G1 X128.838 Y165.8 E0.02223
G1 X131.162 Y165.8 E0.12275
G1 X131.263 Y165.82 E0.12718
G1 X131.549 Y165.938 E0.14055
G1 X131.634 Y165.995 E0.14498
G1 X132.005 Y166.366 E0.16767
G1 X132.062 Y166.451 E0.17209
G1 X132.18 Y166.737 E0.18547
G1 X132.2 Y166.838 E0.1899
G1 X132.2 Y172.162 E0.42013
G1 X132.18 Y172.263 E0.42456
G1 X132.062 Y172.549 E0.43793
G1 X132.005 Y172.634 E0.44236
G1 X131.634 Y173.005 E0.46505
G1 X131.549 Y173.062 E0.46947
G1 X131.263 Y173.18 E0.48285
G1 X131.162 Y173.2 E0.48728
G1 X128.838 Y173.2 E0.58779
G1 X128.737 Y173.18 E0.59222
G1 X128.451 Y173.062 E0.6056
G1 X128.366 Y173.005 E0.61002
G1 X127.995 Y172.634 E0.63271
G1 X127.938 Y172.549 E0.63714
G1 X127.82 Y172.263 E0.65051
G1 X127.8 Y172.162 E0.65494
G1 X127.8 Y166.838 E0.88517
G1 X127.82 Y166.737 E0.8896
G1 X127.938 Y166.451 E0.90298
G1 X127.995 Y166.366 E0.9074
G1 X128.324 Y166.038 E0.9275
G1 X128.692 Y166.405 F9000
G1 F1200
G1 X128.889 Y166.32 E0.93679
G1 X131.111 Y166.32 E1.03288
G1 X131.302 Y166.399 E1.04183
G1 X131.601 Y166.698 E1.06008
G1 X131.68 Y166.889 E1.06903
G1 X131.68 Y172.111 E1.29483
G1 X131.601 Y172.302 E1.30377
G1 X131.302 Y172.601 E1.32203
G1 X131.111 Y172.68 E1.33098
G1 X128.889 Y172.68 E1.42706
G1 X128.698 Y172.601 E1.43601
G1 X128.399 Y172.302 E1.45427
G1 X128.32 Y172.111 E1.46321
G1 X128.32 Y166.889 E1.68901
G1 X128.399 Y166.698 E1.69796
G1 X128.649 Y166.448 E1.71324
G1 X128.992 Y166.84 F9000
G1 F1200
G1 X131.008 Y166.84 E1.80038
G1 X131.16 Y166.992 E1.8097
G1 X131.16 Y172.008 E2.02655
G1 X131.008 Y172.16 E2.03587
G1 X128.992 Y172.16 E2.12301
G1 X128.84 Y172.008 E2.13232
G1 X128.84 Y166.992 E2.34918
G1 X128.95 Y166.882 E2.3559
G92 E0
;WIPE_START
G1 F7200
G1 X128.84 Y166.992 E-0.03691
G1 X128.84 Y170.037 E-0.76
;WIPE_END
G1 E-0.8 F1800
; acceleration to travel
M204 S1500
G1 X96.189 Y167.226 F9000
; decel to extrusion
M204 S500
G1 X92.2 Y166.882
; end travel
G1 E0 F1800
G1 F1200
G1 X92.2 Y172.162 E0.22829
G1 X92.18 Y172.263 E0.23272
G1 X92.062 Y172.549 E0.2461
G1 X92.005 Y172.634 E0.25053
G1 X91.634 Y173.005 E0.27321
G1 X91.549 Y173.062 E0.27764
G1 X91.263 Y173.18 E0.29102
G1 X91.162 Y173.2 E0.29544
G1 X88.838 Y173.2 E0.39596
G1 X88.737 Y173.18 E0.40039
G1 X88.451 Y173.062 E0.41376
G1 X88.366 Y173.005 E0.41819
G1 X87.995 Y172.634 E0.44088
G1 X87.938 Y172.549 E0.44531
G1 X87.82 Y172.263 E0.45868
G1 X87.8 Y172.162 E0.46311
G1 X87.8 Y161.838 E0.90953
G1 X87.82 Y161.737 E0.91396
G1 X87.938 Y161.451 E0.92733
G1 X87.995 Y161.366 E0.93176
G1 X88.366 Y160.995 E0.95445
G1 X88.451 Y160.938 E0.95888
G1 X88.737 Y160.82 E0.97225
G1 X88.838 Y160.8 E0.97668
G1 X91.162 Y160.8 E1.0772
G1 X91.263 Y160.82 E1.08163
G1 X91.549 Y160.938 E1.095
G1 X91.634 Y160.995 E1.09943
G1 X92.005 Y161.366 E1.12212
G1 X92.062 Y161.451 E1.12654
G1 X92.18 Y161.737 E1.13992
G1 X92.2 Y161.838 E1.14435
G1 X92.2 Y166.822 E1.35988
G1 X91.68 Y166.822 F9000
G1 F1200
G1 X91.68 Y172.111 E1.58855
G1 X91.601 Y172.302 E1.5975
G1 X91.302 Y172.601 E1.61576
G1 X91.111 Y172.68 E1.6247
G1 X88.889 Y172.68 E1.72079
G1 X88.698 Y172.601 E1.72973
G1 X88.399 Y172.302 E1.74799
G1 X88.32 Y172.111 E1.75693
G1 X88.32 Y161.889 E2.19893
G1 X88.399 Y161.698 E2.20787
G1 X88.698 Y161.399 E2.22613
G1 X88.889 Y161.32 E2.23507
G1 X91.111 Y161.32 E2.33116
G1 X91.302 Y161.399 E2.34011
G1 X91.601 Y161.698 E2.35836
G1 X91.68 Y161.889 E2.36731
G1 X91.68 Y166.762 E2.57803
G1 X91.16 Y166.762 F9000
G1 F1200
G1 X91.16 Y172.008 E2.80483
G1 X91.008 Y172.16 E2.81414
G1 X88.992 Y172.16 E2.90128
G1 X88.84 Y172.008 E2.9106
G1 X88.84 Y161.992 E3.34365
G1 X88.992 Y161.84 E3.35296
G1 X91.008 Y161.84 E3.4401
G1 X91.16 Y161.992 E3.44941
G1 X91.16 Y166.702 E3.65307
G92 E0
;WIPE_START
G1 F7200
G1 X91.16 Y163.502 E-0.76
;WIPE_END
G1 E-0.8 F1800
; acceleration to travel
M204 S1500
G1 X105.988 Y166.354 F9000
; decel to extrusion
M204 S500
G1 X107.8 Y166.702
; end travel
G1 E0 F1800
G1 F1200
G1 X107.8 Y161.838 E0.21034
G1 X107.82 Y161.737 E0.21477
G1 X107.938 Y161.451 E0.22815
G1 X107.995 Y161.366 E0.23258
G1 X108.366 Y160.995 E0.25526
G1 X108.451 Y160.938 E0.25969
G1 X108.737 Y160.82 E0.27306
G1 X108.838 Y160.8 E0.27749
G1 X111.162 Y160.8 E0.37801
G1 X111.263 Y160.82 E0.38244
G1 X111.549 Y160.938 E0.39581
G1 X111.634 Y160.995 E0.40024
G1 X112.005 Y161.366 E0.42293
G1 X112.062 Y161.451 E0.42736
G1 X112.18 Y161.737 E0.44073
G1 X112.2 Y161.838 E0.44516
G1 X112.2 Y167.162 E0.67539
G1 X112.18 Y167.263 E0.67982
G1 X112.062 Y167.549 E0.69319
G1 X112.005 Y167.634 E0.69762
G1 X111.634 Y168.005 E0.72031
G1 X111.549 Y168.062 E0.72474
G1 X111.263 Y168.18 E0.73811
G1 X111.162 Y168.2 E0.74254
G1 X108.838 Y168.2 E0.84306
G1 X108.737 Y168.18 E0.84748
G1 X108.451 Y168.062 E0.86086
G1 X108.366 Y168.005 E0.86529
G1 X107.995 Y167.634 E0.88797
G1 X107.938 Y167.549 E0.8924
G1 X107.82 Y167.263 E0.90578
G1 X107.8 Y167.162 E0.9102
G1 X107.8 Y166.762 E0.9275
G1 X108.32 Y166.762 F9000
G1 F1200
G1 X108.32 Y161.889 E1.13822
G1 X108.399 Y161.698 E1.14717
G1 X108.698 Y161.399 E1.16542
G1 X108.889 Y161.32 E1.17437
G1 X111.111 Y161.32 E1.27046
G1 X111.302 Y161.399 E1.2794
G1 X111.601 Y161.698 E1.29766
G1 X111.68 Y161.889 E1.3066
G1 X111.68 Y167.111 E1.5324
G1 X111.601 Y167.302 E1.54135
G1 X111.302 Y167.601 E1.55961
G1 X111.111 Y167.68 E1.56855
G1 X108.889 Y167.68 E1.66464
G1 X108.698 Y167.601 E1.67358
G1 X108.399 Y167.302 E1.69184
G1 X108.32 Y167.111 E1.70079
G1 X108.32 Y166.822 E1.71327
G1 X108.84 Y166.822 F9000
G1 F1200
G1 X108.84 Y161.992 E1.92211
G1 X108.992 Y161.84 E1.93143
G1 X111.008 Y161.84 E2.01857
G1 X111.16 Y161.992 E2.02788
G1 X111.16 Y167.008 E2.24474
G1 X111.008 Y167.16 E2.25405
G1 X108.992 Y167.16 E2.3412
G1 X108.84 Y167.008 E2.35051
G1 X108.84 Y166.882 E2.35593
G92 E0
;WIPE_START
G1 F7200
G1 X108.84 Y167.008 E-0.02976
G1 X108.992 Y167.16 E-0.08091
G1 X111.008 Y167.16 E-0.55957
G1 X111.16 Y167.008 E-0.61073
G1 X111.16 Y166.379 E-0.76
;WIPE_END
G1 E-0.8 F1800
; acceleration to travel
M204 S1500
G1 X165.818 Y121.158 F9000
; decel to extrusion
M204 S500
G1 X172.495 Y115.634
; end travel
G1 E0 F1800
G1 F1200
G1 X172.438 Y115.549 E0.00443
G1 X172.32 Y115.263 E0.0178
G1 X172.3 Y115.162 E0.02223
G1 X172.3 Y109.838 E0.25246
G1 X172.32 Y109.737 E0.25689
G1 X172.438 Y109.451 E0.27026
G1 X172.495 Y109.366 E0.27469
G1 X172.866 Y108.995 E0.29738
G1 X172.951 Y108.938 E0.30181
G1 X173.237 Y108.82 E0.31518
G1 X173.338 Y108.8 E0.31961
G1 X175.662 Y108.8 E0.42013
G1 X175.763 Y108.82 E0.42456
G1 X176.049 Y108.938 E0.43793
G1 X176.134 Y108.995 E0.44236
G1 X176.505 Y109.366 E0.46505
G1 X176.562 Y109.451 E0.46947
G1 X176.68 Y109.737 E0.48285
G1 X176.7 Y109.838 E0.48728
G1 X176.7 Y115.162 E0.71751
G1 X176.68 Y115.263 E0.72194
G1 X176.562 Y115.549 E0.73531
G1 X176.505 Y115.634 E0.73974
G1 X176.134 Y116.005 E0.76243
G1 X176.049 Y116.062 E0.76685
G1 X175.763 Y116.18 E0.78023
G1 X175.662 Y116.2 E0.78466
G1 X173.338 Y116.2 E0.88517
G1 X173.237 Y116.18 E0.8896
G1 X172.951 Y116.062 E0.90298
G1 X172.866 Y116.005 E0.9074
G1 X172.538 Y115.676 E0.9275
G1 X172.905 Y115.308 F9000
G1 F1200
G1 X172.82 Y115.111 E0.93679
G1 X172.82 Y109.889 E1.1626
G1 X172.899 Y109.698 E1.17154
G1 X173.198 Y109.399 E1.1898
G1 X173.389 Y109.32 E1.19874
G1 X175.611 Y109.32 E1.29483
G1 X175.802 Y109.399 E1.30377
G1 X176.101 Y109.698 E1.32203
G1 X176.18 Y109.889 E1.33098
G1 X176.18 Y115.111 E1.55678
G1 X176.101 Y115.302 E1.56572
G1 X175.802 Y115.601 E1.58398
G1 X175.611 Y115.68 E1.59293
G1 X173.389 Y115.68 E1.68901
G1 X173.198 Y115.601 E1.69796
G1 X172.948 Y115.351 E1.71324
G1 X173.34 Y115.008 F9000
G1 F1200
G1 X173.34 Y109.992 E1.9301
G1 X173.492 Y109.84 E1.93941
G1 X175.508 Y109.84 E2.02655
G1 X175.66 Y109.992 E2.03587
G1 X175.66 Y115.008 E2.25272
G1 X175.508 Y115.16 E2.26204
G1 X173.492 Y115.16 E2.34918
G1 X173.382 Y115.05 E2.3559
G92 E0
;WIPE_START
G1 F7200
G1 X173.492 Y115.16 E-0.03691
G1 X175.508 Y115.16 E-0.51557
G1 X175.66 Y115.008 E-0.56672
G1 X175.66 Y114.194 E-0.76
;WIPE_END
G1 E-0.8 F1800
; acceleration to travel
M204 S1500
G1 X140.942 Y114.957 F9000
; decel to extrusion
M204 S500
G1 X136.7 Y115.05
; end travel
G1 E0 F1800
G1 F1200
G1 X136.7 Y115.162 E0.00485
G1 X136.68 Y115.263 E0.00928
G1 X136.562 Y115.549 E0.02265
G1 X136.505 Y115.634 E0.02708
G1 X136.134 Y116.005 E0.04977
G1 X136.049 Y116.062 E0.0542
G1 X135.763 Y116.18 E0.06757
G1 X135.662 Y116.2 E0.072
G1 X133.338 Y116.2 E0.17252
G1 X133.237 Y116.18 E0.17695
G1 X132.951 Y116.062 E0.19032
G1 X132.866 Y116.005 E0.19475
G1 X132.495 Y115.634 E0.21744
G1 X132.438 Y115.549 E0.22187
G1 X132.32 Y115.263 E0.23524
G1 X132.3 Y115.162 E0.23967
G1 X132.3 Y104.838 E0.68609
G1 X132.32 Y104.737 E0.69052
G1 X132.438 Y104.451 E0.70389
G1 X132.495 Y104.366 E0.70832
G1 X132.866 Y103.995 E0.73101
G1 X132.951 Y103.938 E0.73544
G1 X133.237 Y103.82 E0.74881
G1 X133.338 Y103.8 E0.75324
G1 X135.662 Y103.8 E0.85375
G1 X135.763 Y103.82 E0.85818
G1 X136.049 Y103.938 E0.87156
G1 X136.134 Y103.995 E0.87599
G1 X136.505 Y104.366 E0.89867
G1 X136.562 Y104.451 E0.9031
G1 X136.68 Y104.737 E0.91647
G1 X136.7 Y104.838 E0.9209
G1 X136.7 Y114.99 E1.35988
G1 X136.18 Y114.99 F9000
G1 F1200
G1 X136.18 Y115.111 E1.36511
G1 X136.101 Y115.302 E1.37406
G1 X135.802 Y115.601 E1.39231
G1 X135.611 Y115.68 E1.40126
G1 X133.389 Y115.68 E1.49735
G1 X133.198 Y115.601 E1.50629
G1 X132.899 Y115.302 E1.52455
G1 X132.82 Y115.111 E1.53349
G1 X132.82 Y104.889 E1.97548
G1 X132.899 Y104.698 E1.98443
G1 X133.198 Y104.399 E2.00269
G1 X133.389 Y104.32 E2.01163
G1 X135.611 Y104.32 E2.10772
G1 X135.802 Y104.399 E2.11666
G1 X136.101 Y104.698 E2.13492
G1 X136.18 Y104.889 E2.14387
G1 X136.18 Y114.93 E2.57803
G1 X135.66 Y114.93 F9000
G1 F1200
G1 X135.66 Y115.008 E2.58139
G1 X135.508 Y115.16 E2.5907
G1 X133.492 Y115.16 E2.67784
G1 X133.34 Y115.008 E2.68716
G1 X133.34 Y104.992 E3.1202
G1 X133.492 Y104.84 E3.12952
G1 X135.508 Y104.84 E3.21666
G1 X135.66 Y104.992 E3.22597
G1 X135.66 Y114.87 E3.65307
G92 E0
;WIPE_START
G1 F7200
G1 X135.66 Y111.67 E-0.76
;WIPE_END
G1 E-0.8 F1800
; acceleration to travel
M204 S1500
G1 X92.921 Y114.522 F9000
; decel to extrusion
M204 S500
G1 X87.7 Y114.87
; end travel
G1 E0 F1800
G1 F1200
G1 X87.7 Y115.162 E0.01264
G1 X87.68 Y115.263 E0.01706
G1 X87.562 Y115.549 E0.03044
G1 X87.505 Y115.634 E0.03487
G1 X87.134 Y116.005 E0.05755
G1 X87.049 Y116.062 E0.06198
G1 X86.763 Y116.18 E0.07536
G1 X86.662 Y116.2 E0.07978
G1 X84.338 Y116.2 E0.1803
G1 X84.237 Y116.18 E0.18473
G1 X83.951 Y116.062 E0.1981
G1 X83.866 Y116.005 E0.20253
G1 X83.495 Y115.634 E0.22522
G1 X83.438 Y115.549 E0.22965
G1 X83.32 Y115.263 E0.24302
G1 X83.3 Y115.162 E0.24745
G1 X83.3 Y109.838 E0.47768
G1 X83.32 Y109.737 E0.48211
G1 X83.438 Y109.451 E0.49548
G1 X83.495 Y109.366 E0.49991
G1 X83.866 Y108.995 E0.5226
G1 X83.951 Y108.938 E0.52703
G1 X84.237 Y108.82 E0.5404
G1 X84.338 Y108.8 E0.54483
G1 X86.662 Y108.8 E0.64535
G1 X86.763 Y108.82 E0.64978
G1 X87.049 Y108.938 E0.66315
G1 X87.134 Y108.995 E0.66758
