; generated by PrusaSlicer 2.5.0+win64 on 2023-03-03 at 23:10:10 UTC

; 

; external perimeters extrusion width = 0.45mm
; perimeters extrusion width = 0.45mm
; infill extrusion width = 0.45mm
; solid infill extrusion width = 0.45mm
; top infill extrusion width = 0.40mm
; first layer extrusion width = 0.50mm

M107
M104 S200 ; set temperature
;TYPE:Custom
SET_GCODE_VARIABLE MACRO=START_PRINT VARIABLE=bed_temp VALUE=0
SET_GCODE_VARIABLE MACRO=START_PRINT VARIABLE=extruder_temp VALUE=200
START_PRINT
M109 S200 ; set temperature and wait for it to be reached
G21 ; set units to millimeters
G90 ; use absolute coordinates
M82 ; use absolute distances for extrusion
G92 E0
; Filament gcode
M107
;LAYER_CHANGE
;Z:0.25
;HEIGHT:0.25
;BEFORE_LAYER_CHANGE
;0.25


G1 Z.25 F18000
;AFTER_LAYER_CHANGE
;0.25
G1 E-.6 F2700
G92 E0
G1 X98.22 Y102.833 F18000
G1 E.6 F2700
;TYPE:Skirt/Brim
;WIDTH:0.5
G1 F3600
G1 X99.142 Y102.003 E.65755
G1 X100.555 Y101.086 E.7357
G1 X101.853 Y100.52 E.80142
G1 X103.513 Y100.106 E.88076
G1 X104.951 Y99.993 E.9477
G1 X115.223 Y99.999 E1.42425
G1 X116.371 Y100.104 E1.47773
G1 X117.719 Y100.413 E1.54188
G1 X118.861 Y100.847 E1.59857
G1 X120.132 Y101.55 E1.66594
G1 X121.064 Y102.253 E1.72007
G1 X122.082 Y103.268 E1.78678
G1 X123.051 Y104.623 E1.86409
G1 X123.591 Y105.687 E1.91942
G1 X124.068 Y107.089 E1.98814
G1 X124.332 Y108.734 E2.06544
G1 X124.359 Y114.349 E2.32591
G1 X123.963 Y116.474 E2.42621
G1 X122.827 Y118.313 E2.52651
G1 X121.104 Y119.619 E2.62681
G1 X118.466 Y120.243 E2.75255
G1 X101.534 Y120.243 E3.53806
G1 X99.409 Y119.846 E3.63836
G1 X97.57 Y118.71 E3.73866
G1 X96.264 Y116.986 E3.83896
G1 X95.641 Y114.35 E3.96463
G1 X95.653 Y111.785 E4.08362
G1 X95.913 Y107.589 E4.27865
G1 X96.203 Y106.033 E4.35209
G1 X96.89 Y104.554 E4.42776
G1 X97.649 Y103.475 E4.48896
G1 X98.18 Y102.878 E4.52603
G1 X98.513 Y103.174 F18000
G1 F3600
G1 X99.424 Y102.35 E4.583
G1 X100.769 Y101.478 E4.65739
G1 X101.993 Y100.944 E4.71935
G1 X103.573 Y100.548 E4.79492
G1 X104.951 Y100.439 E4.85904
G1 X115.203 Y100.445 E5.33464
G1 X116.313 Y100.546 E5.38634
G1 X117.58 Y100.837 E5.44668
G1 X118.684 Y101.257 E5.50144
G1 X119.879 Y101.919 E5.56485
G1 X120.778 Y102.596 E5.61708
G1 X121.739 Y103.553 E5.67996
G1 X122.663 Y104.843 E5.7536
G1 X123.184 Y105.87 E5.80702
G1 X123.633 Y107.191 E5.87177
G1 X123.886 Y108.758 E5.9454
G1 X123.912 Y114.349 E6.20476
G1 X123.516 Y116.388 E6.30116
G1 X122.386 Y118.131 E6.39755
G1 X120.684 Y119.324 E6.49394
G1 X118.466 Y119.796 E6.59916
G1 X101.534 Y119.796 E7.38467
G1 X99.494 Y119.4 E7.48106
G1 X97.752 Y118.269 E7.57746
G1 X96.559 Y116.567 E7.67385
G1 X96.088 Y114.35 E7.77901
G1 X96.098 Y111.813 E7.89671
G1 X96.358 Y107.617 E8.09175
G1 X96.628 Y106.169 E8.16009
G1 X97.277 Y104.778 E8.23129
G1 X97.99 Y103.762 E8.28889
G1 X98.473 Y103.219 E8.3226
;WIPE_START
G1 F14400
G1 X99.424 Y102.35 E8.0932
G1 X100.769 Y101.478 E7.8076
G1 X101.052 Y101.354 E7.7526
;WIPE_END
G1 E7.7226 F2700
G92 E0
G1 X117.228 Y112.203 F18000
G1 E.6 F2700
;TYPE:Perimeter
;WIDTH:0.691311
G1 F3600
G1 X117.228 Y113.112 E.66024
G1 X116.909 Y113.112 E.68137
G1 X116.732 Y113.132 E.69317
;WIDTH:0.650422
G1 X116.555 Y113.153 E.70422
;WIDTH:0.609532
G1 X116.378 Y113.173 E.71451
;WIDTH:0.568642
G1 X116.201 Y113.193 E.72404
;WIDTH:0.527752
G1 X115.863 Y113.211 E.74072
;WIDTH:0.492561
G1 X115.525 Y113.229 E.75616
;WIDTH:0.45737
G1 X115.187 Y113.246 E.77036
;WIDTH:0.422179
G1 X102.818 Y113.249 E1.24414
;WIDTH:0.417095
G1 X102.636 Y113.249 E1.25101
G1 X102.637 Y112.885 E1.26473
G1 X102.818 Y112.885 E1.27159
;WIDTH:0.422179
G1 X115.187 Y112.878 E1.74537
;WIDTH:0.44118
G1 X115.449 Y112.855 E1.75595
;WIDTH:0.484466
G1 X115.796 Y112.791 E1.77177
;WIDTH:0.527752
G1 X116.144 Y112.726 E1.78919
;WIDTH:0.568642
G1 X116.294 Y112.675 E1.7977
;WIDTH:0.609532
G1 X116.445 Y112.623 E1.80689
;WIDTH:0.650422
G1 X116.595 Y112.571 E1.81676
;WIDTH:0.691311
G1 X116.745 Y112.519 E1.82731
G1 X117.177 Y112.236 E1.86155
G1 X117.767 Y110.652 F18000
;WIDTH:0.499999
G1 F3600
G1 X117.77 Y113.654 E2.00081
G1 X102.231 Y113.654 E2.72168
G1 X102.232 Y112.481 E2.77609
G1 X115.187 Y112.47 E3.37708
G1 X115.348 Y112.45 E3.38462
G1 X116.032 Y112.28 E3.41735
G1 X116.468 Y112.053 E3.44011
G1 X116.972 Y111.72 E3.46815
G1 X117.447 Y111.198 E3.5009
G1 X117.737 Y110.704 E3.52748
;WIPE_START
G1 F14400
G1 X117.77 Y113.654 E3.00196
G1 X117.52 Y113.654 E2.95748
;WIPE_END
G1 E2.92748 F2700
G92 E0
G1 X113.915 Y106.554 F18000
G1 E.6 F2700
;WIDTH:0.444941
G1 F3600
G1 X113.634 Y106.65 E.61206
G1 X113.18 Y106.916 E.63346
G1 X113.075 Y106.945 E.63788
G1 X111.8 Y106.943 E.68973
;WIDTH:0.443079
G1 X111.702 Y106.916 E.69383
G1 X111.047 Y106.553 E.72414
G1 X111.801 Y106.553 E.75463
;WIDTH:0.444941
G1 X113.855 Y106.554 E.83816
;WIPE_START
G1 F14400
G1 X113.634 Y106.65 E.79532
G1 X113.18 Y106.916 E.7016
G1 X113.075 Y106.945 E.68224
G1 X111.8 Y106.943 E.45512
G1 X111.702 Y106.916 E.43709
G1 X111.047 Y106.553 E.3037
G1 X111.247 Y106.553 E.26816
;WIPE_END
G1 E.23816 F2700
G92 E0
G1 X108.855 Y106.553 F18000
G1 E.6 F2700
;WIDTH:0.443079
G1 F3600
G1 X108.102 Y106.943 E.63431
;WIDTH:0.444939
G1 X106.771 Y106.946 E.68843
G1 X106.419 Y106.724 E.70536
G1 X106.034 Y106.554 E.72248
G1 X108.102 Y106.553 E.80658
;WIDTH:0.443079
G1 X108.795 Y106.553 E.83465
;WIPE_START
G1 F14400
G1 X108.102 Y106.943 E.69309
G1 X106.771 Y106.946 E.45603
G1 X106.419 Y106.724 E.38189
G1 X106.034 Y106.554 E.30688
G1 X106.271 Y106.554 E.26465
;WIPE_END
G1 E.23465 F2700
G92 E0
G1 X117.586 Y108.975 F18000
G1 E.6 F2700
;TYPE:External perimeter
;WIDTH:0.591495
G1 F3600
G1 X117.575 Y108.869 E.60592
;WIDTH:0.585429
G1 X117.422 Y108.369 E.63482
;WIDTH:0.586689
G1 X117.175 Y107.908 E.6638
;WIDTH:0.587301
G1 X116.843 Y107.504 E.69281
;WIDTH:0.588272
G1 X116.438 Y107.172 E.72188
;WIDTH:0.593763
G1 X115.947 Y106.915 E.75303
;WIDTH:0.599572
G1 X115.422 Y106.775 E.78383
;WIDTH:0.603887
G1 X114.935 Y106.737 E.81176
G1 X114.423 Y106.775 E.84117
;WIDTH:0.590037
G1 X114.073 Y106.922 E.86229
;WIDTH:0.545018
G1 X113.724 Y107.069 E.88164
;WIDTH:0.499999
G1 X113.215 Y107.365 E.90895
G1 X111.673 Y107.36 E.9805
G1 X111.492 Y107.277 E.98977
G1 X110.92 Y106.95 E1.02031
;WIDTH:0.538335
G1 X110.76 Y106.884 E1.02903
;WIDTH:0.57667
G1 X110.6 Y106.819 E1.03845
;WIDTH:0.615005
G1 X110.439 Y106.753 E1.04856
G1 X109.925 Y106.719 E1.07861
;WIDTH:0.598591
G1 X109.413 Y106.771 E1.1078
G1 X109.173 Y106.871 E1.12251
;WIDTH:0.549295
G1 X108.933 Y106.971 E1.13589
;WIDTH:0.499999
G1 X108.229 Y107.36 E1.1732
G1 X106.829 Y107.364 E1.23814
G1 X106.607 Y107.337 E1.24852
G1 X106.162 Y107.06 E1.27285
;WIDTH:0.53484
G1 X105.866 Y106.951 E1.28865
;WIDTH:0.569681
G1 X105.569 Y106.842 E1.30559
;WIDTH:0.604522
G1 X105.273 Y106.733 E1.32368
G1 X104.985 Y106.735 E1.34014
;WIDTH:0.602346
G1 X104.47 Y106.764 E1.36959
;WIDTH:0.590507
G1 X103.987 Y106.9 E1.39757
;WIDTH:0.58984
G1 X103.528 Y107.132 E1.42623
;WIDTH:0.589546
G1 X103.005 Y107.562 E1.46394
;WIDTH:0.586632
G1 X102.702 Y107.939 E1.49072
;WIDTH:0.584099
G1 X102.569 Y108.022 E1.49937
G1 X102.107 Y107.99 E1.5249
G1 X102.113 Y107.883 E1.53082
;WIDTH:0.593785
G1 X102.428 Y107.409 E1.56278
;WIDTH:0.60103
G1 X102.833 Y106.987 E1.59604
G1 X103.346 Y106.617 E1.63206
;WIDTH:0.589241
G1 X103.892 Y106.367 E1.66548
;WIDTH:0.588657
G1 X104.499 Y106.222 E1.70019
;WIDTH:0.598802
G1 X105.499 Y106.16 E1.75693
;WIDTH:0.549401
G1 X105.78 Y106.135 E1.77151
;WIDTH:0.499999
G1 X108.864 Y106.135 E1.91457
;WIDTH:0.538334
G1 X109.055 Y106.154 E1.92422
;WIDTH:0.576669
G1 X109.245 Y106.174 E1.93464
;WIDTH:0.615005
G1 X109.436 Y106.193 E1.94582
G1 X110.466 Y106.193 E2.00592
G1 X110.657 Y106.174 E2.01711
;WIDTH:0.57667
G1 X110.848 Y106.154 E2.02752
;WIDTH:0.538335
G1 X111.038 Y106.135 E2.03718
;WIDTH:0.499999
G1 X113.618 Y106.135 E2.15686
;WIDTH:0.538706
G1 X113.883 Y106.155 E2.17025
;WIDTH:0.577413
G1 X114.148 Y106.174 E2.1847
;WIDTH:0.616119
G1 X114.412 Y106.193 E2.20022
G1 X114.95 Y106.188 E2.23168
;WIDTH:0.603887
G1 X115.566 Y106.248 E2.26705
;WIDTH:0.599572
G1 X116.271 Y106.475 E2.30907
;WIDTH:0.586322
G1 X116.812 Y106.786 E2.34361
;WIDTH:0.585744
G1 X117.282 Y107.196 E2.3781
;WIDTH:0.585395
G1 X117.664 Y107.688 E2.41254
G1 X117.942 Y108.245 E2.44695
;WIDTH:0.585164
G1 X118.111 Y108.847 E2.48147
;WIDTH:0.591482
G1 X118.17 Y109.413 E2.51329
;WIDTH:0.592927
G1 X118.169 Y109.47 E2.51646
;WIDTH:0.620095
G1 X118.156 Y109.98 E2.54654
G1 X118.176 Y110.161 E2.55726
;WIDTH:0.580063
G1 X118.196 Y110.342 E2.56722
;WIDTH:0.540031
G1 X118.216 Y110.523 E2.57642
;WIDTH:0.499999
G1 X118.216 Y114.1 E2.74236
G1 X101.784 Y114.1 E3.50466
G1 X101.786 Y112.201 E3.59277
G1 X101.819 Y112.084 E3.5984
G1 X101.921 Y112.035 E3.60367
G1 X115.186 Y112.024 E4.21907
G1 X115.985 Y111.822 E4.25728
G1 X116.642 Y111.419 E4.29303
G1 X117.149 Y110.853 E4.32829
G1 X117.389 Y110.398 E4.35213
;WIDTH:0.539115
G1 X117.458 Y110.236 E4.36102
;WIDTH:0.578231
G1 X117.526 Y110.074 E4.37063
;WIDTH:0.617347
G1 X117.595 Y109.912 E4.38096
G1 X117.631 Y109.389 E4.41164
;WIDTH:0.591495
G1 X117.593 Y109.034 E4.4316
;LAYER_CHANGE
;Z:0.45
;HEIGHT:0.2
;BEFORE_LAYER_CHANGE
;0.45


G1 Z.45 F18000
;AFTER_LAYER_CHANGE
;0.45
G1 E3.8316 F2700
G92 E0
G1 X117.606 Y111.237 F18000
G1 E.6 F2700
;TYPE:Perimeter
;WIDTH:0.449999
G1 F6000
G1 X117.606 Y113.311 E.67019
G1 X115.87 Y113.311 E.72897
;WIDTH:0.494669
G1 X115.725 Y113.289 E.73448
;WIDTH:0.539339
G1 X115.58 Y113.266 E.74053
;WIDTH:0.584008
G1 X115.435 Y113.244 E.74714
;WIDTH:0.584672
G1 X102.732 Y113.246 E1.31937
;WIDTH:0.579842
G1 X102.462 Y113.246 E1.3314
G1 X102.464 Y112.709 E1.35536
G1 X102.732 Y112.709 E1.36729
;WIDTH:0.584672
G1 X115.17 Y112.702 E1.92759
G1 X115.38 Y112.681 E1.9371
;WIDTH:0.584008
G1 X115.598 Y112.604 E1.9475
;WIDTH:0.539339
G1 X115.816 Y112.527 E1.95704
;WIDTH:0.494669
G1 X116.034 Y112.451 E1.96573
;WIDTH:0.449999
G1 X116.637 Y112.162 E1.98837
G1 X116.886 Y111.994 E1.99853
G1 X117.367 Y111.555 E2.02057
G1 X117.57 Y111.285 E2.03201
G1 X117.7 Y109.948 F18000
;WIDTH:0.401806
G1 F6496
G1 X117.741 Y109.471 E2.04628
;WIDTH:0.363061
G1 X117.725 Y109.16 E2.05459
G1 X117.629 Y108.64 E2.06866
;WIDTH:0.362199
G1 X117.445 Y108.162 E2.08225
;WIDTH:0.361945
G1 X117.177 Y107.726 E2.09584
;WIDTH:0.36152
G1 X116.833 Y107.346 E2.10941
;WIDTH:0.360921
G1 X116.426 Y107.036 E2.12294
;WIDTH:0.360307
G1 X115.949 Y106.798 E2.137
;WIDTH:0.358887
G1 X115.335 Y106.64 E2.15367
;WIDTH:0.362039
G1 X114.759 Y106.614 E2.16896
;WIDTH:0.406019
G1 X114.489 Y106.637 E2.17713
;WIDTH:0.449999
G1 X114.22 Y106.66 E2.1863
G1 X113.701 Y106.855 E2.20505
G1 X113.199 Y107.159 E2.22492
G1 X111.736 Y107.159 E2.27443
G1 X111.586 Y107.101 E2.27988
G1 X110.961 Y106.75 E2.30413
G1 X110.697 Y106.695 E2.31327
;WIDTH:0.415215
G1 X110.432 Y106.641 E2.32162
;WIDTH:0.38043
G1 X109.897 Y106.61 E2.33667
;WIDTH:0.398697
G1 X109.359 Y106.653 E2.35264
;WIDTH:0.424348
G1 X109.081 Y106.732 E2.36181
;WIDTH:0.449999
G1 X108.803 Y106.811 E2.3716
G1 X108.199 Y107.159 E2.39519
G1 X106.816 Y107.162 E2.44199
G1 X106.65 Y107.135 E2.44768
G1 X106.224 Y106.866 E2.46474
G1 X105.729 Y106.673 E2.48272
G1 X105.356 Y106.644 E2.4954
;WIDTH:0.406749
G1 X104.982 Y106.615 E2.50673
;WIDTH:0.36757
G1 X104.455 Y106.669 E2.52103
G1 X103.906 Y106.815 E2.53636
;WIDTH:0.355679
G1 X103.457 Y107.045 E2.54948
G1 X103.025 Y107.388 E2.56383
;WIDTH:0.357476
G1 X102.578 Y107.905 E2.5817
G1 X102.243 Y107.893 E2.59048
;WIDTH:0.36842
G1 X102.513 Y107.487 E2.60368
G1 X102.936 Y107.043 E2.62029
;WIDTH:0.357018
G1 X103.351 Y106.739 E2.6337
;WIDTH:0.357411
G1 X103.859 Y106.494 E2.64846
;WIDTH:0.36757
G1 X104.375 Y106.354 E2.66291
G1 X104.7 Y106.314 E2.67175
;WIDTH:0.365335
G1 X105.209 Y106.296 E2.68538
;WIDTH:0.407667
G1 X105.486 Y106.317 E2.69382
;WIDTH:0.449999
G1 X105.763 Y106.338 E2.70323
G1 X108.991 Y106.326 E2.81249
;WIDTH:0.424348
G1 X109.31 Y106.313 E2.8226
;WIDTH:0.398697
G1 X109.882 Y106.293 E2.83954
;WIDTH:0.38043
G1 X110.449 Y106.304 E2.85545
;WIDTH:0.415215
G1 X110.735 Y106.321 E2.86432
;WIDTH:0.449999
G1 X111.021 Y106.339 E2.87402
G1 X114.19 Y106.339 E2.9813
G1 X114.575 Y106.318 E2.99434
;WIDTH:0.406532
G1 X114.959 Y106.296 E3.00599
;WIDTH:0.365093
G1 X115.535 Y106.355 E3.02148
G1 X116.218 Y106.574 E3.04071
;WIDTH:0.353763
G1 X116.759 Y106.886 E3.05684
;WIDTH:0.352418
G1 X117.211 Y107.285 E3.07236
;WIDTH:0.352114
G1 X117.578 Y107.763 E3.08786
G1 X117.846 Y108.303 E3.10337
;WIDTH:0.352233
G1 X118.004 Y108.885 E3.11887
;WIDTH:0.358551
G1 X118.059 Y109.417 E3.13291
;WIDTH:0.386678
G1 X118.045 Y109.975 E3.14886
;WIDTH:0.418339
G1 X118.029 Y110.24 E3.15714
;WIDTH:0.449999
G1 X118.013 Y110.505 E3.16612
G1 X118.013 Y113.718 E3.27488
G1 X101.989 Y113.718 E3.81729
G1 X101.994 Y112.238 E3.8674
G1 X115.169 Y112.227 E4.31337
G1 X115.287 Y112.216 E4.31739
G1 X115.859 Y112.083 E4.33724
G1 X116.612 Y111.694 E4.36593
G1 X117.203 Y111.119 E4.39385
G1 X117.529 Y110.575 E4.41531
G1 X117.694 Y110.018 E4.43497
;WIDTH:0.401806
G1 X117.695 Y110.008 E4.43529
G1 X117.347 Y109.026 F18000
;TYPE:External perimeter
;WIDTH:0.449999
G1 F6496
G1 X117.21 Y108.505 E4.45354
G1 X116.993 Y108.083 E4.46961
G1 X116.69 Y107.702 E4.48609
G1 X116.303 Y107.38 E4.50312
G1 X115.859 Y107.148 E4.52008
G1 X115.245 Y106.989 E4.54156
G1 X114.761 Y106.977 E4.55791
G1 X114.294 Y107.06 E4.57398
G1 X113.852 Y107.233 E4.59005
G1 X113.543 Y107.431 E4.60248
G1 X113.267 Y107.566 E4.61285
G1 X111.736 Y107.566 E4.6647
G1 X111.48 Y107.512 E4.67354
G1 X110.891 Y107.161 E4.69675
G1 X110.435 Y107.019 E4.71293
G1 X109.971 Y106.97 E4.72873
G1 X109.49 Y107.013 E4.74505
G1 X109.011 Y107.161 E4.76203
G1 X108.525 Y107.451 E4.78119
G1 X108.268 Y107.566 E4.79071
G1 X106.817 Y107.569 E4.83984
G1 X106.479 Y107.51 E4.85143
G1 X106.103 Y107.261 E4.86671
G1 X105.683 Y107.083 E4.88216
G1 X105.238 Y106.987 E4.89757
G1 X104.734 Y106.981 E4.91462
G1 X104.108 Y107.123 E4.93634
G1 X103.704 Y107.314 E4.95147
G1 X103.302 Y107.617 E4.9685
G1 X102.924 Y108.075 E4.98862
G1 X102.724 Y108.246 E4.99752
G1 X102.507 Y108.263 E5.00491
G1 X101.989 Y108.22 E5.02248
G1 X101.858 Y108.054 E5.02967
G1 X101.877 Y107.795 E5.03844
G1 X102.212 Y107.272 E5.05945
G1 X102.643 Y106.812 E5.0808
G1 X103.15 Y106.436 E5.10214
G1 X103.716 Y106.159 E5.12349
G1 X104.323 Y105.989 E5.14483
G1 X104.961 Y105.931 E5.16651
G1 X114.969 Y105.932 E5.50528
G1 X115.588 Y105.991 E5.52633
G1 X116.204 Y106.166 E5.548
G1 X116.777 Y106.451 E5.56966
G1 X117.288 Y106.837 E5.59133
G1 X117.719 Y107.31 E5.61299
G1 X118.056 Y107.854 E5.63466
G1 X118.27 Y108.406 E5.65468
G1 X118.356 Y108.819 E5.66899
G1 X118.42 Y109.417 E5.68934
G1 X118.42 Y114.125 E5.84869
G1 X101.58 Y114.125 E6.41871
G1 X101.587 Y112.189 E6.48422
G1 X101.668 Y111.937 E6.4932
G1 X101.928 Y111.831 E6.5027
G1 X115.169 Y111.82 E6.9509
G1 X115.683 Y111.716 E6.96866
G1 X116.337 Y111.394 E6.99332
G1 X116.854 Y110.909 E7.01731
G1 X117.18 Y110.366 E7.03877
G1 X117.328 Y109.906 E7.05513
G1 X117.381 Y109.434 E7.0712
G1 X117.352 Y109.086 E7.08301
G1 X117.656 Y108.773 F18000
;WIPE_START
G1 F14400
G1 X117.21 Y108.505 E6.9764
G1 X116.993 Y108.083 E6.89186
G1 X116.69 Y107.702 E6.80513
G1 X116.303 Y107.38 E6.71549
G1 X115.859 Y107.148 E6.62626
G1 X115.245 Y106.989 E6.51323
G1 X115.243 Y106.989 E6.513
;WIPE_END
G1 E6.48301 F2700
G92 E0
G1 X111.796 Y106.749 F18000
G1 E.6 F2700
;TYPE:Perimeter
;WIDTH:0.455666
G1 F6496
G1 X113.094 Y106.749 E.64456
;WIPE_START
G1 F14400
G1 X111.796 Y106.749 E.41331
;WIPE_END
G1 E.04456 F2700
G92 E0
G1 X106.815 Y106.75 F18000
G1 E.6 F2700
;WIDTH:0.45951
G1 F6496
G1 X108.106 Y106.749 E.64472
;WIPE_START
G1 F14400
G1 X106.815 Y106.75 E.41477
;WIPE_END
G1 E.04472 F2700
G92 E0
G1 X117.484 Y112.261 F18000
G1 E.6 F2700
;TYPE:Solid infill
;WIDTH:0.499238
G1 F6496
G1 X116.74 Y113.006 E.63993
G1 X116.095 Y113.006 E.66442
G1 X117.484 Y111.616 E.73898
;LAYER_CHANGE
;Z:0.65
;HEIGHT:0.2
;BEFORE_LAYER_CHANGE
;0.65


G1 Z.65 F18000
;AFTER_LAYER_CHANGE
;0.65
G1 X117.653 Y111.101
;TYPE:Perimeter
;WIDTH:0.449999
G1 F6000
G1 X117.656 Y113.311 E.81378
G1 X116.491 Y113.311 E.85322
;WIDTH:0.496483
G1 X116.266 Y113.288 E.86177
;WIDTH:0.542966
G1 X116.04 Y113.264 E.8712
;WIDTH:0.589449
