; generated by PrusaSlicer 2.5.0+win64 on 2023-03-03 at 23:59:24 UTC

; 

; external perimeters extrusion width = 0.45mm
; perimeters extrusion width = 0.45mm
; infill extrusion width = 0.45mm
; solid infill extrusion width = 0.45mm
; top infill extrusion width = 0.40mm
; first layer extrusion width = 0.50mm

M107
M190 S60 ; set bed temperature and wait for it to be reached
M104 S205 ; set temperature
;TYPE:Custom
SET_GCODE_VARIABLE MACRO=START_PRINT VARIABLE=bed_temp VALUE=60
SET_GCODE_VARIABLE MACRO=START_PRINT VARIABLE=extruder_temp VALUE=205
START_PRINT
M109 S205 ; set temperature and wait for it to be reached
G21 ; set units to millimeters
G90 ; use absolute coordinates
M82 ; use absolute distances for extrusion
G92 E0
; Filament gcode
M107
;LAYER_CHANGE
;Z:0.25
;HEIGHT:0.25
;BEFORE_LAYER_CHANGE
;0.25


G1 Z.25 F18000
;AFTER_LAYER_CHANGE
;0.25
G1 E-.6 F2700
G92 E0
G1 X94.954 Y96.555 F18000
G1 E.6 F2700
;TYPE:Skirt/Brim
;WIDTH:0.5
G1 F3600
G1 X96.226 Y95.329 E.68198
G1 X97.603 Y94.211 E.76426
G1 X100.05 Y92.645 E.89903
G1 X101.638 Y91.865 E.98115
G1 X103.288 Y91.222 E1.06328
G1 X104.986 Y90.722 E1.14541
G1 X106.721 Y90.369 E1.22754
G1 X108.479 Y90.164 E1.30966
G1 X110.243 Y90.11 E1.39152
G1 X112.882 Y90.309 E1.5143
G1 X115.246 Y90.781 E1.62612
G1 X117.172 Y91.385 E1.71978
G1 X119.378 Y92.344 E1.83141
G1 X121.668 Y93.692 E1.95466
G1 X123.284 Y94.907 E2.04844
G1 X125.043 Y96.55 E2.16011
G1 X126.365 Y98.08 E2.25393
G1 X127.865 Y100.27 E2.37708
G1 X128.971 Y102.403 E2.48854
G1 X129.897 Y104.887 E2.61153
G1 X130.386 Y106.848 E2.7053
G1 X130.717 Y109.234 E2.81703
G1 X130.78 Y111.254 E2.91079
G1 X130.565 Y113.895 E3.03373
G1 X130.08 Y116.253 E3.1454
G1 X129.465 Y118.175 E3.23901
G1 X128.494 Y120.374 E3.35053
G1 X127.618 Y121.916 E3.43281
G1 X126.464 Y123.576 E3.52664
G1 X124.892 Y125.389 E3.63794
G1 X123.413 Y126.767 E3.73171
G1 X121.488 Y128.211 E3.84338
G1 X119.971 Y129.127 E3.92557
G1 X117.065 Y129.893 E4.06497
G1 X102 Y129.893 E4.76387
G1 X99.875 Y129.496 E4.86417
G1 X97.649 Y127.974 E4.98928
G1 X93.191 Y123.075 E5.29656
G1 X91.935 Y121.165 E5.40262
G1 X90.771 Y118.775 E5.52598
G1 X90.17 Y117.111 E5.60805
G1 X89.713 Y115.401 E5.69018
G1 X89.282 Y112.526 E5.82501
G1 X89.218 Y110.757 E5.90714
G1 X89.305 Y108.989 E5.98926
G1 X89.542 Y107.235 E6.07139
G1 X89.926 Y105.511 E6.15331
G1 X90.457 Y103.823 E6.23543
G1 X91.027 Y102.41 E6.30608
G1 X91.816 Y100.828 E6.38811
G1 X92.74 Y99.316 E6.47034
G1 X93.787 Y97.889 E6.55246
G1 X94.914 Y96.6 E6.63187
G1 X95.25 Y96.894 F18000
G1 F3600
G1 X96.527 Y95.659 E6.7143
G1 X97.874 Y94.565 E6.79481
G1 X100.257 Y93.04 E6.92606
G1 X101.812 Y92.276 E7.00642
G1 X103.426 Y91.647 E7.08679
G1 X105.087 Y91.157 E7.16715
G1 X106.785 Y90.81 E7.24752
G1 X108.505 Y90.61 E7.32788
G1 X110.231 Y90.556 E7.40797
G1 X112.813 Y90.75 E7.52812
G1 X115.139 Y91.215 E7.63817
G1 X117.012 Y91.801 E7.72919
G1 X119.183 Y92.746 E7.83905
G1 X121.423 Y94.065 E7.95965
G1 X122.993 Y95.246 E8.05079
G1 X124.724 Y96.863 E8.1607
G1 X126.01 Y98.35 E8.25187
G1 X127.478 Y100.493 E8.37237
G1 X128.567 Y102.592 E8.48207
G1 X129.472 Y105.023 E8.60242
G1 X129.947 Y106.928 E8.69354
G1 X130.273 Y109.276 E8.80351
G1 X130.334 Y111.239 E8.89462
G1 X130.125 Y113.824 E9.01492
G1 X129.647 Y116.144 E9.12483
G1 X129.05 Y118.012 E9.21579
G1 X128.094 Y120.176 E9.32555
G1 X127.236 Y121.685 E9.40607
G1 X126.114 Y123.298 E9.49724
G1 X124.567 Y125.082 E9.60679
G1 X123.13 Y126.421 E9.69791
G1 X121.235 Y127.843 E9.80782
G1 X119.751 Y128.738 E9.88824
G1 X117.065 Y129.446 E10.01708
G1 X102 Y129.446 E10.71598
G1 X99.961 Y129.05 E10.81238
G1 X97.979 Y127.673 E10.92435
G1 X93.539 Y122.795 E11.23034
G1 X92.319 Y120.939 E11.33339
G1 X91.181 Y118.599 E11.4541
G1 X90.594 Y116.971 E11.53441
G1 X90.147 Y115.297 E11.61478
G1 X89.727 Y112.498 E11.74608
G1 X89.664 Y110.767 E11.82644
G1 X89.748 Y109.037 E11.9068
G1 X89.98 Y107.32 E11.98717
G1 X90.355 Y105.634 E12.06732
G1 X90.874 Y103.981 E12.14769
G1 X91.437 Y102.586 E12.21745
G1 X92.21 Y101.039 E12.29772
G1 X93.114 Y99.558 E12.37818
G1 X94.14 Y98.163 E12.45854
G1 X95.21 Y96.939 E12.53396
;WIPE_START
G1 F14400
G1 X96.527 Y95.659 E12.20682
G1 X97.585 Y94.8 E11.96396
;WIPE_END
G1 E11.93396 F2700
G92 E0
G1 X103.207 Y122.219 F18000
G1 E.6 F2700
;TYPE:Perimeter
;WIDTH:0.628274
G1 F3600
G1 X103.494 Y122.219 E.61714
;WIDTH:0.634127
G1 X116.017 Y122.21 E1.37265
;WIDTH:0.636051
G1 X116.101 Y122.208 E1.37776
;WIDTH:0.655647
G1 X116.995 Y122.14 E1.43387
G1 X117.704 Y121.984 E1.47926
G1 X118.242 Y121.794 E1.51501
G1 X117.484 Y122.331 E1.57316
G1 X116.813 Y122.74 E1.62235
G1 X116.664 Y122.779 E1.63195
G1 X116.017 Y122.79 E1.67246
;WIDTH:0.634127
G1 X103.495 Y122.793 E2.42797
;WIDTH:0.628274
G1 X103.207 Y122.793 E2.44513
G1 X103.207 Y122.279 E2.47585
;WIPE_START
G1 F14400
G1 X103.494 Y122.219 E2.42361
G1 X106.401 Y122.217 E1.90585
;WIPE_END
G1 E1.87585 F2700
G92 E0
G1 X98.729 Y118.64 F18000
G1 E.6 F2700
;WIDTH:0.572791
G1 F3600
G1 X98.742 Y118.785 E.6079
G1 X98.575 Y118.934 E.61999
G1 X98.385 Y118.918 E.63025
G1 X98.26 Y118.782 E.64022
;WIDTH:0.585963
G1 X97.953 Y118.316 E.67108
G1 X97.601 Y117.716 E.70955
;WIDTH:0.581435
G1 X97.367 Y117.274 E.73699
;WIDTH:0.581696
G1 X97.107 Y116.73 E.77008
;WIDTH:0.581884
G1 X96.87 Y116.176 E.80319
;WIDTH:0.58205
G1 X96.657 Y115.612 E.8363
G1 X96.468 Y115.039 E.86942
G1 X96.304 Y114.459 E.90253
;WIDTH:0.581934
G1 X96.164 Y113.872 E.93564
G1 X96.05 Y113.28 E.96874
;WIDTH:0.581771
G1 X95.961 Y112.684 E1.00184
;WIDTH:0.581591
G1 X95.897 Y112.084 E1.03493
;WIDTH:0.581231
G1 X95.859 Y111.483 E1.06799
;WIDTH:0.580854
G1 X95.846 Y110.874 E1.10138
;WIDTH:0.580411
G1 X95.862 Y110.227 E1.13681
;WIDTH:0.579984
G1 X95.908 Y109.581 E1.17222
;WIDTH:0.579684
G1 X95.976 Y108.985 E1.205
;WIDTH:0.581625
G1 X96.054 Y108.48 E1.23307
;WIDTH:0.581823
G1 X96.169 Y107.888 E1.26617
;WIDTH:0.581975
G1 X96.31 Y107.302 E1.29927
G1 X96.474 Y106.725 E1.3322
G1 X96.665 Y106.149 E1.3655
G1 X96.879 Y105.586 E1.3986
G1 X97.117 Y105.032 E1.43171
;WIDTH:0.581838
G1 X97.378 Y104.488 E1.46481
;WIDTH:0.581629
G1 X97.66 Y103.959 E1.49772
;WIDTH:0.581293
G1 X97.968 Y103.437 E1.53097
;WIDTH:0.580997
G1 X98.296 Y102.931 E1.56401
;WIDTH:0.580577
G1 X98.667 Y102.413 E1.59893
;WIDTH:0.58013
G1 X99.067 Y101.904 E1.63435
;WIDTH:0.57975
G1 X99.46 Y101.446 E1.66731
;WIDTH:0.581513
G1 X99.816 Y101.062 E1.69607
;WIDTH:0.581754
G1 X100.244 Y100.637 E1.72916
;WIDTH:0.582006
G1 X100.69 Y100.231 E1.76228
G1 X101.152 Y99.844 E1.79539
G1 X101.631 Y99.478 E1.8285
G1 X102.124 Y99.132 E1.86161
G1 X102.636 Y98.805 E1.89493
;WIDTH:0.581882
G1 X103.154 Y98.504 E1.92783
;WIDTH:0.58172
G1 X103.687 Y98.223 E1.96092
;WIDTH:0.581465
G1 X104.233 Y97.966 E1.99401
;WIDTH:0.58114
G1 X104.788 Y97.732 E2.02705
;WIDTH:0.580706
G1 X105.371 Y97.516 E2.06108
;WIDTH:0.580319
G1 X105.986 Y97.319 E2.09647
;WIDTH:0.579889
G1 X106.613 Y97.15 E2.13194
;WIDTH:0.581349
G1 X107.102 Y97.037 E2.1595
;WIDTH:0.581747
G1 X107.688 Y96.928 E2.19222
;WIDTH:0.581855
G1 X108.285 Y96.842 E2.22532
;WIDTH:0.581999
G1 X108.894 Y96.781 E2.25891
G1 X109.487 Y96.747 E2.29154
G1 X110.09 Y96.738 E2.32466
G1 X110.692 Y96.755 E2.35776
G1 X111.286 Y96.796 E2.39045
;WIDTH:0.581711
G1 X111.893 Y96.865 E2.42398
;WIDTH:0.581547
G1 X112.49 Y96.958 E2.45709
;WIDTH:0.581337
G1 X113.08 Y97.076 E2.49013
;WIDTH:0.580889
G1 X113.668 Y97.22 E2.52331
;WIDTH:0.580375
G1 X114.289 Y97.403 E2.55874
;WIDTH:0.580013
G1 X114.895 Y97.611 E2.5938
;WIDTH:0.579756
G1 X115.462 Y97.834 E2.62709
;WIDTH:0.581587
G1 X115.926 Y98.038 E2.65492
;WIDTH:0.581805
G1 X116.473 Y98.304 E2.6883
;WIDTH:0.581981
G1 X117.004 Y98.592 E2.72149
G1 X117.52 Y98.901 E2.75452
G1 X118.022 Y99.23 E2.78745
G1 X118.514 Y99.584 E2.82074
G1 X118.987 Y99.957 E2.85385
;WIDTH:0.581849
G1 X119.445 Y100.349 E2.88695
;WIDTH:0.581648
G1 X119.886 Y100.761 E2.92004
;WIDTH:0.581372
G1 X120.308 Y101.191 E2.95311
;WIDTH:0.581028
G1 X120.712 Y101.639 E2.98616
;WIDTH:0.580614
G1 X121.115 Y102.128 E3.02089
;WIDTH:0.580162
G1 X121.502 Y102.643 E3.05612
;WIDTH:0.579835
G1 X121.844 Y103.143 E3.08926
;WIDTH:0.58149
G1 X122.126 Y103.59 E3.11823
;WIDTH:0.581719
G1 X122.424 Y104.11 E3.15114
;WIDTH:0.581952
G1 X122.703 Y104.648 E3.18443
G1 X122.957 Y105.195 E3.21753
G1 X123.188 Y105.752 E3.25064
G1 X123.395 Y106.318 E3.28375
G1 X123.578 Y106.893 E3.31686
G1 X123.736 Y107.475 E3.34997
;WIDTH:0.581729
G1 X123.869 Y108.063 E3.38306
;WIDTH:0.58148
G1 X123.976 Y108.653 E3.41596
;WIDTH:0.581102
G1 X124.06 Y109.253 E3.4492
;WIDTH:0.580771
G1 X124.117 Y109.865 E3.48288
;WIDTH:0.580633
G1 X124.148 Y110.456 E3.51526
G1 X124.149 Y110.515 E3.51851
;WIDTH:0.579908
G1 X124.151 Y111.155 E3.55351
;WIDTH:0.581385
G1 X124.134 Y111.661 E3.5813
;WIDTH:0.581656
G1 X124.088 Y112.262 E3.61439
;WIDTH:0.581953
G1 X124.017 Y112.861 E3.64749
G1 X123.92 Y113.456 E3.6806
G1 X123.799 Y114.043 E3.71353
G1 X123.651 Y114.631 E3.74683
G1 X123.479 Y115.209 E3.77993
G1 X123.283 Y115.78 E3.81303
;WIDTH:0.581801
G1 X123.064 Y116.338 E3.84596
;WIDTH:0.581525
G1 X122.819 Y116.892 E3.87922
;WIDTH:0.581284
G1 X122.552 Y117.433 E3.91228
;WIDTH:0.580984
G1 X122.263 Y117.962 E3.94533
;WIDTH:0.580486
G1 X121.926 Y118.514 E3.98073
;WIDTH:0.580048
G1 X121.565 Y119.051 E4.01614
;WIDTH:0.579681
G1 X121.207 Y119.536 E4.04909
;WIDTH:0.581566
G1 X120.885 Y119.938 E4.07737
;WIDTH:0.591436
G1 X120.487 Y120.391 E4.11107
;WIDTH:0.608584
G1 X120.068 Y120.82 E4.14566
;WIDTH:0.646453
G1 X119.587 Y121.259 E4.18582
G1 X119.464 Y121.402 E4.19742
;WIDTH:0.597635
G1 X119.34 Y121.544 E4.20806
;WIDTH:0.548817
G1 X119.217 Y121.686 E4.21774
;WIDTH:0.499999
G1 X118.748 Y122.07 E4.24586
G1 X118.066 Y122.568 E4.28507
G1 X117.434 Y122.981 E4.32005
G1 X116.882 Y123.304 E4.34974
G1 X102.697 Y123.304 E5.00782
G1 X102.697 Y122.084 E5.06438
G1 X102.762 Y121.827 E5.07671
G1 X102.981 Y121.709 E5.08826
G1 X116.064 Y121.695 E5.69521
G1 X116.882 Y121.628 E5.73331
G1 X117.684 Y121.445 E5.77144
G1 X118.281 Y121.219 E5.80106
G1 X118.743 Y120.986 E5.82506
;WIDTH:0.544277
G1 X118.867 Y120.942 E5.8318
;WIDTH:0.588555
G1 X118.992 Y120.899 E5.83915
;WIDTH:0.632832
G1 X119.117 Y120.855 E5.84711
;WIDTH:0.644648
G1 X119.246 Y120.774 E5.85647
G1 X119.707 Y120.4 E5.89292
;WIDTH:0.608584
G1 X120.099 Y120.017 E5.92453
;WIDTH:0.591436
G1 X120.481 Y119.599 E5.95618
;WIDTH:0.581566
G1 X120.842 Y119.146 E5.98799
;WIDTH:0.581269
G1 X121.184 Y118.678 E6.01978
;WIDTH:0.580902
G1 X121.506 Y118.194 E6.0516
;WIDTH:0.580467
G1 X121.828 Y117.66 E6.08578
;WIDTH:0.580031
G1 X122.125 Y117.113 E6.11983
;WIDTH:0.581284
G1 X122.346 Y116.66 E6.14744
;WIDTH:0.581525
G1 X122.581 Y116.127 E6.17942
;WIDTH:0.581801
G1 X122.79 Y115.59 E6.21106
;WIDTH:0.581987
G1 X123.143 Y114.486 E6.2747
G1 X123.285 Y113.921 E6.30671
G1 X123.494 Y112.784 E6.37018
;WIDTH:0.581857
G1 X123.563 Y112.209 E6.40199
;WIDTH:0.581656
G1 X123.607 Y111.631 E6.43381
;WIDTH:0.581385
G1 X123.626 Y111.051 E6.4656
;WIDTH:0.581042
G1 X123.622 Y110.472 E6.49737
;WIDTH:0.580633
G1 X123.589 Y109.86 E6.53091
;WIDTH:0.58018
G1 X123.528 Y109.242 E6.56489
;WIDTH:0.579791
G1 X123.443 Y108.657 E6.59723
;WIDTH:0.58148
G1 X123.35 Y108.16 E6.625
;WIDTH:0.581729
G1 X123.221 Y107.594 E6.65682
;WIDTH:0.582016
G1 X122.893 Y106.483 E6.72046
G1 X122.694 Y105.939 E6.75229
G1 X122.227 Y104.878 E6.81593
;WIDTH:0.581909
G1 X121.959 Y104.36 E6.84794
;WIDTH:0.581719
G1 X121.672 Y103.86 E6.87957
;WIDTH:0.58149
G1 X121.363 Y103.37 E6.91137
;WIDTH:0.581181
G1 X121.034 Y102.893 E6.94316
;WIDTH:0.580786
G1 X120.675 Y102.42 E6.97566
;WIDTH:0.580335
G1 X120.276 Y101.941 E7.00981
;WIDTH:0.579923
G1 X119.878 Y101.503 E7.04217
;WIDTH:0.581372
G1 X119.511 Y101.132 E7.07081
;WIDTH:0.581648
G1 X119.087 Y100.737 E7.10262
;WIDTH:0.581849
G1 X118.646 Y100.36 E7.13444
;WIDTH:0.582067
G1 X117.717 Y99.662 E7.19826
G1 X116.739 Y99.049 E7.26166
;WIDTH:0.581937
G1 X116.228 Y98.772 E7.29356
;WIDTH:0.581805
G1 X115.703 Y98.516 E7.32566
;WIDTH:0.581587
G1 X115.176 Y98.286 E7.35718
;WIDTH:0.581312
G1 X114.637 Y98.077 E7.38888
;WIDTH:0.580885
G1 X114.087 Y97.891 E7.42074
;WIDTH:0.580497
G1 X113.49 Y97.718 E7.45478
;WIDTH:0.580095
G1 X112.883 Y97.572 E7.48893
;WIDTH:0.581337
G1 X112.388 Y97.476 E7.51661
;WIDTH:0.581547
G1 X111.814 Y97.386 E7.54844
;WIDTH:0.581711
G1 X111.23 Y97.321 E7.58069
;WIDTH:0.582048
G1 X110.08 Y97.266 E7.64391
G1 X108.931 Y97.308 E7.7071
;WIDTH:0.581855
G1 X108.345 Y97.367 E7.7394
G1 X107.772 Y97.449 E7.77122
;WIDTH:0.581747
G1 X107.209 Y97.554 E7.80265
;WIDTH:0.581349
G1 X106.637 Y97.686 E7.83482
;WIDTH:0.581074
G1 X106.079 Y97.84 E7.8666
;WIDTH:0.580657
G1 X105.502 Y98.028 E7.89978
;WIDTH:0.5801
G1 X104.923 Y98.245 E7.93362
;WIDTH:0.579891
G1 X104.375 Y98.479 E7.96622
;WIDTH:0.581465
G1 X103.915 Y98.7 E7.99422
;WIDTH:0.58172
G1 X103.402 Y98.97 E8.02603
;WIDTH:0.581882
G1 X102.904 Y99.259 E8.05765
;WIDTH:0.582053
G1 X101.939 Y99.907 E8.12151
G1 X101.034 Y100.632 E8.18516
;WIDTH:0.581923
G1 X100.606 Y101.022 E8.21698
;WIDTH:0.581754
G1 X100.194 Y101.43 E8.24879
;WIDTH:0.581513
G1 X99.801 Y101.856 E8.2806
;WIDTH:0.581203
G1 X99.425 Y102.297 E8.31238
;WIDTH:0.580823
G1 X99.063 Y102.762 E8.34469
;WIDTH:0.580373
G1 X98.702 Y103.272 E8.37885
;WIDTH:0.579952
G1 X98.368 Y103.793 E8.41271
;WIDTH:0.581293
G1 X98.116 Y104.226 E8.44021
;WIDTH:0.581629
G1 X97.845 Y104.735 E8.47184
;WIDTH:0.581838
G1 X97.594 Y105.257 E8.50366
;WIDTH:0.581966
G1 X97.161 Y106.332 E8.56729
G1 X96.82 Y107.44 E8.63094
G1 X96.684 Y108.003 E8.66276
;WIDTH:0.581823
G1 X96.573 Y108.572 E8.69458
;WIDTH:0.581625
G1 X96.486 Y109.145 E8.72639
;WIDTH:0.581323
G1 X96.424 Y109.721 E8.75818
;WIDTH:0.580967
G1 X96.386 Y110.3 E8.78995
;WIDTH:0.58054
G1 X96.373 Y110.918 E8.82379
;WIDTH:0.580095
G1 X96.389 Y111.541 E8.85794
;WIDTH:0.581231
G1 X96.423 Y112.049 E8.88586
;WIDTH:0.581591
G1 X96.485 Y112.626 E8.91766
;WIDTH:0.581771
G1 X96.572 Y113.199 E8.94948
;WIDTH:0.582002
G1 X96.817 Y114.332 E9.01313
G1 X97.157 Y115.44 E9.07677
G1 X97.362 Y115.982 E9.1086
;WIDTH:0.581884
G1 X97.589 Y116.515 E9.14042
;WIDTH:0.581651
G1 X97.839 Y117.038 E9.17223
G1 X98.109 Y117.545 E9.20375
;WIDTH:0.585963
G1 X98.719 Y118.537 E9.2682
;WIDTH:0.572791
G1 X98.723 Y118.58 E9.27052
G1 X99.224 Y118.592 F18000
;TYPE:External perimeter
;WIDTH:0.499999
G1 F3600
G1 X99.232 Y118.817 E9.28099
G1 X99.124 Y119.105 E9.29523
G1 X98.858 Y119.346 E9.31191
G1 X98.528 Y119.426 E9.32765
G1 X98.28 Y119.391 E9.33926
G1 X98.063 Y119.28 E9.35056
G1 X97.861 Y119.052 E9.36469
G1 X97.531 Y118.564 E9.39201
G1 X97.169 Y117.938 E9.42559
G1 X96.659 Y116.922 E9.47832
G1 X96.414 Y116.348 E9.50725
G1 X96.194 Y115.764 E9.53619
G1 X95.999 Y115.172 E9.56512
G1 X95.83 Y114.572 E9.59406
G1 X95.686 Y113.965 E9.62299
G1 X95.568 Y113.353 E9.65193
G1 X95.476 Y112.736 E9.68086
G1 X95.411 Y112.115 E9.7098
G1 X95.372 Y111.493 E9.73873
G1 X95.36 Y110.863 E9.76796
G1 X95.377 Y110.195 E9.79895
G1 X95.425 Y109.529 E9.82993
G1 X95.575 Y108.387 E9.88339
G1 X95.695 Y107.775 E9.91232
G1 X95.841 Y107.168 E9.94126
G1 X96.011 Y106.572 E9.97004
G1 X96.209 Y105.977 E9.99913
G1 X96.431 Y105.394 E10.02806
G1 X96.677 Y104.821 E10.057
G1 X96.948 Y104.259 E10.08593
G1 X97.241 Y103.712 E10.11471
G1 X97.56 Y103.172 E10.1438
G1 X97.9 Y102.649 E10.17273
G1 X98.283 Y102.114 E10.20327
G1 X98.696 Y101.589 E10.23426
G1 X99.133 Y101.084 E10.26525
G1 X99.916 Y100.278 E10.31739
G1 X100.377 Y99.858 E10.34632
G1 X100.856 Y99.458 E10.37526
G1 X101.351 Y99.079 E10.40419
G1 X101.862 Y98.721 E10.43313
G1 X102.391 Y98.383 E10.46224
G1 X102.927 Y98.072 E10.491
G1 X103.479 Y97.783 E10.51993
G1 X104.044 Y97.517 E10.54888
G1 X104.619 Y97.275 E10.57781
G1 X105.221 Y97.053 E10.60758
G1 X105.856 Y96.85 E10.63853
G1 X106.503 Y96.676 E10.66959
G1 X107.619 Y96.445 E10.72246
G1 X108.236 Y96.357 E10.7514
G1 X108.865 Y96.295 E10.78073
G1 X109.479 Y96.26 E10.80926
G1 X110.103 Y96.251 E10.8382
G1 X110.726 Y96.268 E10.86713
G1 X111.341 Y96.312 E10.8957
G1 X111.968 Y96.383 E10.92501
G1 X112.585 Y96.48 E10.95397
G1 X113.196 Y96.603 E10.98288
G1 X113.804 Y96.753 E11.01192
G1 X114.445 Y96.942 E11.04291
G1 X115.07 Y97.158 E11.0736
G1 X116.139 Y97.6 E11.12728
G1 X116.705 Y97.876 E11.15647
