;FLAVOR:Marlin
;TIME:3532
;Filament used: 3.85186m
;Layer height: 0.25
;MINX:78.507
;MINY:94.696
;MINZ:0.28
;MAXX:139.794
;MAXY:125.302
;MAXZ:48.03
;Generated with Cura_SteamEngine 5.2.2
M82 ;absolute extrusion mode
; Ender 3 S1 Start G-code
G92 E0 ; Reset Extruder
G28 ; Home all axes
G1 Z10.0 F3000 ; Move Z Axis up little to prevent scratching of Heat Bed
G1 X0 Y0

M104 S205
M190 S60
M109 S205

G1 X0.1 Y20 Z0.3 F5000.0 ; Move to start position
G1 X0.1 Y200.0 Z0.3 F1500.0 E15 ; Draw the first line
G1 X0.4 Y200.0 Z0.3 F5000.0 ; Move to side a little
G1 X0.4 Y20 Z0.3 F1500.0 E30 ; Draw the second line
G92 E0 ; Reset Extruder
G1 Z2.0 F3000 ; Move Z Axis up little to prevent scratching of Heat Bed
G1 X5 Y20 Z0.3 F5000.0 ; Move over to prevent blob squish

G92 E0
G92 E0
G1 F2700 E-0.8
;LAYER_COUNT:192
;LAYER:0
M107
G1 F300 Z0.48
G0 F9000 X81.074 Y99.486 Z0.48
;TYPE:SKIRT
G1 F300 Z0.28
G1 F2700 E0
G1 F3000 X81.824 Y98.931 E0.04345
G1 X82.193 Y98.703 E0.06364
G1 X82.783 Y98.386 E0.09483
G1 X83.695 Y98.056 E0.13999
G1 X84.104 Y97.947 E0.1597
G1 X84.76 Y97.814 E0.19087
G1 X85.107 Y97.775 E0.20713
G1 X86.248 Y97.686 E0.26042
G1 X108.182 Y96.35 E1.28365
G1 X109.461 Y96.296 E1.34326
G1 X110.473 Y96.288 E1.39038
G1 X110.994 Y96.301 E1.41465
G1 X111.869 Y96.361 E1.45549
G1 X112.178 Y96.393 E1.46996
G1 X113.066 Y96.51 E1.51166
G1 X113.701 Y96.614 E1.54162
G1 X114.882 Y96.858 E1.59778
G1 X115.456 Y97.004 E1.62536
G1 X116.488 Y97.313 E1.67552
G1 X117.276 Y97.594 E1.71447
G1 X118.151 Y97.948 E1.75843
G1 X118.629 Y98.163 E1.78283
G1 X119.453 Y98.566 E1.82554
G1 X120.068 Y98.893 E1.85798
G1 X120.543 Y99.164 E1.88344
G1 X121.17 Y99.549 E1.9177
G1 X121.732 Y99.924 E1.94916
G1 X122.346 Y100.365 E1.98436
G1 X123.026 Y100.895 E2.02451
G1 X123.233 Y101.066 E2.03701
G1 X123.665 Y101.446 E2.0638
G1 X124.367 Y102.097 E2.10838
G1 X124.899 Y102.632 E2.14351
G1 X125.376 Y103.154 E2.17644
G1 X126.098 Y104.006 E2.22844
G1 X126.454 Y104.459 E2.25527
G1 X126.941 Y105.138 E2.29418
G1 X127.105 Y105.384 E2.30794
G1 X127.696 Y106.322 E2.35957
G1 X128.018 Y106.908 E2.3907
G1 X128.16 Y107.233 E2.40722
G1 X128.333 Y107.667 E2.42897
G1 X128.543 Y108.303 E2.46016
G1 X128.708 Y109.156 E2.50062
G1 X128.757 Y109.939 E2.53715
G1 X128.74 Y110.394 E2.55835
G1 X128.716 Y110.698 E2.57255
G1 X128.623 Y111.36 E2.60368
G1 X128.461 Y112.009 E2.63482
G1 X128.191 Y112.739 E2.67107
G1 X127.969 Y113.19 E2.69447
G1 X127.647 Y113.769 E2.72532
G1 X127.386 Y114.195 E2.74859
G1 X126.872 Y114.968 E2.79181
G1 X126.432 Y115.568 E2.82646
G1 X125.91 Y116.225 E2.86553
G1 X125.38 Y116.842 E2.9034
G1 X124.916 Y117.342 E2.93517
G1 X124.199 Y118.063 E2.98251
G1 X123.911 Y118.339 E3.00109
G1 X123.701 Y118.527 E3.01421
G1 X123.011 Y119.11 E3.05628
G1 X122.381 Y119.602 E3.0935
G1 X122.115 Y119.797 E3.10886
G1 X121.285 Y120.364 E3.15566
G1 X120.543 Y120.832 E3.19651
G1 X120.287 Y120.984 E3.21037
G1 X119.689 Y121.318 E3.24227
G1 X119.417 Y121.46 E3.25655
G1 X118.791 Y121.766 E3.289
G1 X118.513 Y121.893 E3.30323
G1 X117.453 Y122.339 E3.35678
G1 X116.92 Y122.538 E3.38327
G1 X116.308 Y122.74 E3.41328
G1 X115.606 Y122.948 E3.44737
G1 X114.587 Y123.208 E3.49634
G1 X114.255 Y123.281 E3.51217
G1 X113.39 Y123.439 E3.55312
G1 X112.41 Y123.58 E3.59922
G1 X112.109 Y123.615 E3.61333
G1 X111.392 Y123.676 E3.64684
G1 X110.656 Y123.709 E3.68114
G1 X109.633 Y123.711 E3.72878
G1 X108.665 Y123.68 E3.77388
G1 X86.068 Y122.301 E4.82804
G1 X85.329 Y122.246 E4.86255
G1 X84.732 Y122.18 E4.89052
G1 X84.074 Y122.062 E4.92165
G1 X83.434 Y121.866 E4.95281
G1 X83.06 Y121.711 E4.97166
G1 X82.496 Y121.453 E5.00054
G1 X81.906 Y121.139 E5.03167
G1 X81.357 Y120.757 E5.06281
G1 X80.836 Y120.29 E5.09539
G1 X80.512 Y119.961 E5.11689
G1 X80.072 Y119.457 E5.14804
G1 X79.779 Y119.041 E5.17174
G1 X79.6 Y118.76 E5.18725
G1 X79.174 Y117.953 E5.22974
G1 X79.047 Y117.656 E5.24478
G1 X78.821 Y117.026 E5.27595
G1 X78.694 Y116.499 E5.30119
G1 X78.622 Y116.12 E5.31915
G1 X78.525 Y115.168 E5.36371
G1 X78.507 Y114.056 E5.4155
G1 X78.508 Y105.742 E5.80263
G1 X78.515 Y105.234 E5.82629
G1 X78.531 Y104.876 E5.84298
G1 X78.584 Y104.196 E5.87474
G1 X78.676 Y103.533 E5.9059
G1 X78.846 Y102.886 E5.93705
G1 X79.085 Y102.28 E5.96739
G1 X79.339 Y101.731 E5.99555
G1 X79.655 Y101.141 E6.02672
G1 X80.252 Y100.344 E6.07309
G1 X80.599 Y99.957 E6.09729
G1 X81.074 Y99.486 E6.12844
G0 F9000 X81.356 Y99.771
G1 F3000 X82.035 Y99.271 E6.1677
G1 X82.404 Y99.043 E6.1879
G1 X82.972 Y98.739 E6.2179
G1 X83.798 Y98.442 E6.25877
G1 X84.207 Y98.333 E6.27848
G1 X85.138 Y98.174 E6.32246
G1 X86.18 Y98.092 E6.37113
G1 X108.206 Y96.75 E7.39866
G1 X109.675 Y96.691 E7.46711
G1 X110.474 Y96.688 E7.50432
G1 X110.982 Y96.7 E7.52798
G1 X111.838 Y96.76 E7.56794
G1 X112.125 Y96.79 E7.58137
G1 X113.204 Y96.935 E7.63207
G1 X113.82 Y97.043 E7.66119
G1 X114.62 Y97.209 E7.69923
G1 X115.106 Y97.324 E7.72249
G1 X116.112 Y97.613 E7.77123
G1 X116.898 Y97.879 E7.80987
G1 X117.825 Y98.245 E7.85627
G1 X118.288 Y98.446 E7.87978
G1 X119.09 Y98.831 E7.9212
G1 X120.038 Y99.334 E7.97117
G1 X120.343 Y99.51 E7.98757
G1 X120.82 Y99.801 E8.01359
G1 X121.498 Y100.249 E8.05143
G1 X122.302 Y100.832 E8.09767
G1 X122.778 Y101.208 E8.12592
G1 X123.393 Y101.739 E8.16375
G1 X124.095 Y102.39 E8.20833
G1 X124.604 Y102.902 E8.24195
G1 X125.223 Y103.586 E8.2849
G1 X125.792 Y104.263 E8.32608
G1 X126.138 Y104.704 E8.35218
G1 X126.614 Y105.369 E8.39027
G1 X126.767 Y105.597 E8.40305
G1 X127.358 Y106.535 E8.45467
G1 X127.788 Y107.382 E8.49891
G1 X127.961 Y107.816 E8.52066
G1 X128.163 Y108.428 E8.55067
G1 X128.311 Y109.21 E8.58773
G1 X128.357 Y109.964 E8.6229
G1 X128.341 Y110.362 E8.64145
G1 X128.317 Y110.666 E8.65565
G1 X128.226 Y111.305 E8.68571
G1 X128.076 Y111.898 E8.71419
G1 X127.815 Y112.6 E8.74906
G1 X127.619 Y112.997 E8.76968
G1 X127.398 Y113.399 E8.79104
G1 X127.166 Y113.793 E8.81233
G1 X126.682 Y114.539 E8.85374
G1 X126.194 Y115.224 E8.8929
G1 X125.464 Y116.136 E8.9473
G1 X125.189 Y116.455 E8.96691
G1 X124.78 Y116.905 E8.99522
G1 X123.915 Y117.781 E9.05255
G1 X123.441 Y118.223 E9.08273
G1 X122.765 Y118.794 E9.12393
G1 X122.135 Y119.286 E9.16115
G1 X121.888 Y119.468 E9.17544
G1 X121.252 Y119.907 E9.21142
G1 X120.33 Y120.493 E9.26229
G1 X120.092 Y120.635 E9.2752
G1 X119.494 Y120.969 E9.30709
G1 X119.242 Y121.101 E9.32034
G1 X118.616 Y121.407 E9.35278
G1 X118.357 Y121.525 E9.36604
G1 X117.444 Y121.911 E9.41219
G1 X116.795 Y122.158 E9.44453
G1 X116.006 Y122.415 E9.48317
G1 X115.311 Y122.614 E9.51683
G1 X114.489 Y122.821 E9.5563
G1 X114.181 Y122.888 E9.57098
G1 X113.333 Y123.043 E9.61112
G1 X112.353 Y123.184 E9.65722
G1 X112.074 Y123.216 E9.6703
G1 X111.37 Y123.276 E9.7032
G1 X110.654 Y123.309 E9.73657
G1 X109.645 Y123.311 E9.78356
G1 X108.855 Y123.288 E9.82036
G1 X86.098 Y121.902 E10.88198
G1 X85.359 Y121.847 E10.91649
G1 X84.779 Y121.783 E10.94366
G1 X84.145 Y121.668 E10.97366
G1 X83.53 Y121.475 E11.00368
G1 X83.227 Y121.348 E11.01898
G1 X82.663 Y121.09 E11.04785
G1 X82.094 Y120.786 E11.07789
G1 X81.568 Y120.414 E11.10789
G1 X81.121 Y120.01 E11.13595
G1 X80.797 Y119.681 E11.15745
G1 X80.374 Y119.194 E11.18749
G1 X80.116 Y118.826 E11.20841
G1 X79.937 Y118.545 E11.22393
G1 X79.542 Y117.795 E11.2634
G1 X79.415 Y117.498 E11.27844
G1 X79.199 Y116.891 E11.30844
G1 X79.087 Y116.425 E11.33076
G1 X79.015 Y116.046 E11.34872
G1 X78.925 Y115.162 E11.3901
G1 X78.907 Y114.056 E11.4416
G1 X78.907 Y105.747 E11.8285
G1 X78.914 Y105.239 E11.85216
G1 X78.93 Y104.907 E11.86764
G1 X78.983 Y104.227 E11.8994
G1 X79.073 Y103.589 E11.9294
G1 X79.241 Y102.966 E11.95945
G1 X79.448 Y102.448 E11.98542
G1 X79.702 Y101.899 E12.01359
G1 X80.008 Y101.331 E12.04363
G1 X80.549 Y100.611 E12.08557
G1 X80.896 Y100.224 E12.10977
G1 X81.356 Y99.771 E12.13983
G1 F2700 E11.33983
G1 F300 Z0.48
;MESH:3DBenchy.stl
G0 F9000 X103.145 Y110.851 Z0.48
;TYPE:WALL-INNER
G1 F300 Z0.28
G1 F2700 E12.13983
G1 F2777.8 X103.368 Y110.818 E12.15117
G1 X103.465 Y110.732 E12.15769
G1 X103.575 Y110.341 E12.17811
G1 F2733.5 X103.596 Y109.947 E12.19828
G1 F2714.9 X103.582 Y109.556 E12.21841
G1 F2739.7 X103.442 Y109.132 E12.24118
G1 X103.146 Y109.085 E12.25646
G1 X103.146 Y109.587 E12.28205
G1 F2758.6 X103.145 Y110.851 E12.34606
G0 F9000 X102.727 Y111.278
G1 F3000 X103.144 Y111.271 E12.36548
G1 X103.504 Y111.22 E12.38241
G1 X103.697 Y111.11 E12.39275
G1 X103.834 Y110.934 E12.40314
G1 X103.978 Y110.533 E12.42298
G1 X104.02 Y109.956 E12.44992
G1 X103.999 Y109.495 E12.47141
G1 X103.921 Y109.182 E12.48643
G1 X103.798 Y108.894 E12.50101
G1 X103.694 Y108.789 E12.50789
G1 X103.522 Y108.7 E12.51691
G1 X103.123 Y108.661 E12.53558
G1 X102.725 Y108.648 E12.55412
G1 X102.727 Y109.588 E12.59789
G1 X102.727 Y111.278 E12.67658
G0 F9000 X102.41 Y111.695
;TYPE:WALL-OUTER
G1 F3000 X102.742 Y111.678 E12.69206
G1 X103.175 Y111.67 E12.71223
G1 X103.635 Y111.606 E12.73385
G1 X103.965 Y111.418 E12.75154
G1 X104.19 Y111.128 E12.76863
G1 X104.324 Y110.753 E12.78717
G1 X104.403 Y110.372 E12.80529
G1 X104.42 Y109.956 E12.82468
G1 X104.397 Y109.437 E12.84887
G1 X104.301 Y109.055 E12.86721
G1 X104.136 Y108.667 E12.88684
G1 X103.934 Y108.463 E12.90021
G1 X103.641 Y108.311 E12.91558
G1 X103.15 Y108.261 E12.93856
G1 X102.463 Y108.24 E12.97057
G1 X102.323 Y108.318 E12.97803
G1 X102.327 Y109.588 E13.03717
G1 X102.33 Y111.212 E13.11279
G1 X102.311 Y111.528 E13.12753
G1 X102.41 Y111.695 E13.13657
G0 F9000 X103.194 Y110.658
G1 F2700 E12.33657
G0 F9000 X102.549 Y111.21
G0 X100.729 Y111.212
G0 X100.101 Y111.695
G0 X99.945 Y112.158
G0 X99.69 Y112.596
G0 X99.361 Y112.95
G0 X98.962 Y113.239
G0 X98.503 Y113.405
G0 X97.953 Y113.504
G0 X97.151 Y113.469
G0 X96.591 Y113.3
G0 X96.299 Y113.137
G0 X95.227 Y111.977
;TYPE:WALL-INNER
G1 F2700 E13.13657
G1 F3000 X95.276 Y111.673 E13.1509
G1 X95.401 Y111.421 E13.164
G1 X95.686 Y111.053 E13.18568
G1 X95.915 Y110.891 E13.19874
G1 X96.303 Y110.751 E13.21795
G1 X96.125 Y110.537 E13.23091
G1 X95.973 Y110.256 E13.24578
G1 X95.895 Y109.987 E13.25882
G1 X95.913 Y109.465 E13.28315
G1 X96.038 Y109.058 E13.30297
G1 X95.87 Y108.942 E13.31248
G1 X95.582 Y108.686 E13.33042
G1 X95.315 Y108.855 E13.34513
G1 X94.82 Y108.995 E13.36909
G1 X94.229 Y109.01 E13.39662
G1 X94.227 Y111.521 E13.51354
G1 X94.249 Y112.491 E13.55872
G1 X94.119 Y113.01 E13.58363
G1 X93.786 Y113.5 E13.61122
G1 X93.454 Y113.741 E13.63032
G1 X93.031 Y113.875 E13.65098
G1 X92.618 Y113.91 E13.67028
G1 X92.302 Y113.845 E13.6853
G1 X92.046 Y113.752 E13.69799
G1 X91.637 Y113.481 E13.72083
G1 X91.39 Y113.123 E13.74108
G1 X91.298 Y112.847 E13.75463
G1 X91.245 Y112.524 E13.76987
G1 X91.301 Y111.943 E13.79705
G1 X91.287 Y111.359 E13.82425
G1 X91.291 Y109.7 E13.9015
G1 X91.283 Y109.006 E13.93382
G1 X90.857 Y109.041 E13.95372
G1 X90.432 Y108.999 E13.97361
G1 X90.045 Y108.804 E13.99379
G1 X89.693 Y109.139 E14.01642
G1 X89.346 Y109.331 E14.03488
G1 X88.812 Y109.388 E14.05989
G1 X88.552 Y109.371 E14.07202
G1 X88.033 Y109.181 E14.09776
G1 X87.565 Y108.891 E14.12339
G1 X87.429 Y108.887 E14.12973
G1 X87.249 Y109.002 E14.13968
G1 X87.173 Y109.156 E14.14767
G1 X87.082 Y109.492 E14.16388
G1 X87.063 Y109.935 E14.18453
G1 X87.069 Y110.195 E14.19664
G1 X87.098 Y110.516 E14.21165
G1 X87.162 Y110.77 E14.22384
G1 X87.293 Y110.971 E14.23501
G1 X87.433 Y111.04 E14.24228
G1 X87.659 Y111.052 E14.25282
G1 X87.983 Y110.752 E14.27338
G1 X88.546 Y110.551 E14.30122
G1 X89.043 Y110.546 E14.32436
G1 X89.533 Y110.707 E14.34838
G1 X89.879 Y110.948 E14.36801
G1 X90.108 Y111.206 E14.38408
G1 X90.294 Y111.546 E14.40212
G1 X90.35 Y111.793 E14.41391
G1 X90.365 Y112.12 E14.42916
G1 X90.329 Y112.322 E14.43871
G1 X90.102 Y112.834 E14.46479
G1 X89.719 Y113.311 E14.49328
G1 X89.255 Y113.644 E14.51987
G1 X89.033 Y113.764 E14.53162
G1 X88.581 Y113.939 E14.55419
G1 X88.106 Y114.027 E14.57668
G1 X87.6 Y114.065 E14.60031
G1 X86.902 Y114.015 E14.6329
G1 X86.236 Y113.811 E14.66533
G1 X86.006 Y113.708 E14.67707
G1 X85.563 Y113.438 E14.70122
G1 X85.167 Y113.111 E14.72514
G1 X85.109 Y113.047 E14.72916
G1 X85.109 Y114.956 E14.81805
G1 X85.15 Y115.165 E14.82797
G1 X85.281 Y115.411 E14.84094
G1 X85.408 Y115.54 E14.84937
G1 X85.675 Y115.664 E14.86308
G1 X109.642 Y117.122 E15.98115
G1 X110.162 Y117.128 E16.00536
G1 X110.652 Y117.115 E16.02819
G1 X111.38 Y117.065 E16.06217
G1 X112.117 Y116.974 E16.09674
G1 X112.591 Y116.894 E16.11913
G1 F2404.8 X112.997 Y116.711 E16.145
G1 X112.585 Y116.588 E16.16997
G1 F3000 X112.19 Y116.489 E16.18894
G1 X111.735 Y116.181 E16.21452
G1 X111.476 Y115.784 E16.23659
G1 X111.291 Y115.297 E16.26085
G1 X111.299 Y114.805 E16.28376
G1 X111.394 Y114.49 E16.29908
G1 F3022.7 X111.619 Y114.139 E16.31835
G1 F3116.9 X111.838 Y113.958 E16.33108
G1 F3133.2 X111.619 Y114.039 E16.3415
G1 F3061.2 X111.249 Y114.113 E16.35871
G1 F3022.7 X110.666 Y114.007 E16.3861
G1 F3000 X110.375 Y113.822 E16.40216
G1 X110.093 Y113.584 E16.41934
G1 X109.839 Y113.816 E16.43536
G1 X109.615 Y113.951 E16.44753
G1 X109.326 Y114.053 E16.46181
G1 X109.03 Y114.078 E16.47564
G1 X108.553 Y114.008 E16.49809
G1 X108.183 Y113.786 E16.51818
G1 X107.717 Y114.134 E16.54526
G1 X107.178 Y114.332 E16.572
G1 X106.578 Y114.374 E16.6
G1 X106.243 Y114.299 E16.61599
G1 X105.917 Y114.172 E16.63228
G1 X105.685 Y114.043 E16.64464
G1 X105.335 Y113.772 E16.66525
G1 X105.019 Y113.356 E16.68958
G1 X104.538 Y113.629 E16.71533
G1 X103.899 Y113.79 E16.74602
G1 X103.45 Y113.858 E16.76716
G1 X102.885 Y113.884 E16.7935
G1 X102.07 Y113.877 E16.83145
G1 X101.726 Y113.912 E16.84755
G1 X101.368 Y113.903 E16.86423
G1 X100.915 Y113.763 E16.8863
G1 X100.545 Y113.504 E16.90733
G1 X100.397 Y113.32 E16.91833
G1 X100.19 Y112.883 E16.94085
G1 X99.732 Y113.377 E16.97221
G1 X99.21 Y113.746 E17.00198
G1 X98.653 Y113.949 E17.02959
G1 X97.983 Y114.067 E17.06126
G1 X97.051 Y114.027 E17.1047
G1 X96.365 Y113.818 E17.13809
G1 X95.895 Y113.555 E17.16317
G1 X95.494 Y113.139 E17.19008
G1 X95.271 Y112.661 E17.21464
G1 X95.223 Y112.424 E17.2259
G1 X95.227 Y111.977 E17.24671
G0 F9000 X95.608 Y113.024
G0 X95.981 Y113.416
G0 X96.434 Y113.67
G0 X97.083 Y113.867
G0 X97.981 Y113.905
G0 X98.607 Y113.792
G0 X99.15 Y113.596
G0 X99.628 Y113.251
G0 X100.339 Y112.821
G0 X100.613 Y113.387
G0 X101.17 Y113.729
G0 X103.419 Y113.701
G0 X104.48 Y113.476
G0 X105.476 Y113.684
G0 X105.868 Y113.977
G0 X106.479 Y114.217
G0 X107.132 Y114.175
G0 X108.555 Y113.846
G0 X109.187 Y113.942
G0 X109.666 Y113.757
G0 X111.234 Y113.958
G0 X111.717 Y113.86
G0 X112.138 Y113.623
G0 X112.505 Y113.061
G0 X112.519 Y112.513
G0 X112.323 Y111.29
G1 F2343.8 X112.324 Y110.864 E17.2721
G1 F3225.8 X112.223 Y110.632 E17.28306
G1 F3125 X112.082 Y110.271 E17.30039
G1 X111.819 Y110.699 E17.32284
G1 F3225.8 X111.997 Y111.015 E17.33855
G1 F2343.8 X112.323 Y111.29 E17.36397
G0 F9000 X112.755 Y113.727
G0 X111.846 Y114.1
G0 X111.47 Y114.646
G0 X111.447 Y115.253
G0 X111.675 Y115.856
G0 X112.1 Y116.296
G0 X112.801 Y116.475
G0 X113.354 Y116.397
G0 X113.883 Y116.214
G0 X114.241 Y116.01
G0 X114.671 Y115.635
G0 X114.983 Y115.015
G0 X116.442 Y111.638
G1 F3342.6 X116.638 Y111.317 E17.37969
G1 F3352 X117.319 Y110.374 E17.42816
G1 X116.936 Y110.204 E17.44562
G1 X116.698 Y110.924 E17.47723
G1 X116.442 Y111.638 E17.50884
G0 F9000 X116.78 Y108.918
G0 X116.564 Y108.427
G0 X115.486 Y107.546
G1 F3000 X115.717 Y107.486 E17.51995
G1 X116.102 Y107.504 E17.5379
G1 X116.43 Y107.607 E17.55391
G1 X116.757 Y107.835 E17.57247
G1 X116.946 Y107.707 E17.5831
G1 X117.315 Y107.543 E17.6019
G1 X117.851 Y107.481 E17.62703
G1 X119.949 Y107.481 E17.72472
G1 X120.351 Y107.532 E17.74359
G1 X120.503 Y107.591 E17.75118
G1 X119.996 Y107.043 E17.78594
G1 X119.449 Y106.514 E17.82137
