;FLAVOR:Marlin
;TIME:210
;Filament used: 0.469729m
;Layer height: 0.35
;MINX:93.825
;MINY:93.825
;MINZ:0.35
;MAXX:126.175
;MAXY:126.175
;MAXZ:20.125
;Generated with Cura_SteamEngine 5.2.2
M82 ;absolute extrusion mode
SET_GCODE_VARIABLE MACRO=START_PRINT VARIABLE=bed_temp VALUE=60
SET_GCODE_VARIABLE MACRO=START_PRINT VARIABLE=extruder_temp VALUE=205
START_PRINT
G92 E0
G92 E0
G1 F2700 E-0.8
;LAYER_COUNT:57
;LAYER:0
M107
G1 F300 Z0.55
G0 F9000 X95.753 Y95.535 Z0.55
;TYPE:SKIRT
G1 F300 Z0.35
G1 F2700 E0
G1 F3000 X96.289 Y95.08 E0.04808
G1 X96.873 Y94.69 E0.09611
G1 X97.497 Y94.368 E0.14414
G1 X98.154 Y94.119 E0.19219
G1 X98.835 Y93.947 E0.24022
G1 X99.836 Y93.836 E0.3091
G1 X100.33 Y93.825 E0.3429
G1 X119.293 Y93.825 E1.6398
G1 X120.079 Y93.836 E1.69356
G1 X120.78 Y93.886 E1.74162
G1 X121.471 Y94.015 E1.7897
G1 X122.142 Y94.222 E1.83772
G1 X122.786 Y94.504 E1.8858
G1 X123.393 Y94.857 E1.93383
G1 X123.957 Y95.277 E1.98192
G1 X124.469 Y95.758 E2.02996
G1 X124.923 Y96.294 E2.078
G1 X125.313 Y96.878 E2.12603
G1 X125.634 Y97.503 E2.17408
G1 X125.882 Y98.16 E2.22211
G1 X126.054 Y98.841 E2.27015
G1 X126.164 Y99.836 E2.33861
G1 X126.175 Y100.33 E2.37241
G1 X126.175 Y119.34 E3.67252
G1 X126.166 Y120.067 E3.72225
G1 X126.117 Y120.768 E3.77031
G1 X125.989 Y121.459 E3.81837
G1 X125.783 Y122.131 E3.86644
G1 X125.503 Y122.775 E3.91446
G1 X125.151 Y123.383 E3.96251
G1 X124.732 Y123.947 E4.01056
G1 X124.252 Y124.46 E4.05861
G1 X123.717 Y124.915 E4.10664
G1 X123.133 Y125.307 E4.15475
G1 X122.509 Y125.629 E4.20277
G1 X121.852 Y125.879 E4.25085
G1 X121.172 Y126.052 E4.29883
G1 X120.164 Y126.164 E4.3682
G1 X119.67 Y126.175 E4.40199
G1 X100.627 Y126.174 E5.70436
G1 X99.929 Y126.165 E5.7521
G1 X99.229 Y126.116 E5.8001
G1 X98.538 Y125.988 E5.84816
G1 X97.866 Y125.782 E5.89623
G1 X97.222 Y125.501 E5.94428
G1 X96.614 Y125.149 E5.99233
G1 X96.05 Y124.73 E6.04038
G1 X95.538 Y124.25 E6.08838
G1 X95.083 Y123.714 E6.13646
G1 X94.692 Y123.131 E6.18447
G1 X94.369 Y122.506 E6.23259
G1 X94.12 Y121.849 E6.28064
G1 X93.947 Y121.168 E6.32869
G1 X93.836 Y120.158 E6.39818
G1 X93.825 Y119.658 E6.43239
G1 X93.826 Y100.59 E7.73647
G1 X93.835 Y99.925 E7.78196
G1 X93.884 Y99.225 E7.82995
G1 X94.013 Y98.534 E7.87802
G1 X94.219 Y97.862 E7.92609
G1 X94.5 Y97.219 E7.97408
G1 X94.853 Y96.611 E8.02216
G1 X95.272 Y96.047 E8.07022
G1 X95.753 Y95.535 E8.11826
G0 F9000 X96.212 Y95.751
G1 F3000 X96.742 Y95.332 E8.16447
G1 X97.317 Y94.979 E8.21061
G1 X97.931 Y94.696 E8.25685
G1 X98.573 Y94.488 E8.303
G1 X99.235 Y94.357 E8.34916
G1 X99.849 Y94.306 E8.39129
G1 X100.33 Y94.295 E8.4242
G1 X119.293 Y94.295 E9.7211
G1 X120.073 Y94.306 E9.77445
G1 X120.746 Y94.355 E9.8206
G1 X121.409 Y94.484 E9.86679
G1 X122.052 Y94.69 E9.91297
G1 X122.666 Y94.971 E9.95915
G1 X123.243 Y95.323 E10.00538
G1 X123.774 Y95.74 E10.05155
G1 X124.252 Y96.216 E10.09769
G1 X124.67 Y96.747 E10.1439
G1 X125.023 Y97.322 E10.19005
G1 X125.306 Y97.936 E10.23629
G1 X125.513 Y98.578 E10.28242
G1 X125.644 Y99.241 E10.32864
G1 X125.694 Y99.85 E10.37043
G1 X125.705 Y100.33 E10.40327
G1 X125.705 Y119.335 E11.70304
G1 X125.696 Y120.062 E11.75276
G1 X125.647 Y120.735 E11.79891
G1 X125.52 Y121.398 E11.84508
G1 X125.315 Y122.042 E11.8913
G1 X125.035 Y122.656 E11.93746
G1 X124.685 Y123.234 E11.98367
G1 X124.269 Y123.766 E12.02985
G1 X123.793 Y124.245 E12.07604
G1 X123.264 Y124.664 E12.12219
G1 X122.689 Y125.018 E12.16837
G1 X122.076 Y125.301 E12.21455
G1 X121.434 Y125.511 E12.26074
G1 X120.771 Y125.642 E12.30696
G1 X120.151 Y125.694 E12.34952
G1 X119.67 Y125.705 E12.38242
G1 X100.633 Y125.705 E13.68438
G1 X99.935 Y125.696 E13.73212
G1 X99.262 Y125.647 E13.77827
G1 X98.599 Y125.519 E13.82445
G1 X97.956 Y125.314 E13.87061
G1 X97.341 Y125.034 E13.91682
G1 X96.764 Y124.683 E13.96301
G1 X96.232 Y124.267 E14.0092
G1 X95.753 Y123.791 E14.05538
G1 X95.334 Y123.261 E14.10159
G1 X94.981 Y122.686 E14.14774
G1 X94.697 Y122.073 E14.19394
G1 X94.489 Y121.431 E14.24009
G1 X94.357 Y120.768 E14.28633
G1 X94.306 Y120.145 E14.32908
G1 X94.295 Y119.658 E14.36239
G1 X94.296 Y100.597 E15.666
G1 X94.305 Y99.932 E15.71148
G1 X94.354 Y99.258 E15.7577
G1 X94.482 Y98.595 E15.80388
G1 X94.688 Y97.952 E15.85006
G1 X94.968 Y97.338 E15.89621
G1 X95.319 Y96.761 E15.9424
G1 X95.736 Y96.229 E15.98863
G1 X96.212 Y95.751 E16.03476
G0 F9000 X96.67 Y95.977
G1 F3000 X97.192 Y95.596 E16.07896
G1 X97.758 Y95.283 E16.12319
G1 X98.358 Y95.041 E16.16744
G1 X98.983 Y94.875 E16.21167
G1 X99.862 Y94.776 E16.27216
G1 X100.33 Y94.765 E16.30418
G1 X119.293 Y94.765 E17.60108
G1 X120.066 Y94.776 E17.65395
G1 X120.711 Y94.825 E17.69819
G1 X121.345 Y94.953 E17.74243
G1 X121.958 Y95.159 E17.78665
G1 X122.541 Y95.438 E17.83086
G1 X123.086 Y95.788 E17.87515
G1 X123.583 Y96.202 E17.91939
G1 X124.025 Y96.674 E17.96362
G1 X124.406 Y97.197 E18.00787
G1 X124.719 Y97.763 E18.0521
G1 X124.96 Y98.363 E18.09633
G1 X125.125 Y98.988 E18.14053
G1 X125.224 Y99.863 E18.20076
G1 X125.235 Y100.33 E18.23271
G1 X125.235 Y119.329 E19.53207
G1 X125.226 Y120.056 E19.58179
G1 X125.178 Y120.701 E19.62603
G1 X125.051 Y121.335 E19.67025
G1 X124.846 Y121.949 E19.71452
G1 X124.568 Y122.533 E19.75876
G1 X124.219 Y123.078 E19.80302
G1 X123.806 Y123.575 E19.84721
G1 X123.335 Y124.019 E19.89148
G1 X122.813 Y124.4 E19.93568
G1 X122.248 Y124.715 E19.97992
G1 X121.648 Y124.957 E20.02416
G1 X121.023 Y125.123 E20.06839
G1 X120.138 Y125.224 E20.12931
G1 X119.67 Y125.235 E20.16133
G1 X100.64 Y125.235 E21.46281
G1 X99.942 Y125.226 E21.51055
G1 X99.296 Y125.177 E21.55486
G1 X98.662 Y125.05 E21.59908
G1 X98.049 Y124.845 E21.64329
G1 X97.465 Y124.566 E21.68755
G1 X96.92 Y124.218 E21.73177
G1 X96.423 Y123.804 E21.77601
G1 X95.98 Y123.333 E21.82023
G1 X95.598 Y122.811 E21.86447
G1 X95.284 Y122.245 E21.90874
G1 X95.042 Y121.645 E21.95299
G1 X94.876 Y121.02 E21.99721
G1 X94.776 Y120.132 E22.05833
G1 X94.765 Y119.658 E22.09075
G1 X94.765 Y100.603 E23.39395
G1 X94.774 Y99.938 E23.43943
G1 X94.823 Y99.293 E23.48367
G1 X94.951 Y98.659 E23.52791
G1 X95.156 Y98.046 E23.57211
G1 X95.435 Y97.462 E23.61638
G1 X95.784 Y96.918 E23.66058
G1 X96.198 Y96.42 E23.70487
G1 X96.67 Y95.977 E23.74914
G1 F2700 E22.94914
;MESH:xyzCalibration_cube.stl
G0 F9000 X100.449 Y99.335
G0 X100.235 Y100.235
;TYPE:WALL-OUTER
G1 F2700 E23.74914
G1 F3000 X100.235 Y119.765 E25.08482
G1 X119.765 Y119.765 E26.4205
G1 X119.765 Y110 E27.08834
G1 X119.765 Y100.235 E27.75618
G1 X100.235 Y100.235 E29.09186
G0 F9000 X100.634 Y100.634
;TYPE:SKIN
G1 F3000 X100.634 Y119.366 E30.37296
G1 X119.366 Y119.366 E31.65406
G1 X119.366 Y110 E32.29462
G1 X119.366 Y100.634 E32.93517
G1 X100.634 Y100.634 E34.21627
G0 F9000 X100.37 Y100.634
G0 X114.349 Y100.433
G0 X118.815 Y100.37
G0 X118.815 Y100.868
G1 F3000 X119.13 Y101.184 E34.24679
G0 F9000 X119.13 Y101.848
G1 F3000 X118.15 Y100.868 E34.34157
G0 F9000 X117.485 Y100.868
G1 F3000 X119.13 Y102.513 E34.50067
G0 F9000 X119.13 Y103.178
G1 F3000 X116.821 Y100.868 E34.72405
G0 F9000 X116.156 Y100.868
G1 F3000 X119.13 Y103.842 E35.01169
G0 F9000 X119.13 Y104.507
G1 F3000 X115.491 Y100.868 E35.36366
G0 F9000 X114.827 Y100.868
G1 F3000 X119.13 Y105.172 E35.77989
G0 F9000 X119.13 Y105.836
G1 F3000 X114.162 Y100.868 E36.26039
G0 F9000 X113.497 Y100.868
G1 F3000 X119.13 Y106.501 E36.80521
G0 F9000 X119.13 Y107.166
G1 F3000 X112.833 Y100.868 E37.41431
G0 F9000 X112.168 Y100.868
G1 F3000 X119.13 Y107.83 E38.08767
G0 F9000 X119.13 Y108.495
G1 F3000 X111.503 Y100.868 E38.82535
G0 F9000 X110.838 Y100.868
G1 F3000 X119.13 Y109.16 E39.62735
G0 F9000 X119.13 Y109.824
G1 F3000 X110.174 Y100.868 E40.49357
G0 F9000 X109.509 Y100.868
G1 F3000 X119.13 Y110.489 E41.42411
G0 F9000 X119.13 Y111.154
G1 F3000 X108.844 Y100.868 E42.41897
G0 F9000 X108.18 Y100.868
G1 F3000 X119.13 Y111.819 E43.4781
G0 F9000 X119.13 Y112.483
G1 F3000 X107.515 Y100.868 E44.6015
G0 F9000 X106.85 Y100.868
G1 F3000 X119.13 Y113.148 E45.78922
G0 F9000 X119.13 Y113.813
G1 F3000 X106.186 Y100.868 E47.04121
G0 F9000 X105.521 Y100.868
G1 F3000 X119.13 Y114.477 E48.35746
G0 F9000 X119.13 Y115.142
G1 F3000 X104.856 Y100.868 E49.73804
G0 F9000 X104.192 Y100.868
G1 F3000 X119.13 Y115.807 E51.18289
G0 F9000 X119.13 Y116.471
G1 F3000 X103.527 Y100.868 E52.69201
G0 F9000 X102.862 Y100.868
G1 F3000 X119.13 Y117.136 E54.26544
G0 F9000 X119.13 Y117.801
G1 F3000 X102.198 Y100.868 E55.90315
G0 F9000 X101.533 Y100.868
G1 F3000 X119.13 Y118.465 E57.60512
G0 F9000 X119.13 Y119.13
G1 F3000 X100.868 Y100.868 E59.37142
G0 F9000 X100.868 Y101.533
G1 F3000 X118.465 Y119.13 E61.0734
G0 F9000 X117.801 Y119.13
G1 F3000 X100.868 Y102.198 E62.7111
G0 F9000 X100.868 Y102.862
G1 F3000 X117.136 Y119.13 E64.28454
G0 F9000 X116.471 Y119.13
G1 F3000 X100.868 Y103.527 E65.79366
G0 F9000 X100.868 Y104.192
G1 F3000 X115.807 Y119.13 E67.2385
G0 F9000 X115.142 Y119.13
G1 F3000 X100.868 Y104.856 E68.61908
G0 F9000 X100.868 Y105.521
G1 F3000 X114.477 Y119.13 E69.93534
G0 F9000 X113.813 Y119.13
G1 F3000 X100.868 Y106.186 E71.18733
G0 F9000 X100.868 Y106.85
G1 F3000 X113.148 Y119.13 E72.37504
G0 F9000 X112.483 Y119.13
G1 F3000 X100.868 Y107.515 E73.49844
G0 F9000 X100.868 Y108.18
G1 F3000 X111.819 Y119.13 E74.55757
G0 F9000 X111.154 Y119.13
G1 F3000 X100.868 Y108.844 E75.55243
G0 F9000 X100.868 Y109.509
G1 F3000 X110.489 Y119.13 E76.48297
G0 F9000 X109.824 Y119.13
G1 F3000 X100.868 Y110.174 E77.34919
G0 F9000 X100.868 Y110.838
G1 F3000 X109.16 Y119.13 E78.15119
G0 F9000 X108.495 Y119.13
G1 F3000 X100.868 Y111.503 E78.88887
G0 F9000 X100.868 Y112.168
G1 F3000 X107.83 Y119.13 E79.56224
G0 F9000 X107.166 Y119.13
G1 F3000 X100.868 Y112.833 E80.17133
G0 F9000 X100.868 Y113.497
G1 F3000 X106.501 Y119.13 E80.71615
G0 F9000 X105.836 Y119.13
G1 F3000 X100.868 Y114.162 E81.19665
G0 F9000 X100.868 Y114.827
G1 F3000 X105.172 Y119.13 E81.61289
G0 F9000 X104.507 Y119.13
G1 F3000 X100.868 Y115.491 E81.96485
G0 F9000 X100.868 Y116.156
G1 F3000 X103.842 Y119.13 E82.25249
G0 F9000 X103.178 Y119.13
G1 F3000 X100.868 Y116.821 E82.47587
G0 F9000 X100.868 Y117.485
G1 F3000 X102.513 Y119.13 E82.63497
G0 F9000 X101.848 Y119.13
G1 F3000 X100.868 Y118.15 E82.72976
G0 F9000 X100.868 Y118.815
M104 S205
G1 F3000 X101.184 Y119.13 E82.76027
G1 F2700 E81.96027
G1 F300 Z0.55
;MESH:NONMESH
G0 F9000 X102.585 Y102.585 Z0.55
;TIME_ELAPSED:37.361610
;LAYER:1
M106 S255
;MESH:xyzCalibration_cube.stl
G0 F13500 X102.585 Y102.585 Z0.9
;TYPE:WALL-INNER
G1 F300 Z0.7
G1 F2700 E82.76027
G1 F6000 X102.585 Y117.415 E83.77451
G1 X117.415 Y117.415 E84.78875
G1 X117.415 Y102.585 E85.80299
G1 X110 Y102.585 E86.31012
G1 X102.585 Y102.585 E86.81724
G0 F13500 X102.115 Y102.115
G1 F6000 X102.115 Y117.885 E87.89576
G1 X117.885 Y117.885 E88.97429
G1 X117.885 Y102.115 E90.05282
G1 X110 Y102.115 E90.59209
G1 X102.115 Y102.115 E91.13135
G0 F13500 X101.645 Y101.645
G1 F6000 X101.645 Y118.355 E92.27417
G1 X118.355 Y118.355 E93.41698
G1 X118.355 Y101.645 E94.5598
G1 X110 Y101.645 E95.13121
G1 X101.645 Y101.645 E95.70261
G0 F13500 X101.175 Y101.175
G1 F6000 X101.175 Y118.825 E96.90972
G1 X118.825 Y118.825 E98.11682
G1 X118.825 Y101.175 E99.32393
G1 X110 Y101.175 E99.92748
G1 X101.175 Y101.175 E100.53103
G0 F13500 X100.705 Y100.705
G1 F6000 X100.705 Y119.295 E101.80242
G1 X119.295 Y119.295 E103.07381
G1 X119.295 Y100.705 E104.3452
G1 X110 Y100.705 E104.9809
G1 X100.705 Y100.705 E105.6166
G0 F13500 X100.235 Y100.235
;TYPE:WALL-OUTER
G1 F6000 X100.235 Y119.765 E106.95227
G1 X119.765 Y119.765 E108.28795
G1 X119.765 Y100.235 E109.62363
G1 X110 Y100.235 E110.29147
G1 X100.235 Y100.235 E110.95931
G0 F13500 X100.905 Y100.905
G0 X102.984 Y102.984
;TYPE:SKIN
G1 F6000 X102.984 Y117.016 E111.91898
G1 X117.016 Y117.016 E112.87864
G1 X117.016 Y102.984 E113.83831
G1 X102.984 Y102.984 E114.79797
G0 F13500 X103.219 Y103.496
G1 F6000 X103.497 Y103.218 E114.82486
G0 F13500 X104.161 Y103.218
G1 F6000 X103.219 Y104.161 E114.91602
G0 F13500 X103.219 Y104.825
G1 F6000 X104.826 Y103.218 E115.07145
G0 F13500 X105.491 Y103.218
G1 F6000 X103.219 Y105.49 E115.29119
G0 F13500 X103.219 Y106.155
G1 F6000 X106.155 Y103.218 E115.57521
G0 F13500 X106.82 Y103.218
G1 F6000 X103.219 Y106.819 E115.9235
G0 F13500 X103.219 Y107.484
G1 F6000 X107.485 Y103.218 E116.3361
G0 F13500 X108.149 Y103.218
G1 F6000 X103.219 Y108.149 E116.81298
G0 F13500 X103.219 Y108.813
G1 F6000 X108.814 Y103.218 E117.35413
G0 F13500 X109.479 Y103.218
G1 F6000 X103.219 Y109.478 E117.95959
G0 F13500 X103.219 Y110.143
G1 F6000 X110.143 Y103.218 E118.62933
G0 F13500 X110.808 Y103.218
G1 F6000 X103.219 Y110.807 E119.36333
G0 F13500 X103.219 Y111.472
G1 F6000 X111.473 Y103.218 E120.16166
G0 F13500 X112.137 Y103.218
G1 F6000 X103.219 Y112.137 E121.02425
G0 F13500 X103.219 Y112.801
G1 F6000 X112.802 Y103.218 E121.95112
G0 F13500 X113.467 Y103.218
G1 F6000 X103.219 Y113.466 E122.9423
G0 F13500 X103.219 Y114.131
G1 F6000 X114.131 Y103.218 E123.99776
G0 F13500 X114.796 Y103.218
G1 F6000 X103.219 Y114.795 E125.11748
G0 F13500 X103.219 Y115.46
G1 F6000 X115.461 Y103.218 E126.30152
G0 F13500 X116.126 Y103.218
G1 F6000 X103.219 Y116.125 E127.54988
G0 F13500 X103.228 Y116.78
G1 F6000 X116.78 Y103.229 E128.86058
G0 F13500 X116.78 Y103.893
G1 F6000 X103.893 Y116.78 E130.10701
G0 F13500 X104.557 Y116.78
G1 F6000 X116.78 Y104.558 E131.28916
G0 F13500 X116.78 Y105.223
G1 F6000 X105.222 Y116.78 E132.407
G0 F13500 X105.887 Y116.78
G1 F6000 X116.78 Y105.887 E133.46057
G0 F13500 X116.78 Y106.552
G1 F6000 X106.551 Y116.78 E134.44987
G0 F13500 X107.216 Y116.78
G1 F6000 X116.78 Y107.217 E135.37484
G0 F13500 X116.78 Y107.881
G1 F6000 X107.881 Y116.78 E136.23555
G0 F13500 X108.545 Y116.78
G1 F6000 X116.78 Y108.546 E137.03199
G0 F13500 X116.78 Y109.211
G1 F6000 X109.21 Y116.78 E137.76411
G0 F13500 X109.875 Y116.78
G1 F6000 X116.78 Y109.875 E138.43196
G0 F13500 X116.78 Y110.54
G1 F6000 X110.539 Y116.78 E139.03554
G0 F13500 X111.204 Y116.78
G1 F6000 X116.78 Y111.205 E139.5748
G0 F13500 X116.78 Y111.869
G1 F6000 X111.869 Y116.78 E140.04979
G0 F13500 X112.533 Y116.78
G1 F6000 X116.78 Y112.534 E140.46051
G0 F13500 X116.78 Y113.199
G1 F6000 X113.198 Y116.78 E140.80691
G0 F13500 X113.863 Y116.78
G1 F6000 X116.78 Y113.863 E141.08904
G0 F13500 X116.78 Y114.528
G1 F6000 X114.527 Y116.78 E141.30691
G0 F13500 X115.192 Y116.78
G1 F6000 X116.78 Y115.193 E141.46045
G0 F13500 X116.78 Y115.858
G1 F6000 X115.857 Y116.78 E141.54967
G0 F13500 X116.522 Y116.78
G1 F6000 X116.78 Y116.522 E141.57463
G1 F2700 E140.77463
;MESH:NONMESH
G0 F300 X116.78 Y116.522 Z1.05
G0 F13500 X100.905 Y119.095
G1 F2700 E141.57463
G0 F13500 X100.235 Y119.765
;TIME_ELAPSED:59.658005
;LAYER:2
;TYPE:WALL-OUTER
;MESH:xyzCalibration_cube.stl
G1 F4822.7 X100.235 Y100.235 E142.9103
G1 X119.765 Y100.235 E144.24598
G1 X119.765 Y119.765 E145.58166
G1 X100.235 Y119.765 E146.91734
G1 X100.235 Y100.235 Z1.138 E148.25304
G1 X119.765 Y100.235 Z1.225 E149.58873
G1 X119.765 Y119.765 Z1.313 E150.92442
G1 X100.235 Y119.765 Z1.4 E152.26011
;TIME_ELAPSED:62.693569
;LAYER:3
;TYPE:WALL-OUTER
;MESH:xyzCalibration_cube.stl
G1 F2343.6 X100.235 Y100.235 Z1.488 E153.59581
G1 X119.765 Y100.235 Z1.575 E154.9315
G1 X119.765 Y119.765 Z1.663 E156.26719
G1 X100.235 Y119.765 Z1.75 E157.60288
;TIME_ELAPSED:64.923956
;LAYER:4
;TYPE:WALL-OUTER
;MESH:xyzCalibration_cube.stl
G1 X100.235 Y100.235 Z1.838 E158.93858
G1 X119.765 Y100.235 Z1.925 E160.27427
G1 X119.765 Y119.765 Z2.013 E161.60996
G1 X100.235 Y119.765 Z2.1 E162.94565
;TIME_ELAPSED:67.154343
;LAYER:5
;TYPE:WALL-OUTER
;MESH:xyzCalibration_cube.stl
G1 X100.235 Y100.235 Z2.188 E164.28135
G1 X119.765 Y100.235 Z2.275 E165.61704
G1 X119.765 Y119.765 Z2.363 E166.95273
