;FLAVOR:Marlin
;TIME:3000
;Filament used: 5.83853m
;Layer height: 0.25
;MINX:44.4
;MINY:44.4
;MINZ:0.28
;MAXX:175.6
;MAXY:175.6
;MAXZ:60.03
;Generated with Cura_SteamEngine 5.2.2
M82 ;absolute extrusion mode
; Ender 3 S1 Start G-code
G92 E0 ; Reset Extruder
G28 ; Home all axes
G1 Z10.0 F3000 ; Move Z Axis up little to prevent scratching of Heat Bed
G1 X0 Y0

M104 S205
M190 S60
M109 S205

G1 X0.1 Y20 Z0.3 F5000.0 ; Move to start position
G1 X0.1 Y200.0 Z0.3 F1500.0 E15 ; Draw the first line
G1 X0.4 Y200.0 Z0.3 F5000.0 ; Move to side a little
G1 X0.4 Y20 Z0.3 F1500.0 E30 ; Draw the second line
G92 E0 ; Reset Extruder
G1 Z2.0 F3000 ; Move Z Axis up little to prevent scratching of Heat Bed
G1 X5 Y20 Z0.3 F5000.0 ; Move over to prevent blob squish

G92 E0
G92 E0
G1 F2700 E-0.8
;LAYER_COUNT:240
;LAYER:0
M107
G1 F300 Z0.48
G0 F9000 X45.846 Y46.265 Z0.48
;TYPE:SKIRT
G1 F300 Z0.28
G1 F2700 E0
G1 F3000 X46.322 Y45.795 E0.03115
G1 X46.851 Y45.385 E0.06231
G1 X47.425 Y45.042 E0.09345
G1 X48.035 Y44.769 E0.12457
G1 X48.674 Y44.571 E0.15572
G1 X49.333 Y44.45 E0.18692
G1 X49.853 Y44.411 E0.2112
G1 X50.33 Y44.4 E0.23342
G1 X121.984 Y44.401 E3.56993
G1 X122.921 Y44.419 E3.61356
G1 X125.833 Y44.586 E3.74938
G1 X128.512 Y44.663 E3.87418
G1 X131.167 Y44.663 E3.99781
G1 X133.836 Y44.588 E4.12214
G1 X136.797 Y44.418 E4.26024
G1 X137.75 Y44.4 E4.30462
G1 X169.373 Y44.401 E5.77712
G1 X170.071 Y44.411 E5.80963
G1 X170.738 Y44.46 E5.84077
G1 X171.395 Y44.589 E5.87195
G1 X172.031 Y44.795 E5.90308
G1 X172.639 Y45.076 E5.93426
G1 X173.208 Y45.426 E5.96537
G1 X173.732 Y45.843 E5.99655
G1 X174.202 Y46.319 E6.0277
G1 X174.612 Y46.847 E6.05883
G1 X174.957 Y47.421 E6.09001
G1 X175.23 Y48.032 E6.12118
G1 X175.428 Y48.671 E6.15233
G1 X175.549 Y49.329 E6.18348
G1 X175.589 Y49.853 E6.20795
G1 X175.6 Y50.33 E6.23017
G1 X175.6 Y57.333 E6.55626
G1 X175.591 Y58.06 E6.59011
G1 X175.542 Y58.728 E6.6213
G1 X175.415 Y59.384 E6.65241
G1 X175.21 Y60.021 E6.68357
G1 X174.931 Y60.629 E6.71472
G1 X174.581 Y61.199 E6.74587
G1 X174.165 Y61.724 E6.77706
G1 X173.69 Y62.195 E6.80821
G1 X173.163 Y62.606 E6.83933
G1 X172.59 Y62.952 E6.87049
G1 X171.98 Y63.226 E6.90163
G1 X171.341 Y63.426 E6.93281
G1 X170.683 Y63.548 E6.96397
G1 X170.148 Y63.589 E6.98896
G1 X169.67 Y63.6 E7.01122
G1 X158.008 Y63.6 E7.55425
G1 X155.348 Y63.638 E7.67812
G1 X152.662 Y63.752 E7.80331
G1 X150.009 Y63.94 E7.92715
G1 X147.343 Y64.204 E8.0519
G1 X144.679 Y64.545 E8.17696
G1 X142.078 Y64.954 E8.29956
G1 X139.427 Y65.446 E8.42511
G1 X136.801 Y66.012 E8.5502
G1 X134.253 Y66.636 E8.67235
G1 X131.679 Y67.344 E8.79666
G1 X129.078 Y68.14 E8.92331
G1 X126.579 Y68.983 E9.04612
G1 X124.078 Y69.906 E9.17025
G1 X121.587 Y70.906 E9.29524
G1 X119.145 Y71.969 E9.41926
G1 X116.723 Y73.104 E9.54381
G1 X114.303 Y74.323 E9.66998
G1 X111.986 Y75.574 E9.79259
G1 X109.701 Y76.892 E9.91542
G1 X107.403 Y78.305 E10.04104
G1 X105.164 Y79.772 E10.16568
G1 X102.981 Y81.292 E10.28954
G1 X100.827 Y82.884 E10.41426
G1 X98.729 Y84.527 E10.53835
G1 X96.665 Y86.242 E10.6633
G1 X94.687 Y87.982 E10.78597
G1 X92.695 Y89.834 E10.91262
G1 X90.821 Y91.68 E11.03511
G1 X88.963 Y93.617 E11.16009
G1 X87.173 Y95.593 E11.28424
G1 X85.418 Y97.642 E11.40986
G1 X83.771 Y99.679 E11.53184
G1 X82.127 Y101.837 E11.65816
G1 X80.57 Y104 E11.78226
G1 X79.092 Y106.184 E11.90506
G1 X77.635 Y108.474 E12.03144
G1 X76.278 Y110.748 E12.15475
G1 X74.978 Y113.069 E12.27862
G1 X73.749 Y115.42 E12.40215
G1 X72.559 Y117.861 E12.5286
G1 X71.477 Y120.25 E12.65072
G1 X70.425 Y122.761 E12.77749
G1 X69.463 Y125.249 E12.9017
G1 X68.58 Y127.744 E13.02494
G1 X67.767 Y130.266 E13.14833
G1 X67.008 Y132.866 E13.27445
G1 X66.341 Y135.42 E13.39736
G1 X65.737 Y138.029 E13.52206
G1 X65.201 Y140.693 E13.64859
G1 X64.755 Y143.278 E13.77074
G1 X64.381 Y145.892 E13.8937
G1 X64.07 Y148.603 E14.02076
G1 X63.845 Y151.214 E14.14279
G1 X63.69 Y153.899 E14.26802
G1 X63.61 Y156.599 E14.3938
G1 X63.6 Y158.041 E14.46095
G1 X63.599 Y169.341 E14.98712
G1 X63.589 Y170.068 E15.02098
G1 X63.54 Y170.735 E15.05212
G1 X63.412 Y171.392 E15.08329
G1 X63.206 Y172.028 E15.11442
G1 X62.926 Y172.636 E15.14559
G1 X62.575 Y173.206 E15.17676
G1 X62.159 Y173.73 E15.20791
G1 X61.684 Y174.2 E15.23903
G1 X61.155 Y174.611 E15.27022
G1 X60.582 Y174.955 E15.30134
G1 X59.971 Y175.229 E15.33252
G1 X59.333 Y175.428 E15.36364
G1 X58.675 Y175.549 E15.39479
G1 X58.147 Y175.589 E15.41945
G1 X57.67 Y175.6 E15.44167
G1 X50.635 Y175.6 E15.76925
G1 X49.937 Y175.591 E15.80175
G1 X49.27 Y175.542 E15.83289
G1 X48.613 Y175.414 E15.86406
G1 X47.976 Y175.209 E15.89522
G1 X47.368 Y174.929 E15.92639
G1 X46.798 Y174.579 E15.95753
G1 X46.274 Y174.163 E15.98869
G1 X45.803 Y173.688 E16.01984
G1 X45.392 Y173.16 E16.05099
G1 X45.047 Y172.587 E16.08214
G1 X44.773 Y171.977 E16.11327
G1 X44.573 Y171.338 E16.14445
G1 X44.452 Y170.68 E16.17561
G1 X44.411 Y170.142 E16.20073
G1 X44.4 Y169.658 E16.22327
G1 X44.401 Y98.016 E19.55922
G1 X44.419 Y97.079 E19.60286
G1 X44.586 Y94.167 E19.73868
G1 X44.663 Y91.488 E19.86348
G1 X44.663 Y88.833 E19.98711
G1 X44.588 Y86.163 E20.11148
G1 X44.418 Y83.203 E20.24954
G1 X44.4 Y82.251 E20.29388
G1 X44.401 Y50.59 E21.76814
G1 X44.411 Y49.925 E21.79911
G1 X44.461 Y49.258 E21.83026
G1 X44.59 Y48.601 E21.86143
G1 X44.796 Y47.965 E21.89256
G1 X45.077 Y47.358 E21.92371
G1 X45.429 Y46.788 E21.95491
G1 X45.846 Y46.265 E21.98605
G0 F9000 X46.239 Y46.429
G1 F3000 X46.711 Y45.99 E22.01607
G1 X47.233 Y45.612 E22.04608
G1 X47.799 Y45.303 E22.0761
G1 X48.398 Y45.065 E22.10612
G1 X49.022 Y44.904 E22.13612
G1 X49.864 Y44.811 E22.17557
G1 X50.33 Y44.8 E22.19728
G1 X121.979 Y44.801 E25.53355
G1 X122.898 Y44.819 E25.57635
G1 X125.798 Y44.986 E25.71161
G1 X128.501 Y45.063 E25.83753
G1 X131.178 Y45.063 E25.96218
G1 X133.87 Y44.988 E26.08758
G1 X136.82 Y44.818 E26.22517
G1 X137.75 Y44.8 E26.26848
G1 X169.367 Y44.801 E27.7407
G1 X170.065 Y44.811 E27.77321
G1 X170.708 Y44.86 E27.80324
G1 X171.34 Y44.988 E27.83326
G1 X171.951 Y45.194 E27.86329
G1 X172.532 Y45.473 E27.8933
G1 X173.074 Y45.822 E27.92332
G1 X173.568 Y46.236 E27.95333
G1 X174.008 Y46.708 E27.98338
G1 X174.386 Y47.23 E28.01339
G1 X174.696 Y47.795 E28.04339
G1 X174.934 Y48.394 E28.07341
G1 X175.096 Y49.018 E28.10343
G1 X175.189 Y49.864 E28.14306
G1 X175.2 Y50.33 E28.16476
G1 X175.2 Y57.328 E28.49062
G1 X175.191 Y58.055 E28.52447
G1 X175.143 Y58.698 E28.5545
G1 X175.016 Y59.33 E28.58451
G1 X174.811 Y59.942 E28.61457
G1 X174.533 Y60.523 E28.64456
G1 X174.185 Y61.066 E28.67459
G1 X173.772 Y61.561 E28.70461
G1 X173.301 Y62.001 E28.73462
G1 X172.779 Y62.38 E28.76466
G1 X172.215 Y62.691 E28.79465
G1 X171.616 Y62.93 E28.82468
G1 X170.993 Y63.094 E28.85468
G1 X170.137 Y63.189 E28.89478
G1 X169.67 Y63.2 E28.91653
G1 X158.003 Y63.2 E29.4598
G1 X155.325 Y63.238 E29.58451
G1 X152.652 Y63.351 E29.70909
G1 X149.978 Y63.541 E29.83391
G1 X147.286 Y63.808 E29.95988
G1 X144.637 Y64.147 E30.08423
G1 X141.973 Y64.565 E30.2098
G1 X139.382 Y65.047 E30.33251
G1 X136.727 Y65.618 E30.45897
G1 X134.157 Y66.248 E30.58218
G1 X131.529 Y66.971 E30.7091
G1 X128.971 Y67.754 E30.83367
G1 X126.461 Y68.601 E30.95702
G1 X123.927 Y69.536 E31.08279
G1 X121.414 Y70.545 E31.20888
G1 X118.965 Y71.611 E31.33325
G1 X116.552 Y72.742 E31.45734
G1 X114.14 Y73.956 E31.58308
G1 X111.819 Y75.21 E31.70592
G1 X109.456 Y76.572 E31.83292
G1 X107.196 Y77.963 E31.95649
G1 X104.946 Y79.436 E32.08171
G1 X102.737 Y80.975 E32.20708
G1 X100.588 Y82.563 E32.3315
G1 X98.472 Y84.22 E32.45664
G1 X96.428 Y85.918 E32.58038
G1 X94.396 Y87.705 E32.70638
G1 X92.424 Y89.539 E32.83178
G1 X90.534 Y91.401 E32.95532
G1 X88.678 Y93.335 E33.08014
G1 X86.871 Y95.329 E33.20544
G1 X85.119 Y97.376 E33.3309
G1 X83.445 Y99.448 E33.45493
G1 X81.812 Y101.589 E33.58032
G1 X80.247 Y103.765 E33.70513
G1 X78.74 Y105.991 E33.8303
G1 X77.313 Y108.234 E33.95409
G1 X75.929 Y110.553 E34.07984
G1 X74.633 Y112.868 E34.20337
G1 X73.371 Y115.28 E34.33013
G1 X72.213 Y117.657 E34.45325
G1 X71.102 Y120.109 E34.5786
G1 X70.059 Y122.598 E34.70426
G1 X69.089 Y125.109 E34.82961
G1 X68.206 Y127.604 E34.95284
G1 X67.378 Y130.169 E35.07835
G1 X66.623 Y132.758 E35.20393
G1 X65.948 Y135.342 E35.32829
G1 X65.351 Y137.924 E35.45169
G1 X64.808 Y140.617 E35.57961
G1 X64.358 Y143.225 E35.70284
G1 X63.981 Y145.861 E35.82683
G1 X63.676 Y148.52 E35.95146
G1 X63.443 Y151.228 E36.07802
G1 X63.29 Y153.863 E36.20092
G1 X63.211 Y156.585 E36.32773
G1 X63.2 Y158.038 E36.39539
G1 X63.2 Y169.336 E36.92147
G1 X63.19 Y170.063 E36.95532
G1 X63.141 Y170.705 E36.9853
G1 X63.013 Y171.337 E37.01533
G1 X62.808 Y171.948 E37.04534
G1 X62.528 Y172.529 E37.07537
G1 X62.179 Y173.071 E37.10539
G1 X61.766 Y173.566 E37.13541
G1 X61.295 Y174.006 E37.16542
G1 X60.772 Y174.384 E37.19547
G1 X60.207 Y174.694 E37.22548
G1 X59.608 Y174.933 E37.25551
G1 X58.985 Y175.095 E37.28548
G1 X58.136 Y175.189 E37.32526
G1 X57.67 Y175.2 E37.34696
G1 X50.64 Y175.2 E37.67431
G1 X49.942 Y175.191 E37.70681
G1 X49.299 Y175.142 E37.73684
G1 X48.667 Y175.015 E37.76686
G1 X48.056 Y174.81 E37.79686
G1 X47.475 Y174.532 E37.82686
G1 X46.932 Y174.183 E37.85691
G1 X46.437 Y173.77 E37.88693
G1 X45.997 Y173.299 E37.91694
G1 X45.618 Y172.777 E37.94698
G1 X45.307 Y172.213 E37.97697
G1 X45.069 Y171.614 E38.00698
G1 X44.906 Y170.99 E38.03702
G1 X44.811 Y170.131 E38.07726
G1 X44.8 Y169.658 E38.09929
G1 X44.801 Y98.021 E41.43501
G1 X44.819 Y97.102 E41.47781
G1 X44.986 Y94.202 E41.61307
G1 X45.063 Y91.499 E41.73898
G1 X45.063 Y88.822 E41.86363
G1 X44.988 Y86.129 E41.98908
G1 X44.818 Y83.18 E42.12663
G1 X44.8 Y82.251 E42.16989
G1 X44.801 Y50.596 E43.64388
G1 X44.811 Y49.931 E43.67485
G1 X44.86 Y49.288 E43.70488
G1 X44.989 Y48.656 E43.73491
G1 X45.195 Y48.045 E43.76494
G1 X45.475 Y47.465 E43.79493
G1 X45.825 Y46.923 E43.82497
G1 X46.239 Y46.429 E43.85498
G1 F2700 E43.05498
G1 F300 Z0.48
;MESH:ringing_tower.stl
G0 F9000 X55.116 Y140.201 Z0.48
;TYPE:WALL-OUTER
G1 F300 Z0.28
G1 F2700 E43.85498
G1 F3000 X54.928 Y140.231 E43.86385
G1 X50.438 Y137.087 E44.11908
G1 X50.2 Y137.087 E44.13016
G1 X50.2 Y169.8 E45.65342
G1 X57.8 Y169.8 E46.0073
G1 X57.8 Y135.721 E47.59417
G1 X56.348 Y134.051 E47.69721
G1 X56.302 Y133.954 E47.70221
G1 X56.3 Y128.086 E47.97545
G1 X57.8 Y126.36 E48.08193
G1 X57.8 Y101.64 E49.23299
G1 X56.329 Y99.947 E49.33743
G1 X56.302 Y99.872 E49.34114
G1 X56.3 Y94.003 E49.61442
G1 X57.8 Y92.278 E49.72087
G1 X57.804 Y57.958 E51.31895
G1 X57.858 Y57.858 E51.32424
G1 X57.965 Y57.802 E51.32987
G1 X109.916 Y57.8 E53.74892
G1 X111.382 Y56.334 E53.84546
G1 X111.465 Y56.302 E53.8496
G1 X116.543 Y56.3 E54.08606
G1 X116.642 Y56.358 E54.0914
G1 X118.084 Y57.8 E54.18636
G1 X169.8 Y57.8 E56.59447
G1 X169.8 Y54 E56.77142
G1 X169.8 Y50.2 E56.94836
G1 X137.217 Y50.2 E58.46556
G1 X133.776 Y55.115 E58.74494
G1 X133.647 Y55.198 E58.75208
G1 X126.112 Y55.2 E59.10294
G1 X125.985 Y55.168 E59.10904
G1 X122.507 Y50.2 E59.39142
G1 X83.464 Y50.201 E61.20943
G1 X83.464 Y50.437 E61.22042
G1 X86.597 Y54.918 E61.47502
G1 X86.578 Y55.116 E61.48428
G1 X86.449 Y55.198 E61.4914
G1 X79.885 Y55.2 E61.79704
G1 X79.769 Y55.05 E61.80587
G1 X79.769 Y54.928 E61.81155
G1 X82.913 Y50.438 E62.06679
G1 X82.913 Y50.2 E62.07787
G1 X50.2 Y50.2 E63.60112
G1 X50.2 Y82.783 E65.11832
G1 X55.168 Y86.261 E65.40071
G1 X55.2 Y86.388 E65.40681
G1 X55.2 Y93.93 E65.758
G1 X55.115 Y94.052 E65.76492
G1 X50.2 Y97.493 E66.0443
G1 X50.201 Y136.536 E67.8623
G1 X50.437 Y136.536 E67.87329
G1 X54.937 Y133.386 E68.12906
G1 X55.093 Y133.408 E68.1364
G1 X55.2 Y133.586 E68.14607
G1 X55.198 Y140.072 E68.44809
G1 X55.116 Y140.201 E68.4552
G0 F9000 X55.31 Y140.493
;TYPE:SKIN
G1 F3000 X54.982 Y140.577 E68.47097
G1 X54.724 Y140.504 E68.48346
G1 X50.541 Y137.574 E68.72126
G1 X50.54 Y169.46 E70.20601
G1 X57.46 Y169.46 E70.52823
G1 X57.46 Y135.849 E72.0933
G1 X56.075 Y134.257 E72.19156
G1 F2941.2 X55.959 Y134.008 E72.20461
G1 X55.965 Y128.048 E72.48768
G1 F3000 X56.095 Y127.802 E72.50063
G1 X57.46 Y126.232 E72.59751
G1 X57.46 Y101.768 E73.73665
G1 X56.059 Y100.157 E73.83607
G1 X55.962 Y99.93 E73.84756
G1 F2955.7 X55.956 Y93.985 E74.12854
G1 X56.095 Y93.72 E74.14268
G1 F3000 X57.46 Y92.15 E74.23955
G1 X57.463 Y57.907 E75.83405
G1 X57.549 Y57.701 E75.84445
G1 X57.699 Y57.551 E75.85432
G1 X57.911 Y57.462 E75.86503
G1 X109.774 Y57.459 E78.27999
G1 X111.198 Y56.045 E78.37343
G1 X111.399 Y55.967 E78.38347
G1 X116.607 Y55.964 E78.62598
G1 X116.811 Y56.052 E78.63632
G1 X118.226 Y57.46 E78.72927
G1 X169.46 Y57.46 E81.11494
G1 X169.46 Y54 E81.27606
G1 X169.46 Y50.54 E81.43717
G1 X137.394 Y50.54 E82.9303
G1 X134.03 Y55.337 E83.20311
G1 X133.918 Y55.443 E83.21029
G1 X133.703 Y55.534 E83.22117
G1 X126.119 Y55.54 E83.57431
G1 X125.895 Y55.49 E83.585
G1 X125.695 Y55.338 E83.59669
G1 X122.33 Y50.54 E83.86958
G1 X83.949 Y50.541 E85.65676
G1 X86.907 Y54.775 E85.89726
G1 X86.954 Y54.983 E85.90719
G1 X86.886 Y55.251 E85.92006
G1 X86.712 Y55.448 E85.9323
G1 X86.505 Y55.534 E85.94274
G1 X79.97 Y55.54 E86.24704
G1 X79.75 Y55.491 E86.25753
G1 X79.507 Y55.314 E86.27153
G1 X79.423 Y54.983 E86.28743
G1 X79.47 Y54.775 E86.29736
G1 X82.428 Y50.541 E86.53786
G1 X50.54 Y50.54 E88.0227
G1 X50.54 Y82.606 E89.51583
G1 X55.34 Y85.972 E89.78881
G1 X55.49 Y86.171 E89.80042
G1 X55.54 Y86.393 E89.81101
G1 F2977.7 X55.543 Y94.02 E90.16882
G1 F2970.3 X55.328 Y94.32 E90.18618
G1 F2992.5 X50.54 Y97.671 E90.45899
G1 F3000 X50.542 Y136.048 E92.24598
G1 X54.708 Y133.13 E92.48282
G1 X54.959 Y133.056 E92.49501
G1 X55.178 Y133.087 E92.50531
G1 X55.321 Y133.182 E92.5133
G1 F2977.7 X55.546 Y133.552 E92.53362
G1 X55.534 Y140.128 E92.84212
G1 F3000 X55.487 Y140.268 E92.849
G1 X55.31 Y140.493 E92.86233
G1 F2700 E92.06233
G1 F300 Z0.48
G0 F9000 X51.03 Y169.258 Z0.48
G1 F300 Z0.28
G1 F2700 E92.86233
G1 F3000 X50.739 Y168.968 E92.88146
G0 F9000 X50.739 Y168.402
G1 F3000 X51.596 Y169.258 E92.93786
G0 F9000 X52.161 Y169.258
G1 F3000 X50.739 Y167.836 E93.0315
G0 F9000 X50.739 Y167.271
G1 F3000 X52.727 Y169.258 E93.16238
G0 F9000 X53.293 Y169.258
G1 F3000 X50.739 Y166.705 E93.33053
G0 F9000 X50.739 Y166.139
G1 F3000 X53.858 Y169.258 E93.53592
G0 F9000 X54.424 Y169.258
G1 F3000 X50.739 Y165.574 E93.77855
G0 F9000 X50.739 Y165.008
G1 F3000 X54.99 Y169.258 E94.05846
G0 F9000 X55.555 Y169.258
G1 F3000 X50.739 Y164.442 E94.3756
G0 F9000 X50.739 Y163.876
G1 F3000 X56.121 Y169.258 E94.73001
G0 F9000 X56.687 Y169.258
G1 F3000 X50.739 Y163.311 E95.12166
G0 F9000 X50.739 Y162.745
G1 F3000 X57.253 Y169.258 E95.55059
G0 F9000 X57.26 Y168.7
G1 F3000 X50.739 Y162.179 E95.98001
G0 F9000 X50.739 Y161.614
G1 F3000 X57.26 Y168.134 E96.40939
G0 F9000 X57.26 Y167.568
G1 F3000 X50.739 Y161.048 E96.83878
G0 F9000 X50.739 Y160.482
G1 F3000 X57.26 Y167.003 E97.2682
G0 F9000 X57.26 Y166.437
G1 F3000 X50.739 Y159.917 E97.69759
G0 F9000 X50.739 Y159.351
G1 F3000 X57.26 Y165.871 E98.12697
G0 F9000 X57.26 Y165.306
G1 F3000 X50.739 Y158.785 E98.55639
G0 F9000 X50.739 Y158.22
G1 F3000 X57.26 Y164.74 E98.98578
G0 F9000 X57.26 Y164.174
G1 F3000 X50.739 Y157.654 E99.41516
G0 F9000 X50.739 Y157.088
G1 F3000 X57.26 Y163.608 E99.84455
G0 F9000 X57.26 Y163.043
G1 F3000 X50.739 Y156.523 E100.27394
G0 F9000 X50.739 Y155.957
G1 F3000 X57.26 Y162.477 E100.70332
G0 F9000 X57.26 Y161.911
G1 F3000 X50.739 Y155.391 E101.13271
G0 F9000 X50.739 Y154.825
G1 F3000 X57.26 Y161.346 E101.56213
G0 F9000 X57.26 Y160.78
G1 F3000 X50.739 Y154.26 E101.99151
G0 F9000 X50.739 Y153.694
G1 F3000 X57.26 Y160.214 E102.4209
G0 F9000 X57.26 Y159.649
G1 F3000 X50.74 Y153.129 E102.85025
G0 F9000 X50.74 Y152.563
G1 F3000 X57.26 Y159.083 E103.2796
G0 F9000 X57.26 Y158.517
