;FLAVOR:Marlin
;TIME:6748
;Filament used: 12.6529m
;Layer height: 0.3
;MINX:71.435
;MINY:71.433
;MINZ:0.3
;MAXX:148.565
;MAXY:148.567
;MAXZ:50.3
;Generated with Cura_SteamEngine 5.2.2
M82 ;absolute extrusion mode
; Ender 3 S1 Start G-code
G92 E0 ; Reset Extruder
G28 ; Home all axes
G1 Z10.0 F3000 ; Move Z Axis up little to prevent scratching of Heat Bed
G1 X0 Y0

M104 S205
M190 S60
M109 S205

G1 X0.1 Y20 Z0.3 F5000.0 ; Move to start position
G1 X0.1 Y200.0 Z0.3 F1500.0 E15 ; Draw the first line
G1 X0.4 Y200.0 Z0.3 F5000.0 ; Move to side a little
G1 X0.4 Y20 Z0.3 F1500.0 E30 ; Draw the second line
G92 E0 ; Reset Extruder
G1 Z2.0 F3000 ; Move Z Axis up little to prevent scratching of Heat Bed
G1 X5 Y20 Z0.3 F5000.0 ; Move over to prevent blob squish

G92 E0
G92 E0
G1 F2700 E-1.5
;LAYER_COUNT:167
;LAYER:0
M107
G1 F300 Z0.5
G0 F7500 X74.497 Y74.544 Z0.5
;TYPE:SKIRT
G1 F300 Z0.3
G1 F2700 E0
G1 F1500 X75.234 Y73.875 E0.04966
G1 X75.88 Y73.386 E0.09008
G1 X76.245 Y73.126 E0.11244
G1 X77.087 Y72.638 E0.16099
G1 X77.792 Y72.308 E0.19983
G1 X78.188 Y72.134 E0.2214
G1 X79.135 Y71.822 E0.27115
G1 X79.88 Y71.648 E0.30932
G1 X80.316 Y71.558 E0.33153
G1 X81.303 Y71.449 E0.38107
G1 X82.085 Y71.433 E0.42009
G1 X82.543 Y71.437 E0.44294
G1 X83.512 Y71.536 E0.49154
G1 X84.309 Y71.689 E0.53203
G1 X85.827 Y72.032 E0.60967
G1 X88.436 Y72.588 E0.74276
G1 X91.122 Y73.082 E0.87901
G1 X93.725 Y73.484 E1.01041
G1 X96.358 Y73.816 E1.14281
G1 X99.044 Y74.077 E1.27745
G1 X101.722 Y74.261 E1.41137
G1 X104.337 Y74.367 E1.54194
G1 X106.913 Y74.4 E1.67047
G1 X113.211 Y74.4 E1.98468
G1 X115.871 Y74.362 E2.1174
G1 X118.556 Y74.248 E2.25147
G1 X121.21 Y74.06 E2.38421
G1 X123.876 Y73.796 E2.51787
G1 X126.54 Y73.455 E2.65186
G1 X129.141 Y73.046 E2.78322
G1 X131.789 Y72.554 E2.91759
G1 X134.753 Y71.911 E3.06891
G1 X135.879 Y71.648 E3.1266
G1 X136.34 Y71.554 E3.15007
G1 X137.308 Y71.449 E3.19864
G1 X138.085 Y71.433 E3.23742
G1 X138.543 Y71.437 E3.26027
G1 X139.51 Y71.536 E3.30876
G1 X140.308 Y71.689 E3.3493
G1 X140.741 Y71.784 E3.37142
G1 X141.677 Y72.087 E3.4205
G1 X142.497 Y72.436 E3.46496
G1 X142.773 Y72.562 E3.4801
G1 X143.364 Y72.875 E3.51346
G1 X143.656 Y73.066 E3.53087
G1 X144.304 Y73.519 E3.57032
G1 X144.642 Y73.769 E3.59129
G1 X145.365 Y74.415 E3.63966
G1 X145.921 Y75.006 E3.68014
G1 X146.237 Y75.364 E3.70397
G1 X146.794 Y76.13 E3.75122
G1 X147.194 Y76.791 E3.78976
G1 X147.417 Y77.183 E3.81226
G1 X147.821 Y78.081 E3.86139
G1 X148.076 Y78.816 E3.9002
G1 X148.212 Y79.245 E3.92266
G1 X148.422 Y80.218 E3.97232
G1 X148.516 Y80.974 E4.01033
G1 X148.561 Y81.43 E4.03319
G1 X148.565 Y82.424 E4.08278
G1 X148.499 Y83.195 E4.12138
G1 X148.442 Y83.696 E4.14654
G1 X148.331 Y84.324 E4.17836
G1 X148.143 Y85.121 E4.21921
G1 X147.546 Y87.817 E4.35697
G1 X147.041 Y90.459 E4.49117
G1 X146.621 Y93.045 E4.62188
G1 X146.264 Y95.722 E4.75661
G1 X145.987 Y98.348 E4.88835
G1 X145.784 Y101.018 E5.02194
G1 X145.654 Y103.707 E5.15626
G1 X145.6 Y106.922 E5.31667
G1 X145.6 Y113.129 E5.62634
G1 X145.638 Y115.781 E5.75867
G1 X145.752 Y118.466 E5.89274
G1 X145.94 Y121.116 E6.02528
G1 X146.204 Y123.787 E6.15919
G1 X146.544 Y126.444 E6.29283
G1 X146.956 Y129.061 E6.425
G1 X147.447 Y131.703 E6.55907
G1 X148.003 Y134.294 E6.69127
G1 X148.303 Y135.544 E6.75541
G1 X148.414 Y136.155 E6.78639
G1 X148.516 Y136.972 E6.82747
G1 X148.561 Y137.428 E6.85033
G1 X148.565 Y138.419 E6.89977
G1 X148.483 Y139.356 E6.94669
G1 X148.45 Y139.636 E6.96076
G1 X148.248 Y140.603 E7.01004
G1 X148.018 Y141.363 E7.04966
G1 X147.878 Y141.784 E7.07179
G1 X147.485 Y142.672 E7.12024
G1 X147.118 Y143.339 E7.15822
G1 X146.873 Y143.756 E7.18235
G1 X146.299 Y144.552 E7.23131
G1 X145.794 Y145.136 E7.26983
G1 X145.508 Y145.451 E7.29106
G1 X144.766 Y146.125 E7.34107
G1 X144.12 Y146.614 E7.38149
G1 X143.767 Y146.867 E7.40316
G1 X142.914 Y147.362 E7.45236
G1 X142.061 Y147.759 E7.4993
G1 X141.816 Y147.865 E7.51262
G1 X140.864 Y148.179 E7.56263
G1 X140.118 Y148.353 E7.60085
G1 X139.684 Y148.442 E7.62295
G1 X138.697 Y148.551 E7.67249
G1 X137.915 Y148.567 E7.71151
G1 X137.457 Y148.563 E7.73436
G1 X136.488 Y148.464 E7.78296
G1 X135.691 Y148.311 E7.82345
G1 X134.173 Y147.968 E7.90109
G1 X131.564 Y147.412 E8.03418
G1 X128.878 Y146.918 E8.17043
G1 X126.275 Y146.516 E8.30183
G1 X123.642 Y146.184 E8.43423
G1 X120.956 Y145.923 E8.56887
G1 X118.278 Y145.739 E8.70279
G1 X115.663 Y145.633 E8.83336
G1 X113.087 Y145.6 E8.96189
G1 X106.789 Y145.6 E9.2761
G1 X104.129 Y145.638 E9.40882
G1 X101.444 Y145.752 E9.5429
G1 X98.79 Y145.94 E9.67564
G1 X96.124 Y146.204 E9.80929
G1 X93.46 Y146.545 E9.94329
G1 X90.859 Y146.954 E10.07464
G1 X88.211 Y147.446 E10.20901
G1 X85.247 Y148.089 E10.36033
G1 X84.121 Y148.352 E10.41802
G1 X83.66 Y148.446 E10.44149
G1 X82.692 Y148.551 E10.49007
G1 X81.915 Y148.567 E10.52884
G1 X81.457 Y148.563 E10.55169
G1 X80.49 Y148.464 E10.60019
G1 X79.692 Y148.311 E10.64072
G1 X79.259 Y148.216 E10.66284
G1 X78.323 Y147.913 E10.71192
G1 X77.503 Y147.564 E10.75638
G1 X77.227 Y147.438 E10.77152
G1 X76.636 Y147.125 E10.80489
G1 X76.344 Y146.934 E10.82229
G1 X75.696 Y146.481 E10.86174
G1 X75.358 Y146.231 E10.88271
G1 X74.635 Y145.585 E10.93108
G1 X74.079 Y144.994 E10.97157
G1 X73.763 Y144.636 E10.99539
G1 X73.206 Y143.87 E11.04264
G1 X72.806 Y143.209 E11.08119
G1 X72.583 Y142.817 E11.10369
G1 X72.179 Y141.919 E11.15281
G1 X71.924 Y141.184 E11.19163
G1 X71.788 Y140.755 E11.21408
G1 X71.577 Y139.778 E11.26395
G1 X71.482 Y139.01 E11.30255
G1 X71.439 Y138.572 E11.32451
G1 X71.435 Y137.576 E11.3742
G1 X71.501 Y136.805 E11.41281
G1 X71.557 Y136.307 E11.43781
G1 X71.67 Y135.669 E11.47014
G1 X71.857 Y134.879 E11.51064
G1 X72.454 Y132.183 E11.6484
G1 X72.959 Y129.541 E11.7826
G1 X73.379 Y126.955 E11.9133
G1 X73.736 Y124.278 E12.04804
G1 X74.013 Y121.652 E12.17978
G1 X74.216 Y118.982 E12.31337
G1 X74.346 Y116.293 E12.44768
G1 X74.4 Y113.05 E12.6095
G1 X74.4 Y106.871 E12.91777
G1 X74.362 Y104.219 E13.05009
G1 X74.248 Y101.534 E13.18417
G1 X74.06 Y98.88 E13.31691
G1 X73.796 Y96.214 E13.45057
G1 X73.455 Y93.551 E13.58451
G1 X73.046 Y90.95 E13.71587
G1 X72.552 Y88.291 E13.8508
G1 X71.997 Y85.706 E13.9827
G1 X71.697 Y84.456 E14.04684
G1 X71.586 Y83.843 E14.07792
G1 X71.462 Y82.827 E14.12898
G1 X71.438 Y82.565 E14.14211
G1 X71.435 Y81.576 E14.19145
G1 X71.501 Y80.805 E14.23005
G1 X71.55 Y80.367 E14.25204
G1 X71.753 Y79.393 E14.30168
G1 X72.096 Y78.274 E14.36007
G1 X72.516 Y77.327 E14.41175
G1 X72.896 Y76.637 E14.45105
G1 X73.133 Y76.233 E14.47442
G1 X73.701 Y75.448 E14.52276
G1 X74.212 Y74.857 E14.56174
G1 X74.497 Y74.544 E14.58286
G0 F7500 X74.791 Y74.815
G1 F1500 X75.476 Y74.194 E14.62899
G1 X76.122 Y73.705 E14.66941
G1 X76.475 Y73.453 E14.69105
G1 X77.257 Y73 E14.73613
G1 X77.962 Y72.67 E14.77497
G1 X78.346 Y72.502 E14.79588
G1 X79.226 Y72.211 E14.84212
G1 X79.971 Y72.037 E14.88029
G1 X80.394 Y71.95 E14.90184
G1 X81.312 Y71.849 E14.94791
G1 X82.094 Y71.833 E14.98693
G1 X82.537 Y71.837 E15.00904
G1 X83.436 Y71.929 E15.05412
G1 X84.233 Y72.082 E15.09461
G1 X85.719 Y72.418 E15.17062
G1 X88.393 Y72.987 E15.30701
G1 X91.021 Y73.471 E15.44033
G1 X93.686 Y73.883 E15.57487
G1 X96.306 Y74.212 E15.7066
G1 X99.011 Y74.476 E15.8422
G1 X101.679 Y74.659 E15.97562
G1 X104.352 Y74.767 E16.10908
G1 X106.908 Y74.8 E16.23661
G1 X113.216 Y74.8 E16.55132
G1 X115.893 Y74.762 E16.68489
G1 X118.567 Y74.649 E16.81842
G1 X121.241 Y74.459 E16.95216
G1 X123.933 Y74.192 E17.08712
G1 X126.582 Y73.853 E17.22036
G1 X129.246 Y73.435 E17.35489
G1 X131.843 Y72.952 E17.48668
G1 X134.861 Y72.297 E17.64075
G1 X135.97 Y72.038 E17.69757
G1 X136.418 Y71.946 E17.72039
G1 X137.316 Y71.849 E17.76545
G1 X138.093 Y71.833 E17.80422
G1 X138.537 Y71.837 E17.82637
G1 X139.435 Y71.929 E17.87141
G1 X140.233 Y72.082 E17.91195
G1 X140.652 Y72.174 E17.93335
G1 X141.521 Y72.455 E17.97891
G1 X142.197 Y72.741 E18.01553
G1 X142.607 Y72.926 E18.03798
G1 X143.426 Y73.394 E18.08504
G1 X144.357 Y74.048 E18.1418
G1 X145.073 Y74.689 E18.18974
G1 X145.629 Y75.28 E18.23023
G1 X145.935 Y75.626 E18.25327
G1 X146.452 Y76.337 E18.29713
G1 X146.852 Y76.998 E18.33567
G1 X147.068 Y77.378 E18.35748
G1 X147.443 Y78.213 E18.40315
G1 X147.698 Y78.948 E18.44196
G1 X147.83 Y79.363 E18.46369
G1 X148.025 Y80.267 E18.50983
G1 X148.137 Y81.186 E18.55601
G1 X148.163 Y81.467 E18.57009
G1 X148.166 Y82.39 E18.61614
G1 X148.1 Y83.161 E18.65475
G1 X148.045 Y83.649 E18.67925
G1 X147.942 Y84.232 E18.70879
G1 X147.736 Y85.105 E18.75354
G1 X147.156 Y87.727 E18.88751
G1 X146.653 Y90.355 E19.021
G1 X146.219 Y93.028 E19.1561
G1 X145.867 Y95.664 E19.28878
G1 X145.589 Y98.312 E19.42162
G1 X145.383 Y101.002 E19.55621
G1 X145.254 Y103.681 E19.69003
G1 X145.2 Y106.887 E19.85
G1 X145.2 Y113.129 E20.16141
G1 X145.238 Y115.803 E20.29483
G1 X145.351 Y118.477 E20.42836
G1 X145.541 Y121.151 E20.5621
G1 X145.808 Y123.841 E20.69696
G1 X146.147 Y126.491 E20.83025
G1 X146.565 Y129.154 E20.96473
G1 X147.05 Y131.761 E21.09703
G1 X147.612 Y134.376 E21.23047
G1 X147.914 Y135.637 E21.29516
G1 X148.017 Y136.205 E21.32396
G1 X148.137 Y137.185 E21.37322
G1 X148.163 Y137.465 E21.38725
G1 X148.166 Y138.385 E21.43315
G1 X148.102 Y139.14 E21.47095
G1 X148.052 Y139.59 E21.49354
G1 X147.865 Y140.487 E21.53925
G1 X147.635 Y141.247 E21.57887
G1 X147.499 Y141.655 E21.60032
G1 X147.135 Y142.479 E21.64527
G1 X146.768 Y143.146 E21.68325
G1 X146.53 Y143.551 E21.70668
G1 X145.996 Y144.29 E21.75217
G1 X145.491 Y144.874 E21.79069
G1 X145.213 Y145.18 E21.81131
G1 X144.524 Y145.806 E21.85776
G1 X143.878 Y146.295 E21.89818
G1 X143.536 Y146.54 E21.91917
G1 X142.744 Y147 E21.96486
G1 X142.041 Y147.329 E22.00359
G1 X141.657 Y147.497 E22.0245
G1 X140.773 Y147.789 E22.07094
G1 X140.027 Y147.963 E22.10916
G1 X139.606 Y148.05 E22.13061
G1 X138.688 Y148.151 E22.17668
G1 X137.906 Y148.167 E22.21571
G1 X137.463 Y148.163 E22.23781
G1 X136.564 Y148.071 E22.28289
G1 X135.767 Y147.918 E22.32338
G1 X134.281 Y147.582 E22.39939
G1 X131.607 Y147.013 E22.53578
G1 X128.979 Y146.529 E22.6691
G1 X126.314 Y146.117 E22.80364
G1 X123.694 Y145.788 E22.93538
G1 X120.989 Y145.524 E23.07097
G1 X118.321 Y145.341 E23.20439
G1 X115.648 Y145.233 E23.33786
G1 X113.092 Y145.2 E23.46539
G1 X106.784 Y145.2 E23.78009
G1 X104.107 Y145.238 E23.91366
G1 X101.433 Y145.351 E24.04719
G1 X98.759 Y145.541 E24.18093
G1 X96.067 Y145.808 E24.31589
G1 X93.418 Y146.147 E24.44913
G1 X90.754 Y146.565 E24.58366
G1 X88.157 Y147.048 E24.71545
G1 X85.139 Y147.703 E24.86952
G1 X84.03 Y147.962 E24.92634
G1 X83.582 Y148.054 E24.94916
G1 X82.684 Y148.151 E24.99422
G1 X81.907 Y148.167 E25.03299
G1 X81.463 Y148.163 E25.05515
G1 X80.565 Y148.071 E25.10018
G1 X79.767 Y147.918 E25.14072
G1 X79.348 Y147.826 E25.16212
G1 X78.479 Y147.545 E25.20769
G1 X77.803 Y147.259 E25.24431
G1 X77.393 Y147.074 E25.26675
G1 X76.574 Y146.606 E25.31381
G1 X75.643 Y145.952 E25.37057
G1 X74.927 Y145.311 E25.41852
G1 X74.371 Y144.72 E25.459
G1 X74.065 Y144.374 E25.48204
G1 X73.548 Y143.663 E25.5259
G1 X73.148 Y143.002 E25.56445
G1 X72.932 Y142.622 E25.58625
G1 X72.557 Y141.787 E25.63192
G1 X72.302 Y141.052 E25.67073
G1 X72.17 Y140.637 E25.69246
G1 X71.974 Y139.729 E25.7388
G1 X71.879 Y138.961 E25.77741
G1 X71.837 Y138.535 E25.79877
G1 X71.834 Y137.61 E25.84492
G1 X71.916 Y136.677 E25.89164
G1 X71.954 Y136.353 E25.90792
G1 X72.059 Y135.761 E25.93791
G1 X72.265 Y134.891 E25.98252
G1 X72.844 Y132.273 E26.11629
G1 X73.347 Y129.645 E26.24978
G1 X73.781 Y126.972 E26.38488
G1 X74.133 Y124.336 E26.51756
G1 X74.411 Y121.688 E26.65039
G1 X74.617 Y118.998 E26.78499
G1 X74.746 Y116.319 E26.9188
G1 X74.8 Y113.113 E27.07877
G1 X74.8 Y106.871 E27.39019
G1 X74.762 Y104.197 E27.52361
G1 X74.649 Y101.523 E27.65713
G1 X74.459 Y98.849 E27.79088
G1 X74.192 Y96.157 E27.92584
G1 X73.853 Y93.509 E28.05903
G1 X73.435 Y90.845 E28.19356
G1 X72.95 Y88.239 E28.32581
G1 X72.388 Y85.624 E28.45925
G1 X72.086 Y84.363 E28.52394
G1 X71.983 Y83.794 E28.55279
G1 X71.879 Y82.959 E28.59477
G1 X71.837 Y82.528 E28.61637
G1 X71.834 Y81.61 E28.66217
G1 X71.9 Y80.839 E28.70078
G1 X71.947 Y80.414 E28.72211
G1 X72.136 Y79.509 E28.76824
G1 X72.367 Y78.747 E28.80796
G1 X72.501 Y78.345 E28.8291
G1 X72.866 Y77.519 E28.87416
G1 X73.246 Y76.829 E28.91345
G1 X73.476 Y76.439 E28.93604
G1 X74.003 Y75.71 E28.98092
G1 X74.514 Y75.119 E29.0199
G1 X74.791 Y74.815 E29.04042
G1 F2700 E27.54042
G1 F300 Z0.5
;MESH:square_tower.stl
G0 F7500 X80.954 Y86.249 Z0.5
;TYPE:WALL-INNER
G1 F300 Z0.3
G1 F2700 E29.04042
G1 F1500 X81 Y86.553 E29.05576
G1 X81 Y133.447 E31.39531
G1 X80.954 Y133.751 E31.41065
G1 X80.787 Y134.092 E31.42959
G1 X80.497 Y134.316 E31.44787
G1 X80.004 Y134.541 E31.47491
G1 X79.325 Y135.034 E31.51677
G1 X78.765 Y135.657 E31.55856
G1 X78.351 Y136.371 E31.59974
G1 X78.093 Y137.166 E31.64144
G1 X78.006 Y138.001 E31.68332
G1 X78.093 Y138.834 E31.72511
G1 X78.351 Y139.629 E31.76681
G1 X78.765 Y140.343 E31.80798
G1 X79.325 Y140.966 E31.84978
G1 X80.004 Y141.459 E31.89164
G1 X80.763 Y141.797 E31.93309
G1 X81.585 Y141.973 E31.97503
G1 X82.415 Y141.972 E32.01644
G1 X83.237 Y141.797 E32.05837
G1 X83.996 Y141.459 E32.09982
G1 X84.675 Y140.966 E32.14168
G1 X85.235 Y140.344 E32.18344
G1 X85.787 Y139.385 E32.23864
G1 X86.011 Y139.183 E32.25369
G1 X86.279 Y139.049 E32.26864
G1 X86.589 Y139 E32.2843
G1 X133.411 Y139 E34.62026
G1 X133.722 Y139.049 E34.63596
G1 X133.989 Y139.183 E34.65087
G1 X134.209 Y139.382 E34.66567
G1 X134.765 Y140.344 E34.7211
G1 X135.324 Y140.967 E34.76286
G1 X136.004 Y141.459 E34.80474
G1 X136.763 Y141.797 E34.84619
G1 X137.585 Y141.973 E34.88813
G1 X138.415 Y141.973 E34.92954
G1 X139.237 Y141.797 E34.97147
G1 X139.996 Y141.46 E35.01291
G1 X140.675 Y140.966 E35.0548
G1 X141.235 Y140.343 E35.09659
G1 X141.649 Y139.629 E35.13777
G1 X141.907 Y138.834 E35.17947
G1 X141.955 Y138.367 E35.20289
G1 X141.994 Y137.999 E35.22135
G1 X141.907 Y137.166 E35.26314
G1 X141.649 Y136.371 E35.30483
G1 X141.235 Y135.657 E35.34601
G1 X140.675 Y135.034 E35.3878
G1 X139.996 Y134.541 E35.42967
G1 X139.503 Y134.316 E35.4567
G1 X139.213 Y134.092 E35.47498
G1 X139.046 Y133.751 E35.49393
G1 X139 Y133.447 E35.50927
G1 X139 Y86.553 E37.84882
G1 X139.046 Y86.249 E37.86416
G1 X139.215 Y85.905 E37.88328
G1 X139.504 Y85.684 E37.90143
G1 X139.996 Y85.459 E37.92842
G1 X140.675 Y84.966 E37.97028
G1 X141.235 Y84.343 E38.01208
G1 X141.649 Y83.629 E38.05325
G1 X141.907 Y82.834 E38.09495
G1 X141.994 Y81.999 E38.13684
G1 X141.907 Y81.166 E38.17862
G1 X141.649 Y80.371 E38.22032
G1 X141.235 Y79.657 E38.2615
G1 X140.675 Y79.034 E38.30329
G1 X139.996 Y78.541 E38.34515
G1 X139.237 Y78.203 E38.3866
G1 X138.415 Y78.028 E38.42853
G1 X137.585 Y78.027 E38.46994
G1 X136.763 Y78.203 E38.51188
G1 X136.004 Y78.541 E38.55333
G1 X135.324 Y79.033 E38.59521
G1 X134.765 Y79.656 E38.63696
G1 X134.209 Y80.618 E38.6924
G1 X133.989 Y80.817 E38.7072
G1 X133.721 Y80.951 E38.72215
G1 X133.411 Y81 E38.73781
G1 X86.589 Y81 E41.07376
G1 X86.278 Y80.951 E41.08947
G1 X86.011 Y80.817 E41.10438
G1 X85.787 Y80.615 E41.11942
G1 X85.235 Y79.656 E41.17463
G1 X84.675 Y79.034 E41.21638
G1 X83.996 Y78.541 E41.25825
G1 X83.237 Y78.203 E41.2997
G1 X82.415 Y78.028 E41.34163
G1 X81.585 Y78.027 E41.38304
G1 X80.763 Y78.203 E41.42498
G1 X80.004 Y78.541 E41.46643
G1 X79.325 Y79.034 E41.50829
G1 X78.765 Y79.657 E41.55008
G1 X78.351 Y80.371 E41.59126
G1 X78.093 Y81.166 E41.63296
G1 X78.006 Y82.001 E41.67484
G1 X78.093 Y82.834 E41.71663
G1 X78.351 Y83.629 E41.75833
G1 X78.765 Y84.343 E41.7995
G1 X79.325 Y84.966 E41.8413
G1 X80.004 Y85.459 E41.88316
G1 X80.496 Y85.684 E41.91015
G1 X80.786 Y85.907 E41.9284
G1 X80.954 Y86.249 E41.94741
G1 F2700 E40.44741
