;FLAVOR:Marlin
;TIME:1614
;Filament used: 3.08984m
;Layer height: 0.32
;MINX:82.531
;MINY:90.031
;MINZ:0.35
;MAXX:137.469
;MAXY:129.969
;MAXZ:68.048
;Generated with Cura_SteamEngine 5.2.2
M82 ;absolute extrusion mode
; Ender 3 S1 Start G-code
G92 E0 ; Reset Extruder
G28 ; Home all axes
G1 Z10.0 F3000 ; Move Z Axis up little to prevent scratching of Heat Bed
G1 X0 Y0

M104 S205
M190 S60
M109 S205

G1 X0.1 Y20 Z0.3 F5000.0 ; Move to start position
G1 X0.1 Y200.0 Z0.3 F1500.0 E15 ; Draw the first line
G1 X0.4 Y200.0 Z0.3 F5000.0 ; Move to side a little
G1 X0.4 Y20 Z0.3 F1500.0 E30 ; Draw the second line
G92 E0 ; Reset Extruder
G1 Z2.0 F3000 ; Move Z Axis up little to prevent scratching of Heat Bed
G1 X5 Y20 Z0.3 F5000.0 ; Move over to prevent blob squish

G92 E0
G92 E0
G1 F2700 E-0.8
;LAYER_COUNT:212
;LAYER:0
M107
G1 F300 Z0.55
G0 F9000 X87.636 Y91.745 Z0.55
;TYPE:SKIRT
G1 F300 Z0.35
G1 F2700 E0
G1 F3000 X88.137 Y91.293 E0.04615
G1 X88.689 Y90.902 E0.09241
G1 X89.282 Y90.58 E0.13856
G1 X89.909 Y90.33 E0.18472
G1 X90.562 Y90.156 E0.23094
G1 X91.529 Y90.044 E0.29752
G1 X92.03 Y90.031 E0.33179
G1 X94.405 Y90.031 E0.49422
G1 X95.134 Y90.041 E0.54408
G1 X97.567 Y90.045 E0.71048
G1 X98.824 Y90.031 E0.79645
G1 X104.314 Y90.032 E1.17192
G1 X105.204 Y90.046 E1.2328
G1 X105.977 Y90.079 E1.28571
G1 X108.699 Y90.156 E1.47195
G1 X111.34 Y90.156 E1.65257
G1 X114.183 Y90.073 E1.84709
G1 X114.762 Y90.048 E1.88672
G1 X115.8 Y90.031 E1.95772
G1 X121.084 Y90.032 E2.3191
G1 X121.734 Y90.041 E2.36356
G1 X124.167 Y90.045 E2.52995
G1 X125.424 Y90.031 E2.61593
G1 X127.674 Y90.032 E2.76981
G1 X128.374 Y90.042 E2.81769
G1 X129.048 Y90.091 E2.8639
G1 X129.711 Y90.22 E2.9101
G1 X130.354 Y90.426 E2.95627
G1 X130.968 Y90.707 E3.00246
G1 X131.545 Y91.058 E3.04865
G1 X132.076 Y91.475 E3.09482
G1 X132.554 Y91.952 E3.141
G1 X132.972 Y92.482 E3.18717
G1 X133.325 Y93.058 E3.23337
G1 X133.489 Y93.39 E3.2587
G1 X133.801 Y94.078 E3.31036
G1 X134.279 Y95.175 E3.3922
G1 X135.406 Y97.578 E3.57372
G1 X136.846 Y100.431 E3.79229
G1 X137.114 Y101.051 E3.83848
G1 X137.307 Y101.698 E3.88466
G1 X137.422 Y102.363 E3.93081
G1 X137.457 Y102.917 E3.96877
G1 X137.469 Y103.744 E4.02534
G1 X137.468 Y116.374 E4.88912
G1 X137.458 Y117.076 E4.93714
G1 X137.409 Y117.75 E4.98335
G1 X137.28 Y118.413 E5.02955
G1 X137.074 Y119.056 E5.07572
G1 X136.793 Y119.67 E5.1219
G1 X136.442 Y120.246 E5.16804
G1 X136.039 Y120.761 E5.21276
G1 X135.19 Y121.727 E5.30071
G1 X133.448 Y123.764 E5.48402
G1 X131.767 Y125.847 E5.66708
G1 X131.222 Y126.57 E5.72901
G1 X131.148 Y126.657 E5.73682
G1 X130.321 Y127.732 E5.82958
G1 X129.878 Y128.242 E5.87578
G1 X129.379 Y128.696 E5.92192
G1 X128.829 Y129.088 E5.96811
G1 X128.236 Y129.412 E6.01432
G1 X127.61 Y129.664 E6.06047
G1 X126.958 Y129.84 E6.10666
G1 X126.29 Y129.938 E6.15283
G1 X125.897 Y129.958 E6.17975
G1 X125.217 Y129.969 E6.22626
G1 X121.463 Y129.968 E6.483
G1 X120.282 Y129.951 E6.56378
G1 X117.365 Y129.952 E6.76327
G1 X116.219 Y129.969 E6.84166
G1 X103.65 Y129.968 E7.70127
G1 X102.741 Y129.955 E7.76344
G1 X100.248 Y129.951 E7.93394
G1 X98.666 Y129.969 E8.04214
G1 X94.827 Y129.968 E8.3047
G1 X94.124 Y129.958 E8.35278
G1 X93.45 Y129.909 E8.399
G1 X92.788 Y129.78 E8.44512
G1 X92.144 Y129.574 E8.49137
G1 X91.53 Y129.293 E8.53755
G1 X91.216 Y129.114 E8.56227
G1 X90.39 Y128.606 E8.62859
G1 X88.087 Y127.234 E8.81192
G1 X85.471 Y125.777 E9.01671
G1 X84.901 Y125.415 E9.06289
G1 X84.379 Y124.987 E9.10906
G1 X83.91 Y124.501 E9.15525
G1 X83.502 Y123.962 E9.20148
G1 X83.161 Y123.38 E9.24761
G1 X82.891 Y122.761 E9.2938
G1 X82.696 Y122.114 E9.34002
G1 X82.579 Y121.449 E9.38619
G1 X82.544 Y120.97 E9.41904
G1 X82.531 Y120.47 E9.45325
G1 X82.532 Y115.657 E9.78241
G1 X82.546 Y114.797 E9.84124
G1 X82.579 Y114.023 E9.89422
G1 X82.656 Y111.301 E10.08046
G1 X82.656 Y108.659 E10.26115
G1 X82.573 Y105.816 E10.45567
G1 X82.548 Y105.238 E10.49523
G1 X82.531 Y104.201 E10.56616
G1 X82.532 Y99.826 E10.86537
G1 X82.542 Y99.123 E10.91346
G1 X82.591 Y98.449 E10.95968
G1 X82.72 Y97.787 E11.0058
G1 X82.926 Y97.143 E11.05204
G1 X83.207 Y96.529 E11.09823
G1 X83.558 Y95.953 E11.14436
G1 X83.975 Y95.422 E11.19053
G1 X84.243 Y95.139 E11.21719
G1 X86.399 Y93.016 E11.42413
G1 X86.907 Y92.486 E11.47434
G1 X87.636 Y91.745 E11.54543
G0 F9000 X87.971 Y92.075
G1 F3000 X88.452 Y91.642 E11.58969
G1 X88.983 Y91.273 E11.63391
G1 X89.556 Y90.972 E11.67818
G1 X90.161 Y90.743 E11.72242
G1 X90.79 Y90.591 E11.76668
G1 X91.543 Y90.513 E11.81845
G1 X92.03 Y90.501 E11.85177
G1 X94.405 Y90.501 E12.0142
G1 X95.133 Y90.511 E12.06399
G1 X97.571 Y90.515 E12.23073
G1 X98.829 Y90.501 E12.31677
G1 X104.307 Y90.501 E12.69141
G1 X105.033 Y90.511 E12.74107
G1 X105.943 Y90.548 E12.80336
G1 X108.686 Y90.626 E12.99103
G1 X111.353 Y90.626 E13.17343
G1 X114.221 Y90.542 E13.36966
G1 X114.783 Y90.518 E13.40813
G1 X115.8 Y90.501 E13.4777
G1 X121.078 Y90.502 E13.83866
G1 X121.733 Y90.511 E13.88346
G1 X124.171 Y90.515 E14.0502
G1 X125.429 Y90.501 E14.13624
G1 X127.668 Y90.502 E14.28937
G1 X128.368 Y90.512 E14.33725
G1 X129.013 Y90.561 E14.38149
G1 X129.647 Y90.689 E14.42572
G1 X130.26 Y90.895 E14.46995
G1 X130.843 Y91.174 E14.51415
G1 X131.388 Y91.524 E14.55845
G1 X131.885 Y91.938 E14.60269
G1 X132.327 Y92.41 E14.64691
G1 X132.708 Y92.932 E14.69111
G1 X133.061 Y93.584 E14.74182
G1 X133.404 Y94.343 E14.79878
G1 X133.843 Y95.351 E14.87398
G1 X135.001 Y97.821 E15.06055
G1 X136.426 Y100.643 E15.27676
G1 X136.682 Y101.237 E15.32099
G1 X136.862 Y101.859 E15.36528
G1 X136.964 Y102.497 E15.40946
G1 X136.987 Y102.924 E15.43871
G1 X136.999 Y103.744 E15.4948
G1 X136.998 Y116.368 E16.35817
G1 X136.988 Y117.07 E16.40618
G1 X136.939 Y117.715 E16.45042
G1 X136.811 Y118.349 E16.49466
G1 X136.605 Y118.962 E16.53888
G1 X136.326 Y119.545 E16.58309
G1 X135.976 Y120.089 E16.62733
G1 X135.686 Y120.451 E16.65905
G1 X134.863 Y121.387 E16.74429
G1 X133.075 Y123.479 E16.9325
G1 X131.387 Y125.569 E17.11624
G1 X130.846 Y126.287 E17.17772
G1 X129.949 Y127.446 E17.27795
G1 X129.523 Y127.933 E17.3222
G1 X129.041 Y128.364 E17.36642
G1 X128.509 Y128.733 E17.4107
G1 X127.936 Y129.033 E17.45494
G1 X127.331 Y129.26 E17.49913
G1 X126.702 Y129.411 E17.54337
G1 X125.889 Y129.488 E17.59922
G1 X125.217 Y129.499 E17.64519
G1 X121.47 Y129.498 E17.90145
G1 X120.289 Y129.481 E17.98223
G1 X117.358 Y129.482 E18.18268
G1 X116.219 Y129.499 E18.26059
G1 X103.657 Y129.498 E19.11972
G1 X102.745 Y129.485 E19.1821
G1 X100.243 Y129.481 E19.35321
G1 X98.66 Y129.499 E19.46148
G1 X94.834 Y129.498 E19.72315
G1 X94.131 Y129.488 E19.77123
G1 X93.486 Y129.439 E19.81547
G1 X92.852 Y129.311 E19.8597
G1 X92.238 Y129.106 E19.90397
G1 X91.463 Y128.713 E19.9634
G1 X90.699 Y128.243 E20.02475
G1 X88.334 Y126.834 E20.21302
G1 X85.699 Y125.367 E20.41928
G1 X85.155 Y125.018 E20.46348
G1 X84.657 Y124.604 E20.50777
G1 X84.215 Y124.133 E20.55195
G1 X83.834 Y123.61 E20.5962
G1 X83.52 Y123.044 E20.64047
G1 X83.278 Y122.444 E20.68472
G1 X83.113 Y121.819 E20.72893
G1 X83.014 Y120.955 E20.7884
G1 X83.001 Y120.47 E20.82158
G1 X83.002 Y115.664 E21.15027
G1 X83.016 Y114.817 E21.20821
G1 X83.048 Y114.057 E21.26023
G1 X83.126 Y111.314 E21.4479
G1 X83.126 Y108.646 E21.63037
G1 X83.042 Y105.767 E21.82735
G1 X83.018 Y105.218 E21.86494
G1 X83.001 Y104.201 E21.9345
G1 X83.002 Y99.833 E22.23323
G1 X83.012 Y99.13 E22.28132
G1 X83.061 Y98.485 E22.32555
G1 X83.189 Y97.851 E22.36979
G1 X83.394 Y97.237 E22.41406
G1 X83.674 Y96.654 E22.45829
G1 X84.023 Y96.11 E22.5025
G1 X84.573 Y95.474 E22.56
G1 X86.736 Y93.344 E22.76762
G1 X87.242 Y92.816 E22.81763
G1 X87.971 Y92.075 E22.88872
G1 F2700 E22.08872
;MESH:Body_Fixed.stl
G0 F9000 X87.583 Y98.547
G0 X87.577 Y105.323
G0 X88.236 Y105.704
G0 X91.106 Y104.03
G0 X91.816 Y102.687
;TYPE:WALL-OUTER
G1 F2700 E22.88872
G1 F3000 X91.931 Y102.762 E22.89811
G1 X91.981 Y102.868 E22.90613
G1 X91.984 Y117.11 E23.88015
G1 X91.923 Y117.247 E23.89041
G1 X91.842 Y117.304 E23.89718
G1 X91.685 Y117.322 E23.90799
G1 X88.471 Y115.466 E24.16182
G1 X88.471 Y120.565 E24.51055
G1 X95.151 Y120.566 E24.9674
G1 X95.268 Y120.61 E24.97595
G1 X95.355 Y120.737 E24.98648
G1 X95.363 Y120.821 E24.99225
G1 X94.508 Y124.029 E25.2193
G1 X98.892 Y124.029 E25.51913
G1 X98.037 Y120.821 E25.74619
G1 X98.045 Y120.737 E25.75196
G1 X98.132 Y120.61 E25.76249
G1 X98.236 Y120.567 E25.77018
G1 X105.019 Y120.565 E26.23408
G1 X105.163 Y120.63 E26.24489
G1 X105.235 Y120.797 E26.25732
G1 X105.204 Y120.918 E26.26587
G1 X103.409 Y124.028 E26.51145
G1 X116.591 Y124.028 E27.41298
G1 X114.796 Y120.918 E27.65856
G1 X114.779 Y120.717 E27.67236
G1 X114.872 Y120.602 E27.68247
G1 X114.963 Y120.567 E27.68914
G1 X121.758 Y120.566 E28.15386
G1 X121.867 Y120.609 E28.16187
G1 X121.955 Y120.736 E28.17244
G1 X121.963 Y120.821 E28.17828
G1 X121.108 Y124.029 E28.40534
G1 X125.492 Y124.029 E28.70516
G1 X124.637 Y120.821 E28.93222
G1 X124.645 Y120.736 E28.93806
G1 X124.733 Y120.609 E28.94863
G1 X124.831 Y120.568 E28.95589
G1 X128.065 Y120.565 E29.17707
G1 X128.066 Y114.97 E29.55972
G1 X128.113 Y114.856 E29.56815
G1 X128.252 Y114.769 E29.57937
G1 X128.375 Y114.771 E29.58778
G1 X131.529 Y116.592 E29.83686
G1 X131.529 Y107 E30.49286
G1 X131.529 Y103.408 E30.73852
G1 X128.375 Y105.229 E30.9876
G1 X128.252 Y105.231 E30.99601
G1 X128.113 Y105.144 E31.00723
G1 X128.067 Y105.035 E31.01532
G1 X128.065 Y95.971 E31.63522
G1 X125.232 Y95.971 E31.82897
G1 X126.097 Y99.209 E32.05819
G1 X126.074 Y99.359 E32.06857
G1 X125.946 Y99.485 E32.08085
G1 X120.711 Y99.484 E32.43888
G1 X120.622 Y99.457 E32.44524
G1 X120.531 Y99.367 E32.45399
G1 X120.5 Y99.229 E32.46366
G1 X121.368 Y95.972 E32.69419
G1 X115.467 Y95.972 E33.09776
G1 X117.314 Y99.172 E33.35045
G1 X117.291 Y99.367 E33.36388
G1 X117.136 Y99.481 E33.37704
G1 X102.886 Y99.484 E34.35162
G1 X102.751 Y99.421 E34.36181
G1 X102.681 Y99.29 E34.37196
G1 X102.686 Y99.172 E34.38004
G1 X104.533 Y95.971 E34.63279
G1 X98.632 Y95.971 E35.03637
G1 X99.5 Y99.229 E35.26696
G1 X99.466 Y99.373 E35.27708
G1 X99.337 Y99.484 E35.28872
G1 X94.086 Y99.485 E35.64784
G1 X93.942 Y99.386 E35.65979
G1 X93.892 Y99.244 E35.67008
G1 X94.768 Y95.972 E35.90174
G1 X91.936 Y95.972 E36.09543
G1 X91.934 Y99.226 E36.31797
G1 X91.887 Y99.344 E36.32666
G1 X91.7 Y99.436 E36.34091
G1 X88.472 Y99.436 E36.56168
G1 X88.472 Y104.533 E36.91027
G1 X91.683 Y102.68 E37.16381
G1 X91.816 Y102.687 E37.17292
G1 F2700 E36.37292
G0 F9000 X91.106 Y104.03
G0 X88.236 Y105.704
G0 X87.577 Y105.323
G0 X87.583 Y98.547
G0 X91.047 Y95.083
G0 X95.921 Y95.087
G0 X98.419 Y98.601
G0 X99.816 Y99.586
;TYPE:SKIN
G1 F2700 E37.17292
G1 F3000 X99.538 Y99.822 E37.19786
G1 X99.333 Y99.881 E37.21245
G1 X94.004 Y99.879 E37.57691
G1 X93.772 Y99.772 E37.59438
G1 X93.602 Y99.599 E37.61097
G1 X93.479 Y99.243 E37.63673
G1 X94.247 Y96.372 E37.83998
G1 X92.336 Y96.372 E37.97068
G1 X92.334 Y99.282 E38.1697
G1 X92.206 Y99.594 E38.19276
G1 X91.874 Y99.834 E38.22078
G1 X88.871 Y99.835 E38.42616
G1 X88.871 Y103.841 E38.70013
G1 X91.459 Y102.35 E38.9044
G1 X91.643 Y102.288 E38.91768
G1 X91.959 Y102.312 E38.93935
G1 X92.238 Y102.496 E38.96221
G1 X92.384 Y102.807 E38.98571
G1 X92.382 Y117.175 E39.96835
G1 X92.227 Y117.522 E39.99434
G1 X91.942 Y117.687 E40.01687
G1 X91.686 Y117.716 E40.03449
G1 X91.42 Y117.633 E40.05354
G1 X88.87 Y116.16 E40.25495
G1 X88.87 Y120.166 E40.52892
G1 X95.243 Y120.166 E40.96478
G1 X95.342 Y120.195 E40.97183
G1 X95.605 Y120.382 E40.9939
G1 X95.722 Y120.588 E41.01011
G1 X95.762 Y120.877 E41.03006
G1 X95.029 Y123.63 E41.2249
G1 X98.37 Y123.63 E41.45339
G1 X97.638 Y120.877 E41.64822
G1 X97.678 Y120.588 E41.66817
G1 X97.795 Y120.382 E41.68437
G1 X98.091 Y120.168 E41.70935
G1 X105.072 Y120.167 E42.18679
G1 X105.383 Y120.286 E42.20956
G1 X105.592 Y120.554 E42.23281
G1 X105.633 Y120.796 E42.24959
G1 X105.564 Y121.095 E42.27058
G1 X104.102 Y123.628 E42.4706
G1 X115.898 Y123.629 E43.27734
G1 X114.377 Y120.994 E43.48542
G1 X114.379 Y120.662 E43.50813
G1 X114.512 Y120.386 E43.52908
G1 X114.704 Y120.237 E43.5457
G1 X114.93 Y120.17 E43.56182
G1 X121.834 Y120.17 E44.034
G1 X122.126 Y120.297 E44.05577
G1 X122.319 Y120.58 E44.0792
G1 X122.362 Y120.877 E44.09972
G1 X121.629 Y123.63 E44.29456
G1 X124.97 Y123.63 E44.52306
G1 X124.238 Y120.877 E44.71788
G1 X124.264 Y120.619 E44.73562
G1 X124.389 Y120.381 E44.754
G1 X124.697 Y120.169 E44.77957
G1 X127.666 Y120.166 E44.98263
G1 X127.667 Y114.904 E45.3425
G1 X127.78 Y114.632 E45.36265
G1 X128.002 Y114.438 E45.38281
G1 X128.17 Y114.379 E45.39499
G1 X128.493 Y114.377 E45.41708
G1 X131.13 Y115.899 E45.62531
G1 X131.13 Y106.992 E46.23447
G1 X131.13 Y104.1 E46.43226
G1 X128.626 Y105.546 E46.63001
G1 X128.305 Y105.64 E46.65289
G1 X127.945 Y105.539 E46.67846
G1 X127.742 Y105.306 E46.69959
G1 X127.672 Y105.095 E46.7148
G1 X127.666 Y96.37 E47.31151
G1 X125.752 Y96.37 E47.44241
G1 X126.496 Y99.158 E47.63976
G1 X126.456 Y99.469 E47.6612
G1 X126.387 Y99.597 E47.67115
G1 X126.2 Y99.778 E47.68895
G1 X125.911 Y99.879 E47.70988
G1 X120.646 Y99.884 E48.06996
G1 X120.408 Y99.794 E48.08736
G1 X120.178 Y99.567 E48.10947
G1 X120.096 Y99.189 E48.13592
G1 X120.847 Y96.372 E48.33531
G1 X116.16 Y96.372 E48.65585
G1 X117.702 Y99.041 E48.86666
G1 X117.719 Y99.352 E48.88797
G1 X117.561 Y99.669 E48.91219
G1 X117.489 Y99.737 E48.91896
G1 X117.163 Y99.883 E48.94339
G1 X102.871 Y99.883 E49.92084
G1 X102.636 Y99.82 E49.93748
G1 X102.388 Y99.608 E49.95979
G1 X102.279 Y99.349 E49.97901
G1 X102.299 Y99.042 E50.00005
G1 X103.84 Y96.37 E50.211
G1 X99.152 Y96.37 E50.53162
G1 X99.905 Y99.193 E50.73144
G1 X99.816 Y99.586 E50.759
G1 F2700 E49.959
G0 F9000 X99.723 Y99.211
G0 X98.419 Y98.601
G0 X95.921 Y95.087
G0 X91.047 Y95.083
G0 X87.583 Y98.547
G0 X87.583 Y121.453
G0 X89.354 Y121.465
G0 X89.354 Y119.93
G1 F2700 E50.759
G1 F3000 X89.104 Y119.679 E50.78323
G0 F9000 X89.104 Y119.015
G1 F3000 X90.019 Y119.93 E50.87173
G0 F9000 X90.684 Y119.93
G1 F3000 X89.104 Y118.35 E51.02454
G0 F9000 X89.104 Y117.685
G1 F3000 X91.349 Y119.93 E51.24168
G0 F9000 X92.013 Y119.93
G1 F3000 X89.104 Y117.021 E51.52304
G0 F9000 X89.601 Y116.853
G1 F3000 X92.678 Y119.93 E51.82064
G0 F9000 X93.343 Y119.93
G1 F3000 X91.177 Y117.765 E52.03009
G0 F9000 X91.991 Y117.914
G1 F3000 X94.007 Y119.93 E52.22508
G0 F9000 X94.672 Y119.93
G1 F3000 X92.389 Y117.647 E52.44589
G0 F9000 X92.616 Y117.21
G1 F3000 X95.369 Y119.962 E52.71211
G0 F9000 X95.957 Y120.551
G1 F3000 X97.795 Y122.388 E52.88983
G0 F9000 X97.553 Y121.481
G1 F3000 X92.616 Y116.545 E53.36729
G0 F9000 X92.616 Y115.88
G1 F3000 X97.418 Y120.681 E53.83169
G0 F9000 X97.614 Y120.213
G1 F3000 X92.616 Y115.215 E54.31509
G0 F9000 X92.616 Y114.551
G1 F3000 X98.025 Y119.959 E54.8382
G0 F9000 X98.665 Y119.935
G1 F3000 X92.616 Y113.886 E55.42326
G0 F9000 X92.616 Y113.221
G1 F3000 X99.33 Y119.935 E56.07263
G0 F9000 X99.994 Y119.934
G1 F3000 X92.616 Y112.557 E56.78618
G0 F9000 X92.617 Y111.893
G1 F3000 X100.658 Y119.934 E57.56391
G0 F9000 X101.322 Y119.933
G1 F3000 X92.617 Y111.228 E58.40585
G0 F9000 X92.617 Y110.563
G1 F3000 X101.987 Y119.933 E59.31212
G0 F9000 X102.651 Y119.933
G1 F3000 X92.617 Y109.899 E60.2826
G0 F9000 X92.617 Y109.234
G1 F3000 X103.316 Y119.933 E61.3174
G0 F9000 X103.98 Y119.932
G1 F3000 X92.617 Y108.569 E62.41643
G0 F9000 X92.617 Y107.905
G1 F3000 X104.644 Y119.932 E63.57968
G0 F9000 X105.421 Y120.044
G1 F3000 X92.618 Y107.241 E64.81798
G0 F9000 X92.618 Y106.576
G1 F3000 X109.434 Y123.392 E66.44442
G0 F9000 X108.769 Y123.392
G1 F3000 X105.718 Y120.341 E66.73951
G0 F9000 X105.805 Y121.092
G1 F3000 X108.105 Y123.392 E66.96197
G0 F9000 X107.44 Y123.392
G1 F3000 X105.581 Y121.533 E67.14177
G0 F9000 X105.338 Y121.955
