;FLAVOR:Marlin
;TIME:1081
;Filament used: 4.14289m
;Layer height: 0.35
;MINX:53.553
;MINY:128.701
;MINZ:0.35
;MAXX:128.052
;MAXY:168.201
;MAXZ:68.777
;Generated with Cura_SteamEngine 5.2.2
M82 ;absolute extrusion mode
SET_GCODE_VARIABLE MACRO=START_PRINT VARIABLE=bed_temp VALUE=60
SET_GCODE_VARIABLE MACRO=START_PRINT VARIABLE=extruder_temp VALUE=205
START_PRINT
G92 E0
G92 E0
G1 F2700 E-0.8
;LAYER_COUNT:196
;LAYER:0
M107
G0 F9000 X58.705 Y129.111 Z0.35
;TYPE:SKIRT
G1 F2700 E0
G1 F3000 X59.349 Y128.9 E0.04931
G1 X60.014 Y128.767 E0.09865
G1 X60.665 Y128.713 E0.14617
G1 X61.202 Y128.701 E0.18525
G1 X120.177 Y128.702 E4.47607
G1 X120.875 Y128.712 E4.52686
G1 X121.551 Y128.761 E4.57617
G1 X122.217 Y128.89 E4.62553
G1 X122.863 Y129.096 E4.67486
G1 X123.48 Y129.377 E4.72419
G1 X124.059 Y129.729 E4.77349
G1 X124.594 Y130.146 E4.82284
G1 X125.075 Y130.624 E4.87218
G1 X125.497 Y131.154 E4.92147
G1 X125.854 Y131.731 E4.97084
G1 X126.14 Y132.345 E5.02012
G1 X126.352 Y132.989 E5.06945
G1 X126.486 Y133.654 E5.1188
G1 X126.541 Y134.299 E5.1659
G1 X126.552 Y134.781 E5.20098
G1 X126.551 Y143.178 E5.81191
G1 X126.589 Y145.825 E6.00452
G1 X126.701 Y148.494 E6.19888
G1 X126.891 Y151.178 E6.39465
G1 X127.151 Y153.8 E6.58635
G1 X127.493 Y156.471 E6.78227
G1 X127.974 Y159.564 E7.01001
G1 X128.038 Y160.239 E7.05934
G1 X128.05 Y160.657 E7.08977
G1 X128.052 Y161.705 E7.16601
G1 X128.041 Y162.521 E7.22539
G1 X127.992 Y163.197 E7.2747
G1 X127.864 Y163.863 E7.32404
G1 X127.658 Y164.509 E7.37338
G1 X127.377 Y165.126 E7.4227
G1 X127.026 Y165.706 E7.47203
G1 X126.609 Y166.24 E7.52132
G1 X126.132 Y166.722 E7.57066
G1 X125.601 Y167.144 E7.62001
G1 X125.025 Y167.501 E7.66931
G1 X124.41 Y167.788 E7.71869
G1 X123.767 Y168 E7.76795
G1 X123.102 Y168.135 E7.81732
G1 X122.454 Y168.19 E7.86464
G1 X121.972 Y168.201 E7.89972
G1 X59.935 Y168.201 E12.41331
G1 X59.237 Y168.192 E12.4641
G1 X58.561 Y168.143 E12.51341
G1 X57.895 Y168.015 E12.56276
G1 X57.249 Y167.809 E12.61209
G1 X56.631 Y167.529 E12.66145
G1 X56.051 Y167.179 E12.71074
G1 X55.516 Y166.762 E12.76009
G1 X55.034 Y166.286 E12.80938
G1 X54.612 Y165.755 E12.85873
G1 X54.254 Y165.179 E12.90807
G1 X53.967 Y164.565 E12.95738
G1 X53.755 Y163.921 E13.00671
G1 X53.619 Y163.257 E13.05602
G1 X53.563 Y162.594 E13.10443
G1 X53.553 Y162.14 E13.13747
G1 X53.554 Y160.955 E13.22369
G1 X53.566 Y160.28 E13.27281
G1 X53.639 Y159.461 E13.33263
G1 X53.892 Y157.903 E13.44747
G1 X54.279 Y155.206 E13.6457
G1 X54.578 Y152.602 E13.83641
G1 X54.811 Y149.905 E14.03336
G1 X54.963 Y147.293 E14.22372
G1 X55.043 Y144.568 E14.42207
G1 X55.054 Y143.082 E14.53019
G1 X55.052 Y135.09 E15.11166
G1 X55.063 Y134.369 E15.16412
G1 X55.113 Y133.693 E15.21344
G1 X55.243 Y133.028 E15.26274
G1 X55.451 Y132.383 E15.31205
G1 X55.733 Y131.766 E15.36141
G1 X56.085 Y131.187 E15.41071
G1 X56.503 Y130.653 E15.46005
G1 X56.981 Y130.173 E15.50933
G1 X57.513 Y129.752 E15.55869
G1 X58.09 Y129.396 E15.60802
G1 X58.705 Y129.111 E15.65734
G0 F9000 X59.159 Y129.478
G1 F3000 X59.786 Y129.312 E15.70453
G1 X60.677 Y129.213 E15.76975
G1 X61.202 Y129.201 E15.80796
G1 X120.17 Y129.202 E20.09827
G1 X120.868 Y129.212 E20.14906
G1 X121.514 Y129.261 E20.19619
G1 X122.149 Y129.389 E20.24332
G1 X122.763 Y129.595 E20.29044
G1 X123.348 Y129.874 E20.3376
G1 X123.893 Y130.224 E20.38472
G1 X124.391 Y130.638 E20.43184
G1 X124.835 Y131.11 E20.47899
G1 X125.216 Y131.633 E20.52606
G1 X125.531 Y132.2 E20.57326
G1 X125.773 Y132.8 E20.62033
G1 X125.94 Y133.426 E20.66746
G1 X126.041 Y134.313 E20.73242
G1 X126.052 Y134.781 E20.76648
G1 X126.051 Y143.178 E21.37741
G1 X126.089 Y145.853 E21.57206
G1 X126.201 Y148.517 E21.76605
G1 X126.393 Y151.224 E21.9635
G1 X126.653 Y153.846 E22.1552
G1 X126.997 Y156.536 E22.35251
G1 X127.48 Y159.641 E22.58114
G1 X127.539 Y160.257 E22.62616
G1 X127.55 Y160.658 E22.65535
G1 X127.552 Y161.788 E22.73756
G1 X127.542 Y162.514 E22.79039
G1 X127.493 Y163.16 E22.83752
G1 X127.365 Y163.795 E22.88465
G1 X127.159 Y164.41 E22.93184
G1 X126.88 Y164.994 E22.97893
G1 X126.531 Y165.54 E23.02608
G1 X126.117 Y166.038 E23.0732
G1 X125.645 Y166.482 E23.12034
G1 X125.122 Y166.864 E23.16746
G1 X124.556 Y167.179 E23.21459
G1 X123.955 Y167.422 E23.26176
G1 X123.33 Y167.588 E23.30881
G1 X122.44 Y167.69 E23.37398
G1 X121.972 Y167.701 E23.40804
G1 X59.941 Y167.701 E27.9212
G1 X59.243 Y167.692 E27.97199
G1 X58.597 Y167.643 E28.01913
G1 X57.962 Y167.516 E28.06624
G1 X57.348 Y167.311 E28.11334
G1 X56.763 Y167.032 E28.1605
G1 X56.217 Y166.684 E28.2076
G1 X55.718 Y166.27 E28.25478
G1 X55.274 Y165.799 E28.30187
G1 X54.892 Y165.276 E28.34899
G1 X54.576 Y164.71 E28.39616
G1 X54.333 Y164.11 E28.44325
G1 X54.165 Y163.484 E28.49041
G1 X54.063 Y162.581 E28.55653
G1 X54.053 Y162.14 E28.58862
G1 X54.054 Y160.964 E28.67418
G1 X54.066 Y160.289 E28.7233
G1 X54.133 Y159.541 E28.77794
G1 X54.383 Y157.999 E28.8916
G1 X54.771 Y155.298 E29.09013
G1 X55.077 Y152.632 E29.28537
G1 X55.31 Y149.941 E29.48189
G1 X55.463 Y147.301 E29.67429
G1 X55.542 Y144.587 E29.87184
G1 X55.554 Y143.086 E29.98105
G1 X55.552 Y135.09 E30.56281
G1 X55.563 Y134.377 E30.61469
G1 X55.613 Y133.732 E30.66176
G1 X55.742 Y133.097 E30.70891
G1 X55.949 Y132.483 E30.75605
G1 X56.23 Y131.899 E30.8032
G1 X56.58 Y131.354 E30.85033
G1 X56.995 Y130.857 E30.89743
G1 X57.468 Y130.414 E30.94458
G1 X57.991 Y130.033 E30.99166
G1 X58.558 Y129.719 E31.03882
G1 X59.159 Y129.478 E31.08593
G1 F2700 E30.28593
;MESH:StackableBox.stl
G0 F9000 X60.142 Y156.876
G0 X60.242 Y157.391
G0 X60.44 Y157.875
G0 X60.674 Y158.228
G0 X61.259 Y158.812
G0 X63.002 Y159.601
;TYPE:WALL-OUTER
G1 F2700 E31.08593
G1 F3000 X62.846 Y159.698 E31.0993
G1 X60.274 Y159.703 E31.28643
G1 X60.018 Y159.761 E31.30552
G1 X59.81 Y159.889 E31.32329
G1 X59.653 Y160.081 E31.34134
G1 X59.554 Y160.412 E31.36647
G1 X59.553 Y162.201 E31.49664
G1 X122.052 Y162.201 E36.04385
G1 X122.052 Y160.537 E36.16491
G1 X122.052 Y160.468 E36.16993
G1 X122.01 Y160.217 E36.18845
G1 X121.891 Y159.992 E36.20697
G1 X121.762 Y159.863 E36.22024
G1 X121.54 Y159.743 E36.2386
G1 X121.341 Y159.703 E36.25337
G1 X118.801 Y159.702 E36.43817
G1 X118.684 Y159.672 E36.44696
G1 X118.552 Y159.503 E36.46256
G1 X118.552 Y158.388 E36.54369
G1 X118.637 Y158.262 E36.55474
G1 X118.742 Y158.201 E36.56358
G1 X119.696 Y158.2 E36.63299
G1 X120.197 Y157.696 E36.68469
G1 X120.43 Y157.289 E36.71881
G1 X120.517 Y156.966 E36.74315
G1 X120.55 Y156.706 E36.76222
G1 X120.551 Y134.702 E38.36316
G1 X61.053 Y134.701 E42.69202
G1 X61.056 Y156.789 E44.29907
G1 X61.124 Y157.13 E44.32437
G1 X61.251 Y157.443 E44.34895
G1 X61.442 Y157.729 E44.37397
G1 X61.908 Y158.201 E44.42223
G1 X62.802 Y158.201 E44.48727
G1 X62.935 Y158.238 E44.49731
G1 X63.048 Y158.406 E44.51204
G1 X63.052 Y159.504 E44.59193
G1 X63.002 Y159.601 E44.59987
G0 F9000 X63.306 Y159.895
;TYPE:SKIN
G1 F3000 X63.082 Y160.064 E44.62029
G1 X62.901 Y160.123 E44.63414
G1 X60.324 Y160.128 E44.82163
G1 X60.178 Y160.162 E44.83254
G1 X60.03 Y160.294 E44.84697
G1 X59.979 Y160.467 E44.86009
G1 X59.978 Y161.776 E44.95533
G1 X121.627 Y161.776 E49.4407
G1 X121.627 Y160.536 E49.53091
G1 X121.556 Y160.271 E49.55087
G1 X121.352 Y160.128 E49.569
G1 X118.81 Y160.128 E49.75395
G1 X118.542 Y160.068 E49.77393
G1 X118.299 Y159.897 E49.79555
G1 X118.127 Y159.604 E49.82027
G1 X118.127 Y158.352 E49.91136
G1 X118.243 Y158.071 E49.93348
G1 X118.459 Y157.862 E49.95534
G1 X118.809 Y157.776 E49.98157
G1 X119.518 Y157.774 E50.03315
G1 X119.854 Y157.437 E50.06777
G1 X120.034 Y157.121 E50.09423
G1 X120.125 Y156.786 E50.11949
G1 X120.125 Y135.127 E51.69532
G1 X61.479 Y135.127 E55.96221
G1 X61.481 Y156.748 E57.53527
G1 X61.535 Y157.008 E57.55459
G1 X61.629 Y157.241 E57.57287
G1 X61.773 Y157.457 E57.59176
G1 X62.088 Y157.776 E57.62438
G1 X62.995 Y157.776 E57.69037
G1 X63.35 Y158.045 E57.72278
G1 X63.472 Y158.341 E57.74607
G1 X63.477 Y159.606 E57.83811
G1 X63.306 Y159.895 E57.86254
G1 F2700 E57.06254
G0 F9000 X63.274 Y159.556
G0 X61.259 Y158.812
G0 X60.17 Y158.789
G0 X59.67 Y158.901
G0 X59.204 Y159.188
G0 X58.87 Y159.593
G0 X58.718 Y159.922
G0 X58.64 Y160.32
G0 X58.648 Y163.104
G0 X60.408 Y163.116
G0 X60.408 Y161.525
G1 F2700 E57.86254
G1 F3000 X60.227 Y161.344 E57.88116
G0 F9000 X60.228 Y160.637
G1 F3000 X61.115 Y161.525 E57.97248
G0 F9000 X61.823 Y161.525
G1 F3000 X60.675 Y160.377 E58.0906
G0 F9000 X61.381 Y160.376
G1 F3000 X62.53 Y161.525 E58.20883
G0 F9000 X63.237 Y161.525
G1 F3000 X62.088 Y160.376 E58.32705
G0 F9000 X62.795 Y160.376
G1 F3000 X63.944 Y161.525 E58.44528
G0 F9000 X64.651 Y161.525
G1 F3000 X63.317 Y160.191 E58.58254
G0 F9000 X63.643 Y159.809
G1 F3000 X65.358 Y161.525 E58.75905
G0 F9000 X66.065 Y161.525
G1 F3000 X63.726 Y159.185 E58.99977
G0 F9000 X63.726 Y158.478
G1 F3000 X66.772 Y161.525 E59.31323
G0 F9000 X67.479 Y161.525
G1 F3000 X61.73 Y155.775 E59.90482
G0 F9000 X61.73 Y156.482
G1 F3000 X62.772 Y157.525 E60.01208
G1 F2700 E59.21208
G0 F9000 X62.772 Y157.951
G0 X61.306 Y155.068
G0 X61.73 Y155.068
G1 F2700 E60.01208
G1 F3000 X68.187 Y161.525 E60.67647
G0 F9000 X68.894 Y161.525
G1 F3000 X61.73 Y154.361 E61.41359
G0 F9000 X61.73 Y153.654
G1 F3000 X69.601 Y161.525 E62.22347
G0 F9000 X70.308 Y161.525
G1 F3000 X61.73 Y152.947 E63.10608
G0 F9000 X61.73 Y152.24
G1 F3000 X71.015 Y161.525 E64.06145
G0 F9000 X71.722 Y161.525
G1 F3000 X61.73 Y151.532 E65.08961
G0 F9000 X61.729 Y150.825
G1 F3000 X72.429 Y161.525 E66.19057
G0 F9000 X73.136 Y161.525
G1 F3000 X61.729 Y150.118 E67.36427
G0 F9000 X61.729 Y149.41
G1 F3000 X73.843 Y161.525 E68.61077
G0 F9000 X74.55 Y161.525
G1 F3000 X61.729 Y148.703 E69.93002
G0 F9000 X61.729 Y147.996
G1 F3000 X75.258 Y161.525 E71.32206
G0 F9000 X75.965 Y161.525
G1 F3000 X61.729 Y147.289 E72.78685
G0 F9000 X61.729 Y146.582
G1 F3000 X76.672 Y161.525 E74.32439
G0 F9000 X77.379 Y161.525
G1 F3000 X61.729 Y145.874 E75.93472
G0 F9000 X61.729 Y145.167
G1 F3000 X78.086 Y161.525 E77.61779
G0 F9000 X78.793 Y161.525
G1 F3000 X61.729 Y144.46 E79.37362
G0 F9000 X61.729 Y143.753
G1 F3000 X79.5 Y161.525 E81.20219
G0 F9000 X80.207 Y161.525
G1 F3000 X61.729 Y143.046 E83.1035
G0 F9000 X61.729 Y142.339
G1 F3000 X80.914 Y161.525 E85.07756
G0 F9000 X81.622 Y161.525
G1 F3000 X61.729 Y141.632 E87.12441
G0 F9000 X61.729 Y140.924
G1 F3000 X82.329 Y161.525 E89.24407
G0 F9000 X83.036 Y161.525
G1 F3000 X61.728 Y140.217 E91.43652
G0 F9000 X61.728 Y139.51
G1 F3000 X83.743 Y161.525 E93.70171
G0 F9000 X84.45 Y161.525
G1 F3000 X61.728 Y138.802 E96.03971
G0 F9000 X61.728 Y138.095
G1 F3000 X85.157 Y161.525 E98.45045
G0 F9000 X85.864 Y161.525
G1 F3000 X61.728 Y137.388 E100.93393
G0 F9000 X61.728 Y136.681
G1 F3000 X86.571 Y161.525 E103.49016
G0 F9000 X87.278 Y161.525
G1 F3000 X61.728 Y135.974 E106.11913
G0 F9000 X61.837 Y135.376
G1 F3000 X87.986 Y161.525 E108.80969
G0 F9000 X88.693 Y161.525
G1 F3000 X62.544 Y135.376 E111.50025
G0 F9000 X63.251 Y135.376
G1 F3000 X89.4 Y161.525 E114.1908
G0 F9000 X90.107 Y161.525
G1 F3000 X63.958 Y135.376 E116.88136
G0 F9000 X64.665 Y135.376
G1 F3000 X90.814 Y161.525 E119.57192
G0 F9000 X91.521 Y161.525
G1 F3000 X65.372 Y135.376 E122.26247
G0 F9000 X66.079 Y135.376
G1 F3000 X92.228 Y161.525 E124.95303
G0 F9000 X92.935 Y161.525
G1 F3000 X66.786 Y135.376 E127.64359
G0 F9000 X67.494 Y135.376
G1 F3000 X93.642 Y161.525 E130.33409
G0 F9000 X94.349 Y161.525
G1 F3000 X68.201 Y135.376 E133.0246
G0 F9000 X68.908 Y135.376
G1 F3000 X95.057 Y161.525 E135.71515
G0 F9000 X95.764 Y161.525
G1 F3000 X69.615 Y135.376 E138.40571
G0 F9000 X70.322 Y135.376
G1 F3000 X96.471 Y161.525 E141.09627
G0 F9000 X97.178 Y161.525
G1 F3000 X71.029 Y135.376 E143.78683
G0 F9000 X71.736 Y135.376
G1 F3000 X97.885 Y161.525 E146.47738
G0 F9000 X98.592 Y161.525
G1 F3000 X72.443 Y135.376 E149.16794
G0 F9000 X73.15 Y135.376
G1 F3000 X99.299 Y161.525 E151.8585
G0 F9000 X100.006 Y161.525
G1 F3000 X73.858 Y135.376 E154.549
G0 F9000 X74.565 Y135.376
G1 F3000 X100.713 Y161.525 E157.23951
G0 F9000 X101.421 Y161.525
G1 F3000 X75.272 Y135.376 E159.93006
G0 F9000 X75.979 Y135.376
G1 F3000 X102.128 Y161.525 E162.62062
G0 F9000 X102.835 Y161.525
G1 F3000 X76.686 Y135.376 E165.31118
G0 F9000 X77.393 Y135.376
G1 F3000 X103.542 Y161.525 E168.00173
G0 F9000 X104.249 Y161.525
G1 F3000 X78.1 Y135.376 E170.69229
G0 F9000 X78.807 Y135.376
G1 F3000 X104.956 Y161.525 E173.38285
G0 F9000 X105.663 Y161.525
G1 F3000 X79.514 Y135.376 E176.0734
G0 F9000 X80.221 Y135.376
G1 F3000 X106.37 Y161.525 E178.76396
G0 F9000 X107.077 Y161.525
G1 F3000 X80.929 Y135.376 E181.45446
G0 F9000 X81.636 Y135.376
G1 F3000 X107.784 Y161.525 E184.14497
G0 F9000 X108.492 Y161.525
G1 F3000 X82.343 Y135.376 E186.83553
G0 F9000 X83.05 Y135.376
G1 F3000 X109.199 Y161.525 E189.52608
G0 F9000 X109.906 Y161.525
G1 F3000 X83.757 Y135.376 E192.21664
G0 F9000 X84.464 Y135.376
G1 F3000 X110.613 Y161.525 E194.9072
G0 F9000 X111.32 Y161.525
G1 F3000 X85.171 Y135.376 E197.59775
G0 F9000 X85.878 Y135.376
G1 F3000 X112.027 Y161.525 E200.28831
G0 F9000 X112.734 Y161.525
G1 F3000 X86.585 Y135.376 E202.97887
G0 F9000 X87.293 Y135.376
G1 F3000 X113.441 Y161.525 E205.66937
G0 F9000 X114.148 Y161.525
G1 F3000 X88 Y135.376 E208.35988
G0 F9000 X88.707 Y135.376
G1 F3000 X114.856 Y161.525 E211.05043
G0 F9000 X115.563 Y161.525
G1 F3000 X89.414 Y135.376 E213.74099
G0 F9000 X90.121 Y135.376
G1 F3000 X116.27 Y161.525 E216.43155
G0 F9000 X116.977 Y161.525
G1 F3000 X90.828 Y135.376 E219.1221
G0 F9000 X91.535 Y135.376
G1 F3000 X117.684 Y161.525 E221.81266
G0 F9000 X118.391 Y161.525
G1 F3000 X92.242 Y135.376 E224.50322
G0 F9000 X92.949 Y135.376
G1 F3000 X119.098 Y161.525 E227.19377
G0 F9000 X119.805 Y161.525
G1 F3000 X118.619 Y160.339 E227.31581
G0 F9000 X119.365 Y160.378
G1 F3000 X120.512 Y161.525 E227.43383
G0 F9000 X121.22 Y161.525
G1 F3000 X120.073 Y160.378 E227.55184
G0 F9000 X120.781 Y160.379
G1 F3000 X121.377 Y160.974 E227.61312
G1 F2700 E226.81312
G0 F9000 X122.967 Y160.974
G0 X122.966 Y160.396
G0 X122.888 Y159.921
G0 X122.633 Y159.438
G0 X122.314 Y159.121
G0 X121.853 Y158.872
G0 X120.345 Y158.812
G0 X117.895 Y159.615
G1 F2700 E227.61312
G1 F3000 X93.657 Y135.376 E230.1071
G0 F9000 X94.364 Y135.376
G1 F3000 X117.876 Y158.889 E232.52637
G0 F9000 X117.908 Y158.213
G1 F3000 X95.071 Y135.376 E234.87615
G0 F9000 X95.778 Y135.376
G1 F3000 X118.18 Y157.778 E237.18116
G0 F9000 X118.666 Y157.557
G1 F3000 X96.485 Y135.376 E239.46344
G0 F9000 X97.192 Y135.376
G1 F3000 X119.339 Y157.522 E241.74217
G0 F9000 X119.709 Y157.186
G1 F3000 X97.899 Y135.376 E243.98627
G0 F9000 X98.606 Y135.376
G1 F3000 X119.875 Y156.644 E246.17466
G0 F9000 X119.875 Y155.937
G1 F3000 X99.313 Y135.376 E248.2903
G0 F9000 X100.02 Y135.376
G1 F3000 X119.875 Y155.23 E250.33319
G0 F9000 X119.875 Y154.523
G1 F3000 X100.728 Y135.376 E252.30329
G0 F9000 X101.435 Y135.376
G1 F3000 X119.875 Y153.816 E254.20064
G0 F9000 X119.875 Y153.109
G1 F3000 X102.142 Y135.376 E256.02525
G0 F9000 X102.849 Y135.376
G1 F3000 X119.875 Y152.402 E257.77711
G0 F9000 X119.875 Y151.694
G1 F3000 X103.556 Y135.376 E259.45617
G0 F9000 X104.263 Y135.376
G1 F3000 X119.875 Y150.987 E261.06249
G0 F9000 X119.875 Y150.28
G1 F3000 X104.97 Y135.376 E262.59606
G0 F9000 X105.677 Y135.376
G1 F3000 X119.875 Y149.573 E264.05689
G0 F9000 X119.875 Y148.866
G1 F3000 X106.384 Y135.376 E265.44497
G0 F9000 X107.092 Y135.376
G1 F3000 X119.875 Y148.159 E266.76026
G0 F9000 X119.875 Y147.452
G1 F3000 X107.799 Y135.376 E268.0028
G0 F9000 X108.506 Y135.376
G1 F3000 X119.875 Y146.745 E269.17259
G0 F9000 X119.875 Y146.038
G1 F3000 X109.213 Y135.376 E270.26964
G0 F9000 X109.92 Y135.376
G1 F3000 X119.875 Y145.33 E271.29389
G0 F9000 X119.875 Y144.623
