;FLAVOR:Marlin
;TIME:1489
;Filament used: 2.65253m
;Layer height: 0.35
;MINX:82.531
;MINY:90.031
;MINZ:0.35
;MAXX:137.469
;MAXY:129.969
;MAXZ:68.095
;Generated with Cura_SteamEngine 5.2.2
M82 ;absolute extrusion mode
G92 E0 ; Reset Extruder
G28 ; Home all axes
G1 Z10.0 F3000 ; Move Z Axis up little to prevent scratching of Heat Bed
G1 X0 Y0

M104 S205
M190 S60
M109 S205

PREP_START_PRINT
G92 E0
G92 E0
G1 F2700 E-0.8
;LAYER_COUNT:194
;LAYER:0
M107
G1 F300 Z0.55
G0 F9000 X87.636 Y91.745 Z0.55
;TYPE:SKIRT
G1 F300 Z0.35
G1 F2700 E0
G1 F3000 X88.137 Y91.293 E0.03944
G1 X88.689 Y90.902 E0.07897
G1 X89.282 Y90.58 E0.11841
G1 X89.909 Y90.33 E0.15785
G1 X90.562 Y90.156 E0.19735
G1 X91.529 Y90.044 E0.25424
G1 X92.03 Y90.031 E0.28353
G1 X94.405 Y90.031 E0.42233
G1 X95.134 Y90.041 E0.46494
G1 X97.567 Y90.045 E0.60713
G1 X98.824 Y90.031 E0.6806
G1 X104.314 Y90.032 E1.00145
G1 X105.204 Y90.046 E1.05347
G1 X105.977 Y90.079 E1.09869
G1 X108.699 Y90.156 E1.25784
G1 X111.34 Y90.156 E1.41219
G1 X114.183 Y90.073 E1.57841
G1 X114.762 Y90.048 E1.61228
G1 X115.8 Y90.031 E1.67295
G1 X121.084 Y90.032 E1.98176
G1 X121.734 Y90.041 E2.01976
G1 X124.167 Y90.045 E2.16195
G1 X125.424 Y90.031 E2.23541
G1 X127.674 Y90.032 E2.36691
G1 X128.374 Y90.042 E2.40783
G1 X129.048 Y90.091 E2.44732
G1 X129.711 Y90.22 E2.48679
G1 X130.354 Y90.426 E2.52625
G1 X130.968 Y90.707 E2.56572
G1 X131.545 Y91.058 E2.60519
G1 X132.076 Y91.475 E2.64465
G1 X132.554 Y91.952 E2.68411
G1 X132.972 Y92.482 E2.72356
G1 X133.325 Y93.058 E2.76304
G1 X133.489 Y93.39 E2.78469
G1 X133.801 Y94.078 E2.82884
G1 X134.279 Y95.175 E2.89877
G1 X135.406 Y97.578 E3.05389
G1 X136.846 Y100.431 E3.24066
G1 X137.114 Y101.051 E3.28013
G1 X137.307 Y101.698 E3.31959
G1 X137.422 Y102.363 E3.35903
G1 X137.457 Y102.917 E3.39148
G1 X137.469 Y103.744 E3.43981
G1 X137.468 Y116.374 E4.17795
G1 X137.458 Y117.076 E4.21898
G1 X137.409 Y117.75 E4.25847
G1 X137.28 Y118.413 E4.29795
G1 X137.074 Y119.056 E4.33741
G1 X136.793 Y119.67 E4.37687
G1 X136.442 Y120.246 E4.41629
G1 X136.039 Y120.761 E4.45451
G1 X135.19 Y121.727 E4.52967
G1 X133.448 Y123.764 E4.68632
G1 X131.767 Y125.847 E4.84275
G1 X131.222 Y126.57 E4.89566
G1 X131.148 Y126.657 E4.90234
G1 X130.321 Y127.732 E4.98161
G1 X129.878 Y128.242 E5.02109
G1 X129.379 Y128.696 E5.06051
G1 X128.829 Y129.088 E5.09999
G1 X128.236 Y129.412 E5.13948
G1 X127.61 Y129.664 E5.17892
G1 X126.958 Y129.84 E5.21839
G1 X126.29 Y129.938 E5.25784
G1 X125.897 Y129.958 E5.28084
G1 X125.217 Y129.969 E5.32059
G1 X121.463 Y129.968 E5.53998
G1 X120.282 Y129.951 E5.60901
G1 X117.365 Y129.952 E5.77949
G1 X116.219 Y129.969 E5.84647
G1 X103.65 Y129.968 E6.58104
G1 X102.741 Y129.955 E6.63417
G1 X100.248 Y129.951 E6.77987
G1 X98.666 Y129.969 E6.87233
G1 X94.827 Y129.968 E7.0967
G1 X94.124 Y129.958 E7.13778
G1 X93.45 Y129.909 E7.17728
G1 X92.788 Y129.78 E7.2167
G1 X92.144 Y129.574 E7.25621
G1 X91.53 Y129.293 E7.29568
G1 X91.216 Y129.114 E7.3168
G1 X90.39 Y128.606 E7.37347
G1 X88.087 Y127.234 E7.53014
G1 X85.471 Y125.777 E7.70514
G1 X84.901 Y125.415 E7.7446
G1 X84.379 Y124.987 E7.78405
G1 X83.91 Y124.501 E7.82353
G1 X83.502 Y123.962 E7.86303
G1 X83.161 Y123.38 E7.90246
G1 X82.891 Y122.761 E7.94192
G1 X82.696 Y122.114 E7.98142
G1 X82.579 Y121.449 E8.02088
G1 X82.544 Y120.97 E8.04895
G1 X82.531 Y120.47 E8.07818
G1 X82.532 Y115.657 E8.35946
G1 X82.546 Y114.797 E8.40973
G1 X82.579 Y114.023 E8.45501
G1 X82.656 Y111.301 E8.61415
G1 X82.656 Y108.659 E8.76856
G1 X82.573 Y105.816 E8.93478
G1 X82.548 Y105.238 E8.9686
G1 X82.531 Y104.201 E9.02921
G1 X82.532 Y99.826 E9.2849
G1 X82.542 Y99.123 E9.32599
G1 X82.591 Y98.449 E9.36548
G1 X82.72 Y97.787 E9.4049
G1 X82.926 Y97.143 E9.44441
G1 X83.207 Y96.529 E9.48388
G1 X83.558 Y95.953 E9.5233
G1 X83.975 Y95.422 E9.56276
G1 X84.243 Y95.139 E9.58554
G1 X86.399 Y93.016 E9.76237
G1 X86.907 Y92.486 E9.80528
G1 X87.636 Y91.745 E9.86603
G0 F9000 X87.971 Y92.075
G1 F3000 X88.452 Y91.642 E9.90385
G1 X88.983 Y91.273 E9.94164
G1 X89.556 Y90.972 E9.97947
G1 X90.161 Y90.743 E10.01728
G1 X90.79 Y90.591 E10.05509
G1 X91.543 Y90.513 E10.09934
G1 X92.03 Y90.501 E10.12781
G1 X94.405 Y90.501 E10.26661
G1 X95.133 Y90.511 E10.30916
G1 X97.571 Y90.515 E10.45165
G1 X98.829 Y90.501 E10.52517
G1 X104.307 Y90.501 E10.84532
G1 X105.033 Y90.511 E10.88776
G1 X105.943 Y90.548 E10.94098
G1 X108.686 Y90.626 E11.10136
G1 X111.353 Y90.626 E11.25722
G1 X114.221 Y90.542 E11.42491
G1 X114.783 Y90.518 E11.45778
G1 X115.8 Y90.501 E11.51723
G1 X121.078 Y90.502 E11.82569
G1 X121.733 Y90.511 E11.86398
G1 X124.171 Y90.515 E12.00646
G1 X125.429 Y90.501 E12.07999
G1 X127.668 Y90.502 E12.21084
G1 X128.368 Y90.512 E12.25175
G1 X129.013 Y90.561 E12.28956
G1 X129.647 Y90.689 E12.32736
G1 X130.26 Y90.895 E12.36515
G1 X130.843 Y91.174 E12.40293
G1 X131.388 Y91.524 E12.44078
G1 X131.885 Y91.938 E12.47858
G1 X132.327 Y92.41 E12.51637
G1 X132.708 Y92.932 E12.55414
G1 X133.061 Y93.584 E12.59747
G1 X133.404 Y94.343 E12.64615
G1 X133.843 Y95.351 E12.71041
G1 X135.001 Y97.821 E12.86984
G1 X136.426 Y100.643 E13.0546
G1 X136.682 Y101.237 E13.0924
G1 X136.862 Y101.859 E13.13024
G1 X136.964 Y102.497 E13.168
G1 X136.987 Y102.924 E13.193
G1 X136.999 Y103.744 E13.24092
G1 X136.998 Y116.368 E13.97871
G1 X136.988 Y117.07 E14.01974
G1 X136.939 Y117.715 E14.05754
G1 X136.811 Y118.349 E14.09534
G1 X136.605 Y118.962 E14.13314
G1 X136.326 Y119.545 E14.17091
G1 X135.976 Y120.089 E14.20872
G1 X135.686 Y120.451 E14.23582
G1 X134.863 Y121.387 E14.30866
G1 X133.075 Y123.479 E14.4695
G1 X131.387 Y125.569 E14.62651
G1 X130.846 Y126.287 E14.67905
G1 X129.949 Y127.446 E14.7647
G1 X129.523 Y127.933 E14.80251
G1 X129.041 Y128.364 E14.8403
G1 X128.509 Y128.733 E14.87814
G1 X127.936 Y129.033 E14.91594
G1 X127.331 Y129.26 E14.95371
G1 X126.702 Y129.411 E14.99151
G1 X125.889 Y129.488 E15.03924
G1 X125.217 Y129.499 E15.07852
G1 X121.47 Y129.498 E15.2975
G1 X120.289 Y129.481 E15.36653
G1 X117.358 Y129.482 E15.53783
G1 X116.219 Y129.499 E15.6044
G1 X103.657 Y129.498 E16.33856
G1 X102.745 Y129.485 E16.39187
G1 X100.243 Y129.481 E16.53809
G1 X98.66 Y129.499 E16.63061
G1 X94.834 Y129.498 E16.85422
G1 X94.131 Y129.488 E16.89531
G1 X93.486 Y129.439 E16.93311
G1 X92.852 Y129.311 E16.97091
G1 X92.238 Y129.106 E17.00874
G1 X91.463 Y128.713 E17.05953
G1 X90.699 Y128.243 E17.11195
G1 X88.334 Y126.834 E17.27284
G1 X85.699 Y125.367 E17.44909
G1 X85.155 Y125.018 E17.48687
G1 X84.657 Y124.604 E17.52471
G1 X84.215 Y124.133 E17.56246
G1 X83.834 Y123.61 E17.60028
G1 X83.52 Y123.044 E17.63811
G1 X83.278 Y122.444 E17.67592
G1 X83.113 Y121.819 E17.7137
G1 X83.014 Y120.955 E17.76452
G1 X83.001 Y120.47 E17.79288
G1 X83.002 Y115.664 E18.07375
G1 X83.016 Y114.817 E18.12326
G1 X83.048 Y114.057 E18.16772
G1 X83.126 Y111.314 E18.32809
G1 X83.126 Y108.646 E18.48402
G1 X83.042 Y105.767 E18.65235
G1 X83.018 Y105.218 E18.68446
G1 X83.001 Y104.201 E18.74391
G1 X83.002 Y99.833 E18.99919
G1 X83.012 Y99.13 E19.04028
G1 X83.061 Y98.485 E19.07808
G1 X83.189 Y97.851 E19.11588
G1 X83.394 Y97.237 E19.15371
G1 X83.674 Y96.654 E19.19151
G1 X84.023 Y96.11 E19.22928
G1 X84.573 Y95.474 E19.27842
G1 X86.736 Y93.344 E19.45584
G1 X87.242 Y92.816 E19.49858
G1 X87.971 Y92.075 E19.55933
G1 F2700 E18.75933
;MESH:Body_Fixed.stl
G0 F9000 X87.583 Y98.547
G0 X87.577 Y105.323
G0 X88.236 Y105.704
G0 X91.106 Y104.03
G0 X91.816 Y102.687
;TYPE:WALL-OUTER
G1 F2700 E19.55933
G1 F3000 X91.931 Y102.762 E19.56735
G1 X91.981 Y102.868 E19.5742
G1 X91.984 Y117.11 E20.40655
G1 X91.923 Y117.247 E20.41531
G1 X91.842 Y117.304 E20.4211
G1 X91.685 Y117.322 E20.43034
G1 X88.471 Y115.466 E20.64724
G1 X88.471 Y120.565 E20.94524
G1 X95.151 Y120.566 E21.33564
G1 X95.268 Y120.61 E21.34295
G1 X95.355 Y120.737 E21.35194
G1 X95.363 Y120.821 E21.35687
G1 X94.508 Y124.029 E21.5509
G1 X98.892 Y124.029 E21.80712
G1 X98.037 Y120.821 E22.00115
G1 X98.045 Y120.737 E22.00608
G1 X98.132 Y120.61 E22.01508
G1 X98.236 Y120.567 E22.02165
G1 X105.019 Y120.565 E22.41807
G1 X105.163 Y120.63 E22.42731
G1 X105.235 Y120.797 E22.43793
G1 X105.204 Y120.918 E22.44523
G1 X103.409 Y124.028 E22.65509
G1 X116.591 Y124.028 E23.42549
G1 X114.796 Y120.918 E23.63535
G1 X114.779 Y120.717 E23.64714
G1 X114.872 Y120.602 E23.65578
G1 X114.963 Y120.567 E23.66148
G1 X121.758 Y120.566 E24.0586
G1 X121.867 Y120.609 E24.06545
G1 X121.955 Y120.736 E24.07448
G1 X121.963 Y120.821 E24.07947
G1 X121.108 Y124.029 E24.2735
G1 X125.492 Y124.029 E24.52971
G1 X124.637 Y120.821 E24.72374
G1 X124.645 Y120.736 E24.72873
G1 X124.733 Y120.609 E24.73776
G1 X124.831 Y120.568 E24.74397
G1 X128.065 Y120.565 E24.93297
G1 X128.066 Y114.97 E25.25996
G1 X128.113 Y114.856 E25.26717
G1 X128.252 Y114.769 E25.27675
G1 X128.375 Y114.771 E25.28394
G1 X131.529 Y116.592 E25.49679
G1 X131.529 Y103.408 E26.2673
G1 X128.375 Y105.229 E26.48014
G1 X128.252 Y105.231 E26.48733
G1 X128.113 Y105.144 E26.49692
G1 X128.067 Y105.035 E26.50383
G1 X128.065 Y101.685 E26.69962
G1 X128.065 Y95.971 E27.03356
G1 X125.232 Y95.971 E27.19913
G1 X126.097 Y99.209 E27.395
G1 X126.074 Y99.359 E27.40387
G1 X125.946 Y99.485 E27.41437
G1 X120.711 Y99.484 E27.72032
G1 X120.622 Y99.457 E27.72575
G1 X120.531 Y99.367 E27.73323
G1 X120.5 Y99.229 E27.7415
G1 X121.368 Y95.972 E27.93849
G1 X115.467 Y95.972 E28.28336
G1 X117.314 Y99.172 E28.4993
G1 X117.291 Y99.367 E28.51077
G1 X117.136 Y99.481 E28.52202
G1 X102.886 Y99.484 E29.35483
G1 X102.751 Y99.421 E29.36354
G1 X102.681 Y99.29 E29.37222
G1 X102.686 Y99.172 E29.37912
G1 X104.533 Y95.971 E29.5951
G1 X98.632 Y95.971 E29.93998
G1 X99.5 Y99.229 E30.13703
G1 X99.466 Y99.373 E30.14567
G1 X99.337 Y99.484 E30.15562
G1 X94.086 Y99.485 E30.4625
G1 X93.942 Y99.386 E30.47272
G1 X93.892 Y99.244 E30.48151
G1 X94.768 Y95.972 E30.67947
G1 X91.936 Y95.972 E30.84498
G1 X91.934 Y99.226 E31.03516
G1 X91.887 Y99.344 E31.04258
G1 X91.7 Y99.436 E31.05476
G1 X88.472 Y99.436 E31.24342
G1 X88.472 Y104.533 E31.5413
G1 X91.683 Y102.68 E31.75797
G1 X91.816 Y102.687 E31.76575
G1 F2700 E30.96575
G0 F9000 X91.106 Y104.03
G0 X88.236 Y105.704
G0 X87.577 Y105.323
G0 X87.583 Y98.547
G0 X91.047 Y95.083
G0 X95.921 Y95.087
G0 X98.419 Y98.601
G0 X99.816 Y99.586
;TYPE:SKIN
G1 F2700 E31.76575
G1 F3000 X99.538 Y99.822 E31.78706
G1 X99.333 Y99.881 E31.79953
G1 X94.004 Y99.879 E32.11097
G1 X93.772 Y99.772 E32.1259
G1 X93.602 Y99.599 E32.14008
G1 X93.479 Y99.243 E32.16209
G1 X94.247 Y96.372 E32.33578
G1 X92.336 Y96.372 E32.44746
G1 X92.334 Y99.282 E32.61753
G1 X92.206 Y99.594 E32.63724
G1 X91.874 Y99.834 E32.66118
G1 X88.871 Y99.835 E32.83669
G1 X88.871 Y103.841 E33.07081
G1 X91.459 Y102.35 E33.24537
G1 X91.643 Y102.288 E33.25671
G1 X91.959 Y102.312 E33.27524
G1 X92.238 Y102.496 E33.29477
G1 X92.384 Y102.807 E33.31485
G1 X92.382 Y117.175 E34.15456
G1 X92.227 Y117.522 E34.17677
G1 X91.942 Y117.687 E34.19601
G1 X91.686 Y117.716 E34.21107
G1 X91.42 Y117.633 E34.22735
G1 X88.87 Y116.16 E34.39946
G1 X88.87 Y120.166 E34.63358
G1 X95.243 Y120.166 E35.00604
G1 X95.342 Y120.195 E35.01207
G1 X95.605 Y120.382 E35.03093
G1 X95.722 Y120.588 E35.04478
G1 X95.762 Y120.877 E35.06183
G1 X95.029 Y123.63 E35.22833
G1 X98.37 Y123.63 E35.42358
G1 X97.638 Y120.877 E35.59007
G1 X97.678 Y120.588 E35.60712
G1 X97.795 Y120.382 E35.62096
G1 X98.091 Y120.168 E35.64231
G1 X105.072 Y120.167 E36.0503
G1 X105.383 Y120.286 E36.06976
G1 X105.592 Y120.554 E36.08962
G1 X105.633 Y120.796 E36.10397
G1 X105.564 Y121.095 E36.1219
G1 X104.102 Y123.628 E36.29283
G1 X115.898 Y123.629 E36.98222
G1 X114.377 Y120.994 E37.16003
G1 X114.379 Y120.662 E37.17944
G1 X114.512 Y120.386 E37.19734
G1 X114.704 Y120.237 E37.21154
G1 X114.93 Y120.17 E37.22532
G1 X121.834 Y120.17 E37.62881
G1 X122.126 Y120.297 E37.64742
G1 X122.319 Y120.58 E37.66744
G1 X122.362 Y120.877 E37.68498
G1 X121.629 Y123.63 E37.85148
G1 X124.97 Y123.63 E38.04674
G1 X124.238 Y120.877 E38.21322
G1 X124.264 Y120.619 E38.22837
G1 X124.389 Y120.381 E38.24408
G1 X124.697 Y120.169 E38.26594
G1 X127.666 Y120.166 E38.43945
G1 X127.667 Y114.904 E38.74698
G1 X127.78 Y114.632 E38.7642
G1 X128.002 Y114.438 E38.78143
G1 X128.17 Y114.379 E38.79183
G1 X128.493 Y114.377 E38.81071
G1 X131.13 Y115.899 E38.98865
G1 X131.13 Y106.992 E39.5092
G1 X131.13 Y104.1 E39.67822
G1 X128.626 Y105.546 E39.84721
G1 X128.305 Y105.64 E39.86676
G1 X127.945 Y105.539 E39.88861
G1 X127.742 Y105.306 E39.90667
G1 X127.672 Y105.095 E39.91966
G1 X127.666 Y96.37 E40.42958
G1 X125.752 Y96.37 E40.54144
G1 X126.496 Y99.158 E40.71008
G1 X126.456 Y99.469 E40.7284
G1 X126.387 Y99.597 E40.7369
G1 X126.2 Y99.778 E40.75211
G1 X125.911 Y99.879 E40.77
G1 X120.646 Y99.884 E41.07771
G1 X120.408 Y99.794 E41.09258
G1 X120.178 Y99.567 E41.11146
G1 X120.096 Y99.189 E41.13407
G1 X120.847 Y96.372 E41.30445
G1 X116.16 Y96.372 E41.57837
G1 X117.702 Y99.041 E41.75852
G1 X117.719 Y99.352 E41.77672
G1 X117.561 Y99.669 E41.79742
G1 X117.489 Y99.737 E41.80321
G1 X117.163 Y99.883 E41.82409
G1 X102.871 Y99.883 E42.65935
G1 X102.636 Y99.82 E42.67357
G1 X102.388 Y99.608 E42.69264
G1 X102.279 Y99.349 E42.70906
G1 X102.299 Y99.042 E42.72704
G1 X103.84 Y96.37 E42.90731
G1 X99.152 Y96.37 E43.18129
G1 X99.905 Y99.193 E43.35205
G1 X99.816 Y99.586 E43.3756
G1 F2700 E42.5756
G0 F9000 X99.723 Y99.211
G0 X98.419 Y98.601
G0 X95.921 Y95.087
G0 X91.047 Y95.083
G0 X87.583 Y98.547
G0 X87.583 Y121.453
G0 X89.354 Y121.465
G0 X89.354 Y119.93
G1 F2700 E43.3756
G1 F3000 X89.104 Y119.679 E43.3963
G0 F9000 X89.104 Y119.015
G1 F3000 X90.019 Y119.93 E43.47192
G0 F9000 X90.684 Y119.93
G1 F3000 X89.104 Y118.35 E43.60251
G0 F9000 X89.104 Y117.685
G1 F3000 X91.349 Y119.93 E43.78806
G0 F9000 X92.013 Y119.93
G1 F3000 X89.104 Y117.021 E44.0285
G0 F9000 X89.601 Y116.853
G1 F3000 X92.678 Y119.93 E44.28281
G0 F9000 X93.343 Y119.93
G1 F3000 X91.177 Y117.765 E44.46179
G0 F9000 X91.991 Y117.914
G1 F3000 X94.007 Y119.93 E44.62842
G0 F9000 X94.672 Y119.93
G1 F3000 X92.389 Y117.647 E44.81711
G0 F9000 X92.616 Y117.21
G1 F3000 X95.369 Y119.962 E45.0446
G0 F9000 X95.957 Y120.551
G1 F3000 X97.795 Y122.388 E45.19648
G0 F9000 X97.553 Y121.481
G1 F3000 X92.616 Y116.545 E45.60448
G0 F9000 X92.616 Y115.88
G1 F3000 X97.418 Y120.681 E46.00133
G0 F9000 X97.614 Y120.213
G1 F3000 X92.616 Y115.215 E46.41442
G0 F9000 X92.616 Y114.551
G1 F3000 X98.025 Y119.959 E46.86144
G0 F9000 X98.665 Y119.935
G1 F3000 X92.616 Y113.886 E47.36139
G0 F9000 X92.616 Y113.221
G1 F3000 X99.33 Y119.935 E47.91631
G0 F9000 X99.994 Y119.934
G1 F3000 X92.616 Y112.557 E48.52607
G0 F9000 X92.617 Y111.893
G1 F3000 X100.658 Y119.934 E49.19066
G0 F9000 X101.322 Y119.933
G1 F3000 X92.617 Y111.228 E49.91014
G0 F9000 X92.617 Y110.563
G1 F3000 X101.987 Y119.933 E50.68457
G0 F9000 X102.651 Y119.933
G1 F3000 X92.617 Y109.899 E51.51389
G0 F9000 X92.617 Y109.234
G1 F3000 X103.316 Y119.933 E52.39817
G0 F9000 X103.98 Y119.932
G1 F3000 X92.617 Y108.569 E53.33734
G0 F9000 X92.617 Y107.905
G1 F3000 X104.644 Y119.932 E54.33138
G0 F9000 X105.421 Y120.044
G1 F3000 X92.618 Y107.241 E55.38956
G0 F9000 X92.618 Y106.576
G1 F3000 X109.434 Y123.392 E56.77941
G0 F9000 X108.769 Y123.392
G1 F3000 X105.718 Y120.341 E57.03158
G0 F9000 X105.805 Y121.092
G1 F3000 X108.105 Y123.392 E57.22168
G0 F9000 X107.44 Y123.392
G1 F3000 X105.581 Y121.533 E57.37533
G0 F9000 X105.338 Y121.955
G1 F3000 X106.775 Y123.392 E57.4941
G0 F9000 X106.111 Y123.392
G1 F3000 X105.095 Y122.376 E57.57807
G0 F9000 X104.851 Y122.798
G1 F3000 X105.446 Y123.392 E57.6272
G0 F9000 X104.781 Y123.392
G1 F3000 X104.608 Y123.219 E57.6415
G1 F2700 E56.8415
G0 F9000 X103.279 Y122.451
G0 X102.238 Y124.264
G0 X102.619 Y124.923
G0 X110.098 Y124.929
G0 X110.099 Y123.392
