;FLAVOR:Marlin
;TIME:439
;Filament used: 2.39647m
;Layer height: 0.35
;MINX:71.312
;MINY:71.328
;MINZ:0.35
;MAXX:148.688
;MAXY:148.672
;MAXZ:50.225
;Generated with Cura_SteamEngine 5.2.2
M82 ;absolute extrusion mode
SET_GCODE_VARIABLE MACRO=START_PRINT VARIABLE=bed_temp VALUE=60
SET_GCODE_VARIABLE MACRO=START_PRINT VARIABLE=extruder_temp VALUE=205
START_PRINT
G92 E0
G92 E0
G1 F2700 E-0.8
;LAYER_COUNT:143
;LAYER:0
M107
G1 F300 Z0.55
G0 F9000 X74.42 Y74.472 Z0.55
;TYPE:SKIRT
G1 F300 Z0.35
G1 F2700 E0
G1 F3000 X74.907 Y74.004 E0.04619
G1 X75.171 Y73.791 E0.06939
G1 X75.817 Y73.302 E0.1248
G1 X76.185 Y73.04 E0.1557
G1 X77.042 Y72.543 E0.22345
G1 X77.747 Y72.213 E0.27669
G1 X78.146 Y72.038 E0.30649
G1 X78.781 Y71.807 E0.3527
G1 X79.111 Y71.72 E0.37604
G1 X79.856 Y71.546 E0.42836
G1 X80.295 Y71.455 E0.45902
G1 X80.964 Y71.361 E0.50523
G1 X81.301 Y71.344 E0.5283
G1 X82.083 Y71.328 E0.5818
G1 X82.545 Y71.332 E0.61339
G1 X83.532 Y71.433 E0.68125
G1 X84.329 Y71.586 E0.73675
G1 X85.812 Y71.921 E0.84073
G1 X88.477 Y72.489 E1.02709
G1 X91.123 Y72.976 E1.21109
G1 X93.755 Y73.382 E1.39323
G1 X96.381 Y73.713 E1.57424
G1 X99.026 Y73.97 E1.75599
G1 X101.733 Y74.156 E1.94156
G1 X104.342 Y74.262 E2.12014
G1 X106.914 Y74.295 E2.29606
G1 X113.209 Y74.295 E2.72658
G1 X115.865 Y74.257 E2.90824
G1 X118.544 Y74.144 E3.09163
G1 X121.23 Y73.953 E3.27579
G1 X123.852 Y73.693 E3.45599
G1 X126.506 Y73.354 E3.63897
G1 X129.146 Y72.939 E3.82174
G1 X131.781 Y72.449 E4.00504
G1 X134.703 Y71.815 E4.20953
G1 X135.855 Y71.546 E4.29044
G1 X136.32 Y71.451 E4.3229
G1 X137.306 Y71.344 E4.39073
G1 X138.083 Y71.328 E4.44388
G1 X138.545 Y71.332 E4.47548
G1 X139.53 Y71.433 E4.5432
G1 X140.328 Y71.586 E4.59877
G1 X140.764 Y71.682 E4.6293
G1 X141.718 Y71.99 E4.69786
G1 X142.54 Y72.34 E4.75896
G1 X142.816 Y72.466 E4.77971
G1 X143.413 Y72.783 E4.82594
G1 X143.716 Y72.98 E4.85066
G1 X144.364 Y73.433 E4.90473
G1 X144.705 Y73.685 E4.93373
G1 X145.441 Y74.343 E5.00125
G1 X145.997 Y74.934 E5.05674
G1 X146.317 Y75.295 E5.08973
G1 X146.884 Y76.075 E5.15568
G1 X147.284 Y76.736 E5.20852
G1 X147.509 Y77.132 E5.23967
G1 X147.92 Y78.047 E5.30827
G1 X148.175 Y78.782 E5.36148
G1 X148.312 Y79.213 E5.39241
G1 X148.474 Y79.869 E5.43862
G1 X148.526 Y80.205 E5.46188
G1 X148.64 Y81.139 E5.52623
G1 X148.666 Y81.42 E5.54553
G1 X148.688 Y82.095 E5.59172
G1 X148.669 Y82.433 E5.61487
G1 X148.603 Y83.204 E5.66779
G1 X148.546 Y83.709 E5.70255
G1 X148.434 Y84.348 E5.74692
G1 X148.228 Y85.221 E5.80826
G1 X147.652 Y87.825 E5.99066
G1 X147.147 Y90.46 E6.17415
G1 X146.723 Y93.07 E6.35499
G1 X146.371 Y95.712 E6.53727
G1 X146.088 Y98.397 E6.72192
G1 X145.887 Y101.031 E6.90259
G1 X145.76 Y103.682 E7.0841
G1 X145.705 Y106.924 E7.30586
G1 X145.705 Y113.129 E7.73022
G1 X145.743 Y115.775 E7.91121
G1 X145.856 Y118.454 E8.09459
G1 X146.047 Y121.136 E8.27848
G1 X146.307 Y123.764 E8.45909
G1 X146.646 Y126.415 E8.64187
G1 X147.062 Y129.061 E8.82505
G1 X147.545 Y131.662 E9.00598
G1 X148.109 Y134.284 E9.1894
G1 X148.405 Y135.519 E9.27626
G1 X148.518 Y136.142 E9.31956
G1 X148.62 Y136.959 E9.37587
G1 X148.666 Y137.419 E9.40749
G1 X148.67 Y138.428 E9.4765
G1 X148.606 Y139.183 E9.52832
G1 X148.554 Y139.649 E9.56038
G1 X148.348 Y140.633 E9.62914
G1 X148.118 Y141.393 E9.68345
G1 X147.977 Y141.818 E9.71407
G1 X147.577 Y142.722 E9.78168
G1 X147.113 Y143.56 E9.84719
G1 X146.964 Y143.81 E9.86709
G1 X146.378 Y144.621 E9.93552
G1 X145.873 Y145.205 E9.98832
G1 X145.585 Y145.522 E10.01761
G1 X145.099 Y145.991 E10.06381
G1 X144.829 Y146.209 E10.08754
G1 X144.183 Y146.698 E10.14295
G1 X143.827 Y146.953 E10.1729
G1 X142.958 Y147.457 E10.2416
G1 X142.255 Y147.786 E10.29469
G1 X141.857 Y147.961 E10.32442
G1 X141.223 Y148.192 E10.37057
G1 X140.888 Y148.281 E10.39428
G1 X140.142 Y148.455 E10.44666
G1 X139.705 Y148.545 E10.47718
G1 X139.036 Y148.639 E10.52338
G1 X138.699 Y148.656 E10.54646
G1 X137.917 Y148.672 E10.59995
G1 X137.455 Y148.668 E10.63155
G1 X136.468 Y148.567 E10.6994
G1 X135.671 Y148.414 E10.75491
G1 X134.188 Y148.079 E10.85889
G1 X131.523 Y147.511 E11.04524
G1 X128.877 Y147.024 E11.22925
G1 X126.245 Y146.618 E11.41138
G1 X123.619 Y146.287 E11.5924
G1 X120.974 Y146.03 E11.77414
G1 X118.267 Y145.844 E11.95971
G1 X115.658 Y145.738 E12.13829
G1 X113.086 Y145.705 E12.31421
G1 X106.791 Y145.705 E12.74473
G1 X104.135 Y145.743 E12.9264
G1 X101.456 Y145.856 E13.10978
G1 X98.77 Y146.047 E13.29394
G1 X96.148 Y146.307 E13.47415
G1 X93.494 Y146.646 E13.65713
G1 X90.854 Y147.061 E13.8399
G1 X88.219 Y147.551 E14.0232
G1 X85.297 Y148.185 E14.22769
G1 X84.145 Y148.454 E14.30859
G1 X83.68 Y148.549 E14.34105
G1 X82.694 Y148.656 E14.40888
G1 X81.917 Y148.672 E14.46203
G1 X81.455 Y148.668 E14.49363
G1 X80.47 Y148.567 E14.56135
G1 X79.672 Y148.414 E14.61692
G1 X79.236 Y148.318 E14.64745
G1 X78.282 Y148.01 E14.71602
G1 X77.46 Y147.66 E14.77712
G1 X77.184 Y147.534 E14.79787
G1 X76.587 Y147.217 E14.84409
G1 X76.284 Y147.02 E14.86881
G1 X75.636 Y146.567 E14.92289
G1 X75.295 Y146.315 E14.95188
G1 X74.559 Y145.657 E15.0194
G1 X74.003 Y145.066 E15.0749
G1 X73.683 Y144.705 E15.10789
G1 X73.116 Y143.925 E15.17384
G1 X72.716 Y143.264 E15.22668
G1 X72.491 Y142.868 E15.25783
G1 X72.08 Y141.953 E15.32643
G1 X71.825 Y141.218 E15.37964
G1 X71.688 Y140.787 E15.41057
G1 X71.526 Y140.131 E15.45678
G1 X71.473 Y139.791 E15.48031
G1 X71.359 Y138.851 E15.54507
G1 X71.334 Y138.582 E15.56355
G1 X71.312 Y137.907 E15.60974
G1 X71.331 Y137.567 E15.63303
G1 X71.397 Y136.796 E15.68595
G1 X71.453 Y136.294 E15.72049
G1 X71.568 Y135.645 E15.76557
G1 X71.761 Y134.83 E15.82285
G1 X72.348 Y132.175 E16.00881
G1 X72.853 Y129.54 E16.1923
G1 X73.277 Y126.93 E16.37315
G1 X73.629 Y124.288 E16.55543
G1 X73.912 Y121.598 E16.74042
G1 X74.113 Y118.969 E16.92074
G1 X74.24 Y116.318 E17.10226
G1 X74.295 Y113.048 E17.32593
G1 X74.295 Y106.871 E17.74838
G1 X74.257 Y104.225 E17.92936
G1 X74.144 Y101.546 E18.11274
G1 X73.953 Y98.86 E18.29691
G1 X73.694 Y96.242 E18.47683
G1 X73.353 Y93.581 E18.66031
G1 X72.939 Y90.945 E18.8428
G1 X72.453 Y88.332 E19.02457
G1 X71.891 Y85.716 E19.20756
G1 X71.595 Y84.481 E19.29441
G1 X71.482 Y83.856 E19.33785
G1 X71.378 Y83.021 E19.3954
G1 X71.334 Y82.574 E19.42612
G1 X71.331 Y81.567 E19.49499
G1 X71.397 Y80.796 E19.54791
G1 X71.446 Y80.355 E19.57826
G1 X71.564 Y79.69 E19.62445
G1 X71.652 Y79.363 E19.64761
G1 X71.883 Y78.601 E19.70206
G1 X72.023 Y78.181 E19.73234
G1 X72.424 Y77.276 E19.80004
G1 X72.804 Y76.586 E19.85391
G1 X73.043 Y76.179 E19.88619
G1 X73.621 Y75.38 E19.95364
G1 X74.132 Y74.789 E20.00707
G1 X74.42 Y74.472 E20.03636
G0 F9000 X74.766 Y74.791
G1 F3000 X75.454 Y74.166 E20.09993
G1 X76.1 Y73.677 E20.15534
G1 X76.455 Y73.424 E20.18515
G1 X77.242 Y72.969 E20.24733
G1 X78.09 Y72.574 E20.3113
G1 X78.333 Y72.469 E20.32941
G1 X79.218 Y72.177 E20.39314
G1 X79.963 Y72.003 E20.44547
G1 X80.388 Y71.915 E20.47515
G1 X81.311 Y71.814 E20.53865
G1 X82.093 Y71.798 E20.59214
G1 X82.538 Y71.802 E20.62258
G1 X83.443 Y71.895 E20.6848
G1 X84.416 Y72.085 E20.7526
G1 X85.742 Y72.387 E20.84561
G1 X88.366 Y72.946 E21.0291
G1 X91.038 Y73.438 E21.21491
G1 X93.691 Y73.848 E21.3985
G1 X96.353 Y74.183 E21.582
G1 X98.981 Y74.438 E21.76257
G1 X101.683 Y74.624 E21.9478
G1 X104.354 Y74.732 E22.13063
G1 X106.908 Y74.765 E22.30531
G1 X113.216 Y74.765 E22.73672
G1 X115.891 Y74.727 E22.91969
G1 X118.563 Y74.614 E23.10259
G1 X121.271 Y74.422 E23.28826
G1 X123.887 Y74.163 E23.46805
G1 X126.572 Y73.819 E23.65318
G1 X129.233 Y73.401 E23.8374
G1 X131.869 Y72.911 E24.02077
G1 X134.841 Y72.266 E24.22876
G1 X135.962 Y72.004 E24.30749
G1 X136.411 Y71.912 E24.33883
G1 X137.315 Y71.814 E24.40102
G1 X138.092 Y71.798 E24.45417
G1 X138.538 Y71.802 E24.48468
G1 X139.442 Y71.895 E24.54683
G1 X140.597 Y72.12 E24.62731
G1 X141.535 Y72.423 E24.69472
G1 X142.211 Y72.709 E24.74492
G1 X142.621 Y72.894 E24.77568
G1 X143.446 Y73.365 E24.84065
G1 X144.094 Y73.818 E24.89473
G1 X144.423 Y74.061 E24.9227
G1 X145.099 Y74.665 E24.9847
G1 X145.655 Y75.256 E25.04019
G1 X145.961 Y75.603 E25.07183
G1 X146.482 Y76.319 E25.13239
G1 X146.882 Y76.98 E25.18523
G1 X147.099 Y77.361 E25.21522
G1 X147.476 Y78.201 E25.27819
G1 X147.731 Y78.936 E25.3314
G1 X147.863 Y79.353 E25.36131
G1 X148.06 Y80.263 E25.42499
G1 X148.172 Y81.183 E25.48837
G1 X148.198 Y81.464 E25.50767
G1 X148.201 Y82.392 E25.57114
G1 X148.135 Y83.163 E25.62406
G1 X148.08 Y83.653 E25.65778
G1 X147.976 Y84.24 E25.69855
G1 X147.77 Y85.113 E25.7599
G1 X147.196 Y87.708 E25.94166
G1 X146.681 Y90.403 E26.12931
G1 X146.258 Y93.005 E26.3096
G1 X145.902 Y95.672 E26.49362
G1 X145.623 Y98.319 E26.67565
G1 X145.418 Y101.007 E26.86002
G1 X145.289 Y103.685 E27.04339
G1 X145.235 Y106.887 E27.26241
G1 X145.235 Y113.129 E27.6893
G1 X145.273 Y115.801 E27.87206
G1 X145.386 Y118.473 E28.05497
G1 X145.578 Y121.177 E28.24036
G1 X145.838 Y123.803 E28.42084
G1 X146.18 Y126.476 E28.60514
G1 X146.6 Y129.148 E28.79012
G1 X147.089 Y131.775 E28.97287
G1 X147.646 Y134.368 E29.15426
G1 X147.948 Y135.629 E29.24294
G1 X148.052 Y136.2 E29.28263
G1 X148.154 Y137.017 E29.33894
G1 X148.198 Y137.462 E29.36952
G1 X148.201 Y138.388 E29.43285
G1 X148.137 Y139.143 E29.48467
G1 X148.087 Y139.594 E29.51571
G1 X147.899 Y140.497 E29.57879
G1 X147.669 Y141.257 E29.63309
G1 X147.532 Y141.666 E29.66259
G1 X147.166 Y142.496 E29.72463
G1 X146.799 Y143.163 E29.7767
G1 X146.56 Y143.569 E29.80892
G1 X146.023 Y144.313 E29.87167
G1 X145.518 Y144.897 E29.92447
G1 X145.239 Y145.204 E29.95284
G1 X144.546 Y145.834 E30.0169
G1 X143.9 Y146.323 E30.07231
G1 X143.556 Y146.569 E30.10123
G1 X142.759 Y147.031 E30.16423
G1 X141.916 Y147.424 E30.22784
G1 X141.671 Y147.53 E30.2461
G1 X140.781 Y147.823 E30.31018
G1 X139.876 Y148.032 E30.37371
G1 X139.612 Y148.085 E30.39212
G1 X138.689 Y148.186 E30.45562
G1 X137.907 Y148.202 E30.50912
G1 X137.462 Y148.198 E30.53955
G1 X136.557 Y148.105 E30.60177
G1 X135.584 Y147.915 E30.66957
G1 X134.258 Y147.613 E30.76258
G1 X131.634 Y147.054 E30.94607
G1 X128.962 Y146.562 E31.13188
G1 X126.309 Y146.152 E31.31548
G1 X123.647 Y145.817 E31.49897
G1 X121.019 Y145.562 E31.67955
G1 X118.317 Y145.376 E31.86478
G1 X115.646 Y145.268 E32.0476
G1 X113.092 Y145.235 E32.22228
G1 X106.784 Y145.235 E32.65369
G1 X104.109 Y145.273 E32.83666
G1 X101.437 Y145.386 E33.01956
G1 X98.729 Y145.578 E33.20523
G1 X96.113 Y145.837 E33.38502
G1 X93.428 Y146.181 E33.57015
G1 X90.767 Y146.599 E33.75437
G1 X88.131 Y147.089 E33.93774
G1 X85.159 Y147.734 E34.14573
G1 X84.038 Y147.996 E34.22446
G1 X83.589 Y148.088 E34.25581
G1 X82.685 Y148.186 E34.31799
G1 X81.908 Y148.202 E34.37114
G1 X81.462 Y148.198 E34.40165
G1 X80.558 Y148.105 E34.4638
G1 X79.403 Y147.88 E34.54428
G1 X78.465 Y147.577 E34.61169
G1 X77.789 Y147.291 E34.66189
G1 X77.379 Y147.106 E34.69265
G1 X76.554 Y146.635 E34.75762
G1 X75.906 Y146.182 E34.8117
G1 X75.577 Y145.939 E34.83967
G1 X74.901 Y145.335 E34.90167
G1 X74.345 Y144.744 E34.95716
G1 X74.039 Y144.397 E34.9888
G1 X73.518 Y143.681 E35.04936
G1 X73.118 Y143.02 E35.1022
G1 X72.901 Y142.639 E35.13219
G1 X72.524 Y141.799 E35.19516
G1 X72.269 Y141.064 E35.24837
G1 X72.137 Y140.647 E35.27828
G1 X71.94 Y139.734 E35.34216
G1 X71.827 Y138.807 E35.40603
G1 X71.802 Y138.538 E35.4245
G1 X71.799 Y137.608 E35.48811
G1 X71.865 Y136.837 E35.54103
G1 X71.92 Y136.349 E35.57462
G1 X72.025 Y135.753 E35.616
G1 X72.231 Y134.883 E35.67715
G1 X72.804 Y132.292 E35.85863
G1 X73.319 Y129.597 E36.04628
G1 X73.742 Y126.995 E36.22657
G1 X74.098 Y124.328 E36.41059
G1 X74.377 Y121.681 E36.59262
G1 X74.582 Y118.993 E36.77699
G1 X74.711 Y116.315 E36.96036
G1 X74.765 Y113.113 E37.17938
G1 X74.765 Y106.871 E37.60627
G1 X74.727 Y104.199 E37.78903
G1 X74.614 Y101.527 E37.97194
G1 X74.422 Y98.819 E38.15761
G1 X74.163 Y96.203 E38.33739
G1 X73.819 Y93.519 E38.52246
G1 X73.401 Y90.858 E38.70668
G1 X72.91 Y88.219 E38.89026
G1 X72.354 Y85.632 E39.07123
G1 X72.052 Y84.371 E39.15991
G1 X71.948 Y83.798 E39.19973
G1 X71.844 Y82.963 E39.25728
G1 X71.802 Y82.532 E39.2869
G1 X71.799 Y81.608 E39.35009
G1 X71.881 Y80.675 E39.41415
G1 X71.912 Y80.41 E39.43239
G1 X72.102 Y79.499 E39.49604
G1 X72.333 Y78.737 E39.5505
G1 X72.468 Y78.333 E39.57963
G1 X72.835 Y77.503 E39.64169
G1 X73.215 Y76.813 E39.69557
G1 X73.446 Y76.421 E39.72668
G1 X73.977 Y75.687 E39.78864
G1 X74.488 Y75.096 E39.84207
G1 X74.766 Y74.791 E39.8703
G1 F2700 E39.0703
;MESH:square_tower.stl
G0 F9000 X78.126 Y77.878
G0 X78.958 Y78.625
G0 X78.715 Y79.611
G1 F2700 E39.8703
G0 F9000 X78.145 Y79.201
G0 X78.715 Y79.611
G0 X77.939 Y82
G0 X77.237 Y82
;TYPE:WALL-OUTER
G1 F3000 X77.341 Y81.006 E39.93865
G1 X77.647 Y80.063 E40.00645
G1 X78.145 Y79.201 E40.07454
G1 X78.813 Y78.459 E40.14282
G1 X79.616 Y77.876 E40.21069
G1 X80.53 Y77.47 E40.27908
G1 X81.503 Y77.262 E40.34713
G1 X82.497 Y77.262 E40.41511
G1 X83.47 Y77.47 E40.48316
G1 X84.384 Y77.876 E40.55156
G1 X85.187 Y78.459 E40.61943
G1 X85.855 Y79.201 E40.68771
G1 X86.452 Y80.235 E40.76936
G1 X133.548 Y80.235 E43.99031
G1 X134.145 Y79.201 E44.07197
G1 X134.813 Y78.459 E44.14025
G1 X135.616 Y77.876 E44.20812
G1 X136.53 Y77.47 E44.27652
G1 X137.503 Y77.262 E44.34457
G1 X138.497 Y77.262 E44.41255
G1 X139.47 Y77.47 E44.48059
G1 X140.384 Y77.876 E44.54899
G1 X141.187 Y78.459 E44.61686
G1 X141.855 Y79.201 E44.68514
G1 X142.353 Y80.063 E44.75323
G1 X142.659 Y81.006 E44.82103
G1 X142.763 Y82 E44.88938
G1 X142.659 Y82.994 E44.95773
G1 X142.353 Y83.937 E45.02554
G1 X141.855 Y84.799 E45.09362
G1 X141.187 Y85.541 E45.1619
G1 X140.384 Y86.124 E45.22977
G1 X139.765 Y86.4 E45.27612
G1 X139.765 Y133.6 E48.50418
G1 X140.384 Y133.876 E48.55053
G1 X141.187 Y134.459 E48.6184
G1 X141.855 Y135.201 E48.68668
G1 X142.353 Y136.063 E48.75476
G1 X142.659 Y137.006 E48.82257
G1 X142.763 Y138 E48.89092
G1 X142.659 Y138.994 E48.95927
G1 X142.353 Y139.937 E49.02708
G1 X141.855 Y140.799 E49.09516
G1 X141.187 Y141.541 E49.16344
G1 X140.384 Y142.124 E49.23131
G1 X139.47 Y142.53 E49.29971
G1 X138.497 Y142.738 E49.36775
G1 X137.503 Y142.738 E49.43573
G1 X136.53 Y142.53 E49.50378
G1 X135.616 Y142.124 E49.57218
G1 X134.813 Y141.541 E49.64005
G1 X134.145 Y140.799 E49.70833
G1 X133.548 Y139.765 E49.78999
G1 X86.452 Y139.765 E53.01094
G1 X85.855 Y140.799 E53.09259
G1 X85.187 Y141.541 E53.16087
G1 X84.384 Y142.124 E53.22874
G1 X83.47 Y142.53 E53.29714
G1 X82.497 Y142.738 E53.36519
G1 X81.503 Y142.738 E53.43317
G1 X80.53 Y142.53 E53.50122
G1 X79.616 Y142.124 E53.56961
G1 X78.813 Y141.541 E53.63748
G1 X78.145 Y140.799 E53.70576
G1 X77.647 Y139.937 E53.77385
G1 X77.341 Y138.994 E53.84165
G1 X77.237 Y138 E53.91
G1 X77.341 Y137.006 E53.97835
G1 X77.647 Y136.063 E54.04616
G1 X78.145 Y135.201 E54.11424
G1 X78.813 Y134.459 E54.18252
G1 X79.616 Y133.876 E54.25039
G1 X80.235 Y133.6 E54.29674
G1 X80.235 Y86.4 E57.5248
G1 X79.616 Y86.124 E57.57115
G1 X78.813 Y85.541 E57.63902
G1 X78.145 Y84.799 E57.7073
G1 X77.647 Y83.937 E57.77539
G1 X77.341 Y82.994 E57.84319
G1 X77.237 Y82 E57.91154
G0 F9000 X77.939 Y82
G0 X78.715 Y79.611
G0 X78.145 Y79.201
M104 S205
G1 F3000 X78.813 Y78.459 Z0.351 E57.97982
G1 X79.616 Y77.876 Z0.353 E58.04769
G1 X80.53 Y77.47 Z0.354 E58.11609
G1 X81.503 Y77.262 Z0.355 E58.18414
G1 X82.497 Y77.262 Z0.357 E58.25212
G1 X83.47 Y77.47 Z0.358 E58.32016
G1 X84.384 Y77.876 Z0.359 E58.38856
G1 X85.187 Y78.459 Z0.361 E58.45643
G1 X85.855 Y79.201 Z0.362 E58.52471
G1 X86.452 Y80.235 Z0.363 E58.60637
G1 X133.548 Y80.235 Z0.426 E61.82732
G1 X134.145 Y79.201 Z0.428 E61.90898
G1 X134.813 Y78.459 Z0.429 E61.97726
G1 X135.616 Y77.876 Z0.43 E62.04512
G1 X136.53 Y77.47 Z0.432 E62.11352
G1 X137.503 Y77.262 Z0.433 E62.18157
G1 X138.497 Y77.262 Z0.434 E62.24955
