;FLAVOR:Marlin
;TIME:1281
;Filament used: 1.29351m
;Layer height: 0.2
;MINX:94
;MINY:94
;MINZ:0.24
;MAXX:126
;MAXY:126
;MAXZ:20.24
;Generated with Cura_SteamEngine 5.2.2
M82 ;absolute extrusion mode
; Ender 3 S1 Start G-code
G92 E0 ; Reset Extruder
G28 ; Home all axes
G1 Z10.0 F3000 ; Move Z Axis up little to prevent scratching of Heat Bed
G1 X0 Y0

M104 S205
M190 S60
M109 S205

G1 X0.1 Y20 Z0.3 F5000.0 ; Move to start position
G1 X0.1 Y200.0 Z0.3 F1500.0 E15 ; Draw the first line
G1 X0.4 Y200.0 Z0.3 F5000.0 ; Move to side a little
G1 X0.4 Y20 Z0.3 F1500.0 E30 ; Draw the second line
G92 E0 ; Reset Extruder
G1 Z2.0 F3000 ; Move Z Axis up little to prevent scratching of Heat Bed
G1 X5 Y20 Z0.3 F5000.0 ; Move over to prevent blob squish

G92 E0
G92 E0
G1 F2700 E-0.8
;LAYER_COUNT:100
;LAYER:0
M107
G1 F300 Z0.44
G0 F7500 X95.924 Y95.614 Z0.44
;TYPE:SKIRT
G1 F300 Z0.24
G1 F2700 E0
G1 F1500 X96.458 Y95.173 E0.02764
G1 X97.039 Y94.796 E0.05528
G1 X97.659 Y94.488 E0.08292
G1 X98.311 Y94.254 E0.11056
G1 X98.985 Y94.097 E0.13818
G1 X99.841 Y94.011 E0.17252
G1 X100.33 Y94 E0.19204
G1 X119.293 Y94 E0.9489
G1 X120.077 Y94.011 E0.98019
G1 X120.768 Y94.06 E1.00784
G1 X121.448 Y94.19 E1.03547
G1 X122.109 Y94.396 E1.06311
G1 X122.742 Y94.678 E1.09076
G1 X123.338 Y95.03 E1.11839
G1 X123.889 Y95.449 E1.14602
G1 X124.389 Y95.929 E1.17368
G1 X124.83 Y96.463 E1.20132
G1 X125.207 Y97.044 E1.22897
G1 X125.514 Y97.665 E1.25661
G1 X125.747 Y98.317 E1.28425
G1 X125.904 Y98.991 E1.31187
G1 X125.989 Y99.841 E1.34596
G1 X126 Y100.33 E1.36549
G1 X126 Y119.338 E2.12414
G1 X125.991 Y120.065 E2.15316
G1 X125.942 Y120.756 E2.1808
G1 X125.814 Y121.437 E2.20846
G1 X125.609 Y122.098 E2.23608
G1 X125.329 Y122.731 E2.26371
G1 X124.977 Y123.328 E2.29137
G1 X124.56 Y123.881 E2.31901
G1 X124.081 Y124.381 E2.34665
G1 X123.548 Y124.823 E2.37428
G1 X122.967 Y125.201 E2.40195
G1 X122.347 Y125.509 E2.42958
G1 X121.696 Y125.744 E2.4572
G1 X121.021 Y125.902 E2.48487
G1 X120.159 Y125.989 E2.51945
G1 X119.67 Y126 E2.53897
G1 X100.63 Y126 E3.2989
G1 X99.932 Y125.991 E3.32676
G1 X99.241 Y125.942 E3.35441
G1 X98.56 Y125.813 E3.38207
G1 X97.899 Y125.608 E3.4097
G1 X97.266 Y125.327 E3.43734
G1 X96.669 Y124.976 E3.46498
G1 X96.117 Y124.558 E3.49261
G1 X95.617 Y124.079 E3.52025
G1 X95.175 Y123.545 E3.54792
G1 X94.798 Y122.965 E3.57553
G1 X94.49 Y122.344 E3.60319
G1 X94.255 Y121.693 E3.63082
G1 X94.098 Y121.018 E3.65848
G1 X94.011 Y120.153 E3.69317
G1 X94 Y119.658 E3.71294
G1 X94.001 Y100.593 E4.47386
G1 X94.01 Y99.928 E4.5004
G1 X94.059 Y99.237 E4.52805
G1 X94.187 Y98.557 E4.55567
G1 X94.394 Y97.895 E4.58335
G1 X94.675 Y97.262 E4.611
G1 X95.027 Y96.666 E4.63862
G1 X95.445 Y96.114 E4.66626
G1 X95.924 Y95.614 E4.69389
G0 F7500 X96.314 Y95.801
G1 F1500 X96.843 Y95.39 E4.72063
G1 X97.416 Y95.045 E4.74733
G1 X98.027 Y94.772 E4.77404
G1 X98.665 Y94.573 E4.80071
G1 X99.323 Y94.451 E4.82742
G1 X99.852 Y94.411 E4.84859
G1 X100.33 Y94.4 E4.86768
G1 X119.293 Y94.4 E5.62453
G1 X120.071 Y94.411 E5.65559
G1 X120.738 Y94.46 E5.68228
G1 X121.395 Y94.589 E5.709
G1 X122.031 Y94.795 E5.73568
G1 X122.639 Y95.076 E5.76242
G1 X123.208 Y95.426 E5.78908
G1 X123.732 Y95.843 E5.81581
G1 X124.202 Y96.319 E5.84251
G1 X124.612 Y96.847 E5.86919
G1 X124.957 Y97.421 E5.89592
G1 X125.23 Y98.032 E5.92263
G1 X125.428 Y98.671 E5.94933
G1 X125.549 Y99.329 E5.97603
G1 X125.589 Y99.853 E5.997
G1 X125.6 Y100.33 E6.01605
G1 X125.6 Y119.333 E6.7745
G1 X125.591 Y120.06 E6.80352
G1 X125.542 Y120.728 E6.83025
G1 X125.415 Y121.384 E6.85692
G1 X125.21 Y122.021 E6.88363
G1 X124.931 Y122.629 E6.91033
G1 X124.581 Y123.199 E6.93702
G1 X124.165 Y123.724 E6.96376
G1 X123.69 Y124.195 E6.99045
G1 X123.163 Y124.606 E7.01713
G1 X122.59 Y124.952 E7.04384
G1 X121.98 Y125.226 E7.07053
G1 X121.341 Y125.426 E7.09726
G1 X120.683 Y125.548 E7.12397
G1 X120.148 Y125.589 E7.14538
G1 X119.67 Y125.6 E7.16447
G1 X100.635 Y125.6 E7.92419
G1 X99.937 Y125.591 E7.95206
G1 X99.27 Y125.542 E7.97875
G1 X98.613 Y125.414 E8.00546
G1 X97.976 Y125.209 E8.03217
G1 X97.368 Y124.929 E8.05889
G1 X96.798 Y124.579 E8.08558
G1 X96.274 Y124.163 E8.11229
G1 X95.803 Y123.688 E8.13899
G1 X95.392 Y123.16 E8.16569
G1 X95.047 Y122.587 E8.19239
G1 X94.773 Y121.977 E8.21908
G1 X94.573 Y121.338 E8.2458
G1 X94.452 Y120.68 E8.2725
G1 X94.411 Y120.142 E8.29404
G1 X94.4 Y119.658 E8.31336
G1 X94.401 Y100.598 E9.07409
G1 X94.41 Y99.933 E9.10063
G1 X94.459 Y99.266 E9.12732
G1 X94.587 Y98.609 E9.15404
G1 X94.792 Y97.973 E9.18071
G1 X95.072 Y97.365 E9.20743
G1 X95.423 Y96.795 E9.23414
G1 X95.839 Y96.271 E9.26085
G1 X96.314 Y95.801 E9.28752
G0 F7500 X96.703 Y95.995
G1 F1500 X97.226 Y95.617 E9.31327
G1 X97.79 Y95.306 E9.33898
G1 X98.389 Y95.068 E9.3647
G1 X99.013 Y94.905 E9.39044
G1 X99.863 Y94.811 E9.42458
G1 X100.33 Y94.8 E9.44322
G1 X119.293 Y94.8 E10.20007
G1 X120.065 Y94.811 E10.23089
G1 X120.708 Y94.86 E10.25663
G1 X121.34 Y94.988 E10.28236
G1 X121.951 Y95.194 E10.3081
G1 X122.532 Y95.473 E10.33382
G1 X123.074 Y95.822 E10.35955
G1 X123.568 Y96.236 E10.38528
G1 X124.008 Y96.708 E10.41103
G1 X124.386 Y97.23 E10.43676
G1 X124.696 Y97.795 E10.46248
G1 X124.934 Y98.394 E10.4882
G1 X125.096 Y99.018 E10.51393
G1 X125.189 Y99.864 E10.5479
G1 X125.2 Y100.33 E10.56651
G1 X125.2 Y119.328 E11.32476
G1 X125.191 Y120.055 E11.35378
G1 X125.143 Y120.698 E11.37951
G1 X125.016 Y121.33 E11.40524
G1 X124.811 Y121.942 E11.431
G1 X124.533 Y122.523 E11.45671
G1 X124.185 Y123.066 E11.48245
G1 X123.772 Y123.561 E11.50818
G1 X123.301 Y124.001 E11.5339
G1 X122.779 Y124.38 E11.55965
G1 X122.215 Y124.691 E11.58536
G1 X121.616 Y124.93 E11.6111
G1 X120.993 Y125.094 E11.63681
G1 X120.137 Y125.189 E11.67118
G1 X119.67 Y125.2 E11.68983
G1 X100.64 Y125.2 E12.44936
G1 X99.942 Y125.191 E12.47722
G1 X99.299 Y125.142 E12.50295
G1 X98.667 Y125.015 E12.52868
G1 X98.056 Y124.81 E12.55441
G1 X97.475 Y124.532 E12.58011
G1 X96.932 Y124.183 E12.60587
G1 X96.437 Y123.77 E12.6316
G1 X95.997 Y123.299 E12.65733
G1 X95.618 Y122.777 E12.68308
G1 X95.307 Y122.213 E12.70878
G1 X95.069 Y121.614 E12.73451
G1 X94.906 Y120.99 E12.76025
G1 X94.811 Y120.131 E12.79474
G1 X94.8 Y119.658 E12.81363
G1 X94.8 Y100.604 E13.57411
G1 X94.809 Y99.939 E13.60066
G1 X94.858 Y99.296 E13.62639
G1 X94.986 Y98.664 E13.65213
G1 X95.191 Y98.053 E13.67785
G1 X95.47 Y97.472 E13.70358
G1 X95.819 Y96.929 E13.72934
G1 X96.232 Y96.435 E13.75504
G1 X96.703 Y95.995 E13.78076
G1 F2700 E12.98076
;MESH:xyzCalibration_cube.stl
G0 F7500 X100.414 Y99.335
G0 X100.414 Y100.414
G0 X101 Y101
;TYPE:WALL-INNER
G1 F2700 E13.78076
G1 F1500 X101 Y119 E14.49918
G1 X119 Y119 E15.2176
G1 X119 Y110 E15.57681
G1 X119 Y101 E15.93602
G1 X101 Y101 E16.65444
G0 F7500 X100.6 Y100.6
G1 F1500 X100.6 Y119.4 E17.40479
G1 X119.4 Y119.4 E18.15514
G1 X119.4 Y110 E18.53031
G1 X119.4 Y100.6 E18.90549
G1 X100.6 Y100.6 E19.65583
G0 F7500 X100.2 Y100.2
;TYPE:WALL-OUTER
G1 F1500 X100.2 Y119.8 E20.43811
G1 X119.8 Y119.8 E21.22039
G1 X119.8 Y110 E21.61153
G1 X119.8 Y100.2 E22.00267
G1 X100.2 Y100.2 E22.78495
G0 F7500 X100.47 Y100.47
G0 X101.1 Y101.34
G0 X101.34 Y101.34
;TYPE:SKIN
G1 F1500 X101.34 Y118.66 E23.47623
G1 X118.66 Y118.66 E24.16751
G1 X118.66 Y110 E24.51314
G1 X118.66 Y101.34 E24.85878
G1 X101.34 Y101.34 E25.55006
G0 F7500 X101.1 Y101.34
G0 X118.828 Y101.172
G0 X118.9 Y102.054
G0 X118.459 Y102.054
G1 F1500 X117.944 Y101.539 E25.57913
G0 F7500 X117.379 Y101.539
G1 F1500 X118.459 Y102.62 E25.64012
G0 F7500 X118.459 Y103.185
G1 F1500 X116.813 Y101.539 E25.73303
G0 F7500 X116.247 Y101.539
G1 F1500 X118.459 Y103.751 E25.85788
G0 F7500 X118.459 Y104.317
G1 F1500 X115.681 Y101.539 E26.01468
G0 F7500 X115.116 Y101.539
G1 F1500 X118.459 Y104.883 E26.20341
G0 F7500 X118.459 Y105.448
G1 F1500 X114.55 Y101.539 E26.42405
G0 F7500 X113.984 Y101.539
G1 F1500 X118.459 Y106.014 E26.67664
G0 F7500 X118.459 Y106.58
G1 F1500 X113.419 Y101.539 E26.96114
G0 F7500 X112.853 Y101.539
G1 F1500 X118.459 Y107.145 E27.27757
G0 F7500 X118.459 Y107.711
G1 F1500 X112.287 Y101.539 E27.62594
G0 F7500 X111.722 Y101.539
G1 F1500 X118.459 Y108.277 E28.00624
G0 F7500 X118.459 Y108.842
G1 F1500 X111.156 Y101.539 E28.41845
G0 F7500 X110.59 Y101.539
G1 F1500 X118.459 Y109.408 E28.86261
G0 F7500 X118.459 Y109.974
G1 F1500 X110.025 Y101.539 E29.33869
G0 F7500 X109.459 Y101.539
G1 F1500 X118.459 Y110.539 E29.84669
G0 F7500 X118.459 Y111.105
G1 F1500 X108.893 Y101.539 E30.38664
G0 F7500 X108.328 Y101.539
G1 F1500 X118.459 Y111.671 E30.9585
G0 F7500 X118.459 Y112.236
G1 F1500 X107.762 Y101.539 E31.56229
G0 F7500 X107.196 Y101.539
G1 F1500 X118.459 Y112.802 E32.19802
G0 F7500 X118.459 Y113.368
G1 F1500 X106.63 Y101.539 E32.8657
G0 F7500 X106.065 Y101.539
G1 F1500 X118.459 Y113.933 E33.56527
G0 F7500 X118.459 Y114.499
G1 F1500 X105.499 Y101.539 E34.29679
G0 F7500 X104.933 Y101.539
G1 F1500 X118.459 Y115.065 E35.06025
G0 F7500 X118.459 Y115.631
G1 F1500 X104.368 Y101.539 E35.85564
G0 F7500 X103.802 Y101.539
G1 F1500 X118.459 Y116.196 E36.68294
G0 F7500 X118.459 Y116.762
G1 F1500 X103.236 Y101.539 E37.5422
G0 F7500 X102.671 Y101.539
G1 F1500 X118.459 Y117.328 E38.43337
G0 F7500 X118.459 Y117.893
G1 F1500 X102.105 Y101.539 E39.35646
G0 F7500 X101.539 Y101.539
G1 F1500 X118.459 Y118.459 E40.31149
G0 F7500 X117.893 Y118.459
G1 F1500 X101.539 Y102.105 E41.23458
G0 F7500 X101.539 Y102.671
G1 F1500 X117.328 Y118.459 E42.12576
G0 F7500 X116.762 Y118.459
G1 F1500 X101.539 Y103.236 E42.98501
G0 F7500 X101.539 Y103.802
G1 F1500 X116.196 Y118.459 E43.81231
G0 F7500 X115.631 Y118.459
G1 F1500 X101.539 Y104.368 E44.6077
G0 F7500 X101.539 Y104.933
G1 F1500 X115.065 Y118.459 E45.37116
G0 F7500 X114.499 Y118.459
G1 F1500 X101.539 Y105.499 E46.10268
G0 F7500 X101.539 Y106.065
G1 F1500 X113.933 Y118.459 E46.80225
G0 F7500 X113.368 Y118.459
G1 F1500 X101.539 Y106.63 E47.46993
G0 F7500 X101.539 Y107.196
G1 F1500 X112.802 Y118.459 E48.10566
G0 F7500 X112.236 Y118.459
G1 F1500 X101.539 Y107.762 E48.70945
G0 F7500 X101.539 Y108.328
G1 F1500 X111.671 Y118.459 E49.28132
G0 F7500 X111.105 Y118.459
G1 F1500 X101.539 Y108.893 E49.82126
G0 F7500 X101.539 Y109.459
G1 F1500 X110.539 Y118.459 E50.32926
G0 F7500 X109.974 Y118.459
G1 F1500 X101.539 Y110.025 E50.80534
G0 F7500 X101.539 Y110.59
G1 F1500 X109.408 Y118.459 E51.2495
G0 F7500 X108.842 Y118.459
G1 F1500 X101.539 Y111.156 E51.66171
G0 F7500 X101.539 Y111.722
G1 F1500 X108.277 Y118.459 E52.04201
G0 F7500 X107.711 Y118.459
G1 F1500 X101.539 Y112.287 E52.39038
G0 F7500 X101.539 Y112.853
G1 F1500 X107.145 Y118.459 E52.70681
G0 F7500 X106.58 Y118.459
G1 F1500 X101.539 Y113.419 E52.99132
G0 F7500 X101.539 Y113.984
G1 F1500 X106.014 Y118.459 E53.2439
G0 F7500 X105.448 Y118.459
G1 F1500 X101.539 Y114.55 E53.46455
G0 F7500 X101.539 Y115.116
G1 F1500 X104.883 Y118.459 E53.65327
G0 F7500 X104.317 Y118.459
G1 F1500 X101.539 Y115.681 E53.81007
G0 F7500 X101.539 Y116.247
G1 F1500 X103.751 Y118.459 E53.93492
G0 F7500 X103.185 Y118.459
G1 F1500 X101.539 Y116.813 E54.02783
G0 F7500 X101.539 Y117.379
G1 F1500 X102.62 Y118.459 E54.08882
G0 F7500 X102.054 Y118.459
M104 S205
G1 F1500 X101.539 Y117.944 E54.11789
;MESH:NONMESH
G0 F300 X101.539 Y117.944 Z0.44
G0 F7500 X101.1 Y117.944
G0 X101 Y101
;TIME_ELAPSED:65.258252
;LAYER:1
M106 S255
;TYPE:WALL-INNER
;MESH:xyzCalibration_cube.stl
G1 F5250 X101 Y119 E54.71657
G1 X119 Y119 E55.31525
G1 X119 Y110 E55.61459
G1 X119 Y101 E55.91394
G1 X101 Y101 E56.51262
G0 F12750 X100.6 Y100.6
G1 F5250 X100.6 Y119.4 E57.13791
G1 X119.4 Y119.4 E57.7632
G1 X119.4 Y110 E58.07584
G1 X119.4 Y100.6 E58.38849
G1 X100.6 Y100.6 E59.01378
G0 F12750 X100.2 Y100.2
;TYPE:WALL-OUTER
G1 F5250 X100.2 Y119.8 E59.66568
G1 X119.8 Y119.8 E60.31758
G1 X119.8 Y110 E60.64353
G1 X119.8 Y100.2 E60.96948
G1 X100.2 Y100.2 E61.62137
G0 F12750 X100.47 Y100.47
G0 X101.34 Y101.34
;TYPE:SKIN
G1 F5250 X101.34 Y118.66 E62.19744
G1 X118.66 Y118.66 E62.77351
G1 X118.66 Y110 E63.06154
G1 X118.66 Y101.34 E63.34957
G1 X101.34 Y101.34 E63.92564
G0 F12750 X101.539 Y102.106
G1 F5250 X102.106 Y101.539 E63.95231
G0 F12750 X102.672 Y101.539
G1 F5250 X101.539 Y102.672 E64.0056
G0 F12750 X101.539 Y103.238
G1 F5250 X103.238 Y101.539 E64.08552
G0 F12750 X103.803 Y101.539
G1 F5250 X101.539 Y103.803 E64.19201
G0 F12750 X101.539 Y104.369
G1 F5250 X104.369 Y101.539 E64.32512
G0 F12750 X104.935 Y101.539
G1 F5250 X101.539 Y104.935 E64.48486
G0 F12750 X101.539 Y105.501
G1 F5250 X105.501 Y101.539 E64.67122
G0 F12750 X106.066 Y101.539
G1 F5250 X101.539 Y106.066 E64.88416
G0 F12750 X101.539 Y106.632
G1 F5250 X106.632 Y101.539 E65.12371
G0 F12750 X107.198 Y101.539
G1 F5250 X101.539 Y107.198 E65.3899
G0 F12750 X101.539 Y107.763
G1 F5250 X107.763 Y101.539 E65.68265
G0 F12750 X108.329 Y101.539
G1 F5250 X101.539 Y108.329 E66.00204
G0 F12750 X101.539 Y108.895
G1 F5250 X108.895 Y101.539 E66.34804
G0 F12750 X109.46 Y101.539
G1 F5250 X101.539 Y109.46 E66.72062
G0 F12750 X101.539 Y110.026
G1 F5250 X110.026 Y101.539 E67.11982
G0 F12750 X110.592 Y101.539
G1 F5250 X101.539 Y110.592 E67.54565
G0 F12750 X101.539 Y111.157
G1 F5250 X111.157 Y101.539 E67.99805
G0 F12750 X111.723 Y101.539
G1 F5250 X101.539 Y111.723 E68.47707
G0 F12750 X101.539 Y112.289
G1 F5250 X112.289 Y101.539 E68.98272
G0 F12750 X112.854 Y101.539
G1 F5250 X101.539 Y112.854 E69.51494
G0 F12750 X101.539 Y113.42
G1 F5250 X113.42 Y101.539 E70.07379
G0 F12750 X113.986 Y101.539
G1 F5250 X101.539 Y113.986 E70.65926
G0 F12750 X101.539 Y114.552
G1 F5250 X114.552 Y101.539 E71.27135
G0 F12750 X115.117 Y101.539
G1 F5250 X101.539 Y115.117 E71.91002
G0 F12750 X101.539 Y115.683
G1 F5250 X115.683 Y101.539 E72.57531
G0 F12750 X116.249 Y101.539
G1 F5250 X101.539 Y116.249 E73.26722
G0 F12750 X101.539 Y116.814
G1 F5250 X116.814 Y101.539 E73.98571
G0 F12750 X117.38 Y101.539
G1 F5250 X101.539 Y117.38 E74.73082
G0 F12750 X101.539 Y117.946
G1 F5250 X117.946 Y101.539 E75.50256
G0 F12750 X118.459 Y101.592
G1 F5250 X101.592 Y118.459 E76.29593
G0 F12750 X102.157 Y118.459
G1 F5250 X118.459 Y102.157 E77.06272
G0 F12750 X118.459 Y102.723
G1 F5250 X102.723 Y118.459 E77.8029
G0 F12750 X103.289 Y118.459
G1 F5250 X118.459 Y103.289 E78.51645
G0 F12750 X118.459 Y103.854
G1 F5250 X103.854 Y118.459 E79.20342
G0 F12750 X104.42 Y118.459
G1 F5250 X118.459 Y104.42 E79.86377
G0 F12750 X118.459 Y104.986
G1 F5250 X104.986 Y118.459 E80.4975
G0 F12750 X105.551 Y118.459
G1 F5250 X118.459 Y105.551 E81.10465
G0 F12750 X118.459 Y106.117
G1 F5250 X106.117 Y118.459 E81.68518
G0 F12750 X106.683 Y118.459
G1 F5250 X118.459 Y106.683 E82.23909
G0 F12750 X118.459 Y107.249
G1 F5250 X107.249 Y118.459 E82.76637
G0 F12750 X107.814 Y118.459
G1 F5250 X118.459 Y107.814 E83.26708
G0 F12750 X118.459 Y108.38
G1 F5250 X108.38 Y118.459 E83.74117
G0 F12750 X108.946 Y118.459
G1 F5250 X118.459 Y108.946 E84.18863
G0 F12750 X118.459 Y109.511
G1 F5250 X109.511 Y118.459 E84.60952
G0 F12750 X110.077 Y118.459
G1 F5250 X118.459 Y110.077 E85.00378
G0 F12750 X118.459 Y110.643
G1 F5250 X110.643 Y118.459 E85.37142
G0 F12750 X111.208 Y118.459
G1 F5250 X118.459 Y111.208 E85.71249
G0 F12750 X118.459 Y111.774
G1 F5250 X111.774 Y118.459 E86.02693
G0 F12750 X112.34 Y118.459
G1 F5250 X118.459 Y112.34 E86.31475
G0 F12750 X118.459 Y112.905
G1 F5250 X112.905 Y118.459 E86.57599
G0 F12750 X113.471 Y118.459
G1 F5250 X118.459 Y113.471 E86.81061
G0 F12750 X118.459 Y114.037
G1 F5250 X114.037 Y118.459 E87.01861
G0 F12750 X114.602 Y118.459
G1 F5250 X118.459 Y114.602 E87.20003
G0 F12750 X118.459 Y115.168
G1 F5250 X115.168 Y118.459 E87.35483
G0 F12750 X115.734 Y118.459
G1 F5250 X118.459 Y115.734 E87.483
G0 F12750 X118.459 Y116.299
