;FLAVOR:Marlin
;TIME:254
;Filament used: 0.561139m
;Layer height: 0.25
;MINX:84.4
;MINY:94.4
;MINZ:0.28
;MAXX:135.6
;MAXY:125.6
;MAXZ:10.03
;Generated with Cura_SteamEngine 5.2.2
M82 ;absolute extrusion mode
SET_GCODE_VARIABLE MACRO=START_PRINT VARIABLE=bed_temp VALUE=60
SET_GCODE_VARIABLE MACRO=START_PRINT VARIABLE=extruder_temp VALUE=205
START_PRINT
G92 E0
G92 E0
G1 F2700 E-0.7
;LAYER_COUNT:40
;LAYER:0
M107
G0 F9000 X86.314 Y95.801 Z0.28
;TYPE:SKIRT
G1 F2700 E0
G1 F3000 X86.843 Y95.39 E0.03119
G1 X87.416 Y95.045 E0.06234
G1 X88.027 Y94.772 E0.0935
G1 X88.665 Y94.573 E0.12462
G1 X89.323 Y94.451 E0.15578
G1 X89.852 Y94.411 E0.18048
G1 X90.33 Y94.4 E0.20275
G1 X129.293 Y94.4 E2.01703
G1 X130.071 Y94.411 E2.05326
G1 X130.738 Y94.46 E2.0844
G1 X131.395 Y94.589 E2.11558
G1 X132.031 Y94.795 E2.14671
G1 X132.639 Y95.076 E2.17789
G1 X133.208 Y95.426 E2.209
G1 X133.732 Y95.843 E2.24018
G1 X134.202 Y96.319 E2.27133
G1 X134.612 Y96.847 E2.30246
G1 X134.957 Y97.421 E2.33364
G1 X135.23 Y98.032 E2.36481
G1 X135.428 Y98.671 E2.39596
G1 X135.549 Y99.329 E2.42711
G1 X135.589 Y99.853 E2.45158
G1 X135.6 Y100.33 E2.4738
G1 X135.6 Y119.333 E3.35866
G1 X135.591 Y120.06 E3.39251
G1 X135.542 Y120.728 E3.4237
G1 X135.415 Y121.384 E3.45481
G1 X135.21 Y122.021 E3.48597
G1 X134.931 Y122.629 E3.51712
G1 X134.581 Y123.199 E3.54827
G1 X134.165 Y123.724 E3.57946
G1 X133.69 Y124.195 E3.61061
G1 X133.163 Y124.606 E3.64172
G1 X132.59 Y124.952 E3.67289
G1 X131.98 Y125.226 E3.70403
G1 X131.341 Y125.426 E3.73521
G1 X130.683 Y125.548 E3.76637
G1 X130.148 Y125.589 E3.79136
G1 X129.67 Y125.6 E3.81362
G1 X90.635 Y125.6 E5.63125
G1 X89.937 Y125.591 E5.66376
G1 X89.27 Y125.542 E5.6949
G1 X88.613 Y125.414 E5.72607
G1 X87.976 Y125.209 E5.75723
G1 X87.368 Y124.929 E5.78839
G1 X86.798 Y124.579 E5.81954
G1 X86.274 Y124.163 E5.85069
G1 X85.803 Y123.688 E5.88184
G1 X85.392 Y123.16 E5.913
G1 X85.047 Y122.587 E5.94414
G1 X84.773 Y121.977 E5.97528
G1 X84.573 Y121.338 E6.00646
G1 X84.452 Y120.68 E6.03761
G1 X84.411 Y120.142 E6.06274
G1 X84.4 Y119.658 E6.08528
G1 X84.401 Y100.598 E6.97279
G1 X84.41 Y99.933 E7.00376
G1 X84.459 Y99.266 E7.0349
G1 X84.587 Y98.609 E7.06607
G1 X84.792 Y97.973 E7.09719
G1 X85.072 Y97.365 E7.12836
G1 X85.423 Y96.795 E7.15953
G1 X85.839 Y96.271 E7.19068
G1 X86.314 Y95.801 E7.22179
G0 F9000 X86.703 Y95.995
G1 F3000 X87.226 Y95.617 E7.25184
G1 X87.79 Y95.306 E7.28183
G1 X88.389 Y95.068 E7.31185
G1 X89.013 Y94.905 E7.34188
G1 X89.863 Y94.811 E7.3817
G1 X90.33 Y94.8 E7.40345
G1 X129.293 Y94.8 E9.21773
G1 X130.065 Y94.811 E9.25368
G1 X130.708 Y94.86 E9.28371
G1 X131.34 Y94.988 E9.31373
G1 X131.951 Y95.194 E9.34376
G1 X132.532 Y95.473 E9.37377
G1 X133.074 Y95.822 E9.40379
G1 X133.568 Y96.236 E9.4338
G1 X134.008 Y96.708 E9.46385
G1 X134.386 Y97.23 E9.49386
G1 X134.696 Y97.795 E9.52387
G1 X134.934 Y98.394 E9.55388
G1 X135.096 Y99.018 E9.5839
G1 X135.189 Y99.864 E9.62353
G1 X135.2 Y100.33 E9.64523
G1 X135.2 Y119.328 E10.52986
G1 X135.191 Y120.055 E10.56371
G1 X135.143 Y120.698 E10.59374
G1 X135.016 Y121.33 E10.62376
G1 X134.811 Y121.942 E10.65381
G1 X134.533 Y122.523 E10.6838
G1 X134.185 Y123.066 E10.71383
G1 X133.772 Y123.561 E10.74385
G1 X133.301 Y124.001 E10.77386
G1 X132.779 Y124.38 E10.8039
G1 X132.215 Y124.691 E10.83389
G1 X131.616 Y124.93 E10.86392
G1 X130.993 Y125.094 E10.89392
G1 X130.137 Y125.189 E10.93402
G1 X129.67 Y125.2 E10.95577
G1 X90.64 Y125.2 E12.77317
G1 X89.942 Y125.191 E12.80568
G1 X89.299 Y125.142 E12.83571
G1 X88.667 Y125.015 E12.86572
G1 X88.056 Y124.81 E12.89573
G1 X87.475 Y124.532 E12.92572
G1 X86.932 Y124.183 E12.95578
G1 X86.437 Y123.77 E12.9858
G1 X85.997 Y123.299 E13.01581
G1 X85.618 Y122.777 E13.04585
G1 X85.307 Y122.213 E13.07584
G1 X85.069 Y121.614 E13.10585
G1 X84.906 Y120.99 E13.13588
G1 X84.811 Y120.131 E13.17613
G1 X84.8 Y119.658 E13.19816
G1 X84.8 Y100.604 E14.08539
G1 X84.809 Y99.939 E14.11636
G1 X84.858 Y99.296 E14.14639
G1 X84.986 Y98.664 E14.17641
G1 X85.191 Y98.053 E14.20642
G1 X85.47 Y97.472 E14.23643
G1 X85.819 Y96.929 E14.26649
G1 X86.232 Y96.435 E14.29647
G1 X86.703 Y95.995 E14.32648
G1 F2700 E13.62648
;MESH:Cube
G0 F9000 X90.414 Y99.335
G0 X90.6 Y100.6
;TYPE:WALL-INNER
G1 F2700 E14.32648
G1 F3000 X90.6 Y119.4 E15.20189
G1 X129.4 Y119.4 E17.00858
G1 X129.4 Y110 E17.44629
G1 X129.4 Y100.6 E17.88399
G1 X90.6 Y100.6 E19.69068
G0 F9000 X90.2 Y100.2
;TYPE:WALL-OUTER
G1 F3000 X90.2 Y119.8 E20.60334
G1 X129.8 Y119.8 E22.44728
G1 X129.8 Y110 E22.90361
G1 X129.8 Y100.2 E23.35994
G1 X90.2 Y100.2 E25.20388
G0 F9000 X90.47 Y100.47
G0 X90.7 Y100.94
G0 X90.94 Y100.94
;TYPE:SKIN
G1 F3000 X90.94 Y119.06 E26.04762
G1 X129.06 Y119.06 E27.82265
G1 X129.06 Y110 E28.24452
G1 X129.06 Y100.94 E28.66639
G1 X90.94 Y100.94 E30.44142
G0 F9000 X90.7 Y100.94
G0 X90.772 Y119.228
G0 X91.706 Y119.3
G0 X91.706 Y118.858
G1 F3000 X91.139 Y118.292 E30.47872
G0 F9000 X91.139 Y117.726
G1 F3000 X92.271 Y118.858 E30.55327
G0 F9000 X92.837 Y118.858
G1 F3000 X91.139 Y117.161 E30.66505
G0 F9000 X91.139 Y116.595
G1 F3000 X93.403 Y118.858 E30.81411
G0 F9000 X93.968 Y118.858
G1 F3000 X91.139 Y116.029 E31.0004
G0 F9000 X91.139 Y115.464
G1 F3000 X94.534 Y118.858 E31.22394
G0 F9000 X95.1 Y118.858
G1 F3000 X91.139 Y114.898 E31.48474
G0 F9000 X91.139 Y114.332
G1 F3000 X95.665 Y118.858 E31.78279
G0 F9000 X96.231 Y118.858
G1 F3000 X91.139 Y113.767 E32.11807
G0 F9000 X91.139 Y113.201
G1 F3000 X96.797 Y118.858 E32.49063
G0 F9000 X97.362 Y118.858
G1 F3000 X91.139 Y112.635 E32.90042
G0 F9000 X91.139 Y112.07
G1 F3000 X97.928 Y118.858 E33.34746
G0 F9000 X98.494 Y118.858
G1 F3000 X91.139 Y111.504 E33.83176
G0 F9000 X91.139 Y110.938
G1 F3000 X99.06 Y118.858 E34.35334
G0 F9000 X99.625 Y118.858
G1 F3000 X91.139 Y110.373 E34.91212
G0 F9000 X91.139 Y109.807
G1 F3000 X100.191 Y118.858 E35.50818
G0 F9000 X100.757 Y118.858
G1 F3000 X91.139 Y109.241 E36.14151
G0 F9000 X91.139 Y108.675
G1 F3000 X101.322 Y118.858 E36.81208
G0 F9000 X101.888 Y118.858
G1 F3000 X91.139 Y108.11 E37.51989
G0 F9000 X91.139 Y107.544
G1 F3000 X102.454 Y118.858 E38.26496
G0 F9000 X103.019 Y118.858
G1 F3000 X91.139 Y106.978 E39.04728
G0 F9000 X91.139 Y106.413
G1 F3000 X103.585 Y118.858 E39.86684
G0 F9000 X104.151 Y118.858
G1 F3000 X91.139 Y105.847 E40.72367
G0 F9000 X91.139 Y105.281
G1 F3000 X104.716 Y118.858 E41.61774
G0 F9000 X105.282 Y118.858
G1 F3000 X91.139 Y104.716 E42.54905
G0 F9000 X91.139 Y104.15
G1 F3000 X105.848 Y118.858 E43.51763
G0 F9000 X106.413 Y118.858
G1 F3000 X91.139 Y103.584 E44.52344
G0 F9000 X91.139 Y103.019
G1 F3000 X106.979 Y118.858 E45.5665
G0 F9000 X107.545 Y118.858
G1 F3000 X91.139 Y102.453 E46.64683
G0 F9000 X91.139 Y101.887
G1 F3000 X108.11 Y118.858 E47.7644
G0 F9000 X108.676 Y118.858
G1 F3000 X91.139 Y101.322 E48.91921
G0 F9000 X91.523 Y101.14
G1 F3000 X109.242 Y118.858 E50.086
G0 F9000 X109.808 Y118.858
G1 F3000 X92.089 Y101.14 E51.2528
G0 F9000 X92.655 Y101.14
G1 F3000 X110.373 Y118.858 E52.41956
G0 F9000 X110.939 Y118.858
G1 F3000 X93.22 Y101.14 E53.58635
G0 F9000 X93.786 Y101.14
G1 F3000 X111.505 Y118.858 E54.75315
G0 F9000 X112.07 Y118.858
G1 F3000 X94.352 Y101.14 E55.91991
G0 F9000 X94.917 Y101.14
G1 F3000 X112.636 Y118.858 E57.0867
G0 F9000 X113.202 Y118.858
G1 F3000 X95.483 Y101.14 E58.25349
G0 F9000 X96.049 Y101.14
G1 F3000 X113.767 Y118.858 E59.42025
G0 F9000 X114.333 Y118.858
G1 F3000 X96.614 Y101.14 E60.58705
G0 F9000 X97.18 Y101.14
G1 F3000 X114.899 Y118.858 E61.75384
G0 F9000 X115.464 Y118.858
G1 F3000 X97.746 Y101.14 E62.9206
G0 F9000 X98.311 Y101.14
G1 F3000 X116.03 Y118.858 E64.08739
G0 F9000 X116.596 Y118.858
G1 F3000 X98.877 Y101.14 E65.25419
G0 F9000 X99.443 Y101.14
G1 F3000 X117.161 Y118.858 E66.42095
G0 F9000 X117.727 Y118.858
G1 F3000 X100.008 Y101.14 E67.58774
G0 F9000 X100.574 Y101.14
G1 F3000 X118.293 Y118.858 E68.75454
G0 F9000 X118.858 Y118.858
G1 F3000 X101.14 Y101.14 E69.9213
G0 F9000 X101.705 Y101.14
G1 F3000 X119.424 Y118.858 E71.08809
G0 F9000 X119.99 Y118.858
G1 F3000 X102.271 Y101.14 E72.25488
G0 F9000 X102.837 Y101.14
G1 F3000 X120.556 Y118.858 E73.42168
G0 F9000 X121.121 Y118.858
G1 F3000 X103.403 Y101.14 E74.58844
G0 F9000 X103.968 Y101.14
G1 F3000 X121.687 Y118.858 E75.75523
G0 F9000 X122.253 Y118.858
G1 F3000 X104.534 Y101.14 E76.92202
G0 F9000 X105.1 Y101.14
G1 F3000 X122.818 Y118.858 E78.08878
G0 F9000 X123.384 Y118.858
G1 F3000 X105.665 Y101.14 E79.25558
G0 F9000 X106.231 Y101.14
G1 F3000 X123.95 Y118.858 E80.42237
G0 F9000 X124.515 Y118.858
G1 F3000 X106.797 Y101.14 E81.58913
G0 F9000 X107.362 Y101.14
G1 F3000 X125.081 Y118.858 E82.75593
G0 F9000 X125.647 Y118.858
G1 F3000 X107.928 Y101.14 E83.92272
G0 F9000 X108.494 Y101.14
G1 F3000 X126.212 Y118.858 E85.08948
G0 F9000 X126.778 Y118.858
G1 F3000 X109.059 Y101.14 E86.25627
G0 F9000 X109.625 Y101.14
G1 F3000 X127.344 Y118.858 E87.42307
G0 F9000 X127.909 Y118.858
G1 F3000 X110.191 Y101.14 E88.58983
G0 F9000 X110.756 Y101.14
G1 F3000 X128.475 Y118.858 E89.75662
G0 F9000 X128.859 Y118.677
G1 F3000 X111.322 Y101.14 E90.91146
G0 F9000 X111.888 Y101.14
G1 F3000 X128.859 Y118.111 E92.02903
G0 F9000 X128.859 Y117.545
G1 F3000 X112.454 Y101.14 E93.10933
G0 F9000 X113.019 Y101.14
G1 F3000 X128.859 Y116.98 E94.15242
G0 F9000 X128.859 Y116.414
G1 F3000 X113.585 Y101.14 E95.15824
G0 F9000 X114.151 Y101.14
G1 F3000 X128.859 Y115.848 E96.12679
G0 F9000 X128.859 Y115.283
G1 F3000 X114.716 Y101.14 E97.05813
G0 F9000 X115.282 Y101.14
G1 F3000 X128.859 Y114.717 E97.95219
G0 F9000 X128.859 Y114.151
G1 F3000 X115.848 Y101.14 E98.80899
G0 F9000 X116.413 Y101.14
G1 F3000 X128.859 Y113.586 E99.62858
G0 F9000 X128.859 Y113.02
G1 F3000 X116.979 Y101.14 E100.4109
G0 F9000 X117.545 Y101.14
G1 F3000 X128.859 Y112.454 E101.15595
G0 F9000 X128.859 Y111.889
G1 F3000 X118.11 Y101.14 E101.86379
G0 F9000 X118.676 Y101.14
G1 F3000 X128.859 Y111.323 E102.53435
G0 F9000 X128.859 Y110.757
G1 F3000 X119.242 Y101.14 E103.16765
G0 F9000 X119.807 Y101.14
G1 F3000 X128.859 Y110.191 E103.76371
G0 F9000 X128.859 Y109.626
G1 F3000 X120.373 Y101.14 E104.32252
G0 F9000 X120.939 Y101.14
G1 F3000 X128.859 Y109.06 E104.84407
G0 F9000 X128.859 Y108.494
G1 F3000 X121.504 Y101.14 E105.32838
G0 F9000 X122.07 Y101.14
G1 F3000 X128.859 Y107.929 E105.77544
G0 F9000 X128.859 Y107.363
G1 F3000 X122.636 Y101.14 E106.18524
G0 F9000 X123.202 Y101.14
G1 F3000 X128.859 Y106.797 E106.55776
G0 F9000 X128.859 Y106.232
G1 F3000 X123.767 Y101.14 E106.89308
G0 F9000 X124.333 Y101.14
G1 F3000 X128.859 Y105.666 E107.19112
G0 F9000 X128.859 Y105.1
G1 F3000 X124.899 Y101.14 E107.4519
G0 F9000 X125.464 Y101.14
G1 F3000 X128.859 Y104.535 E107.67546
G0 F9000 X128.859 Y103.969
G1 F3000 X126.03 Y101.14 E107.86176
G0 F9000 X126.596 Y101.14
G1 F3000 X128.859 Y103.403 E108.01078
G0 F9000 X128.859 Y102.838
G1 F3000 X127.161 Y101.14 E108.1226
G0 F9000 X127.727 Y101.14
G1 F3000 X128.859 Y102.272 E108.19714
G0 F9000 X128.859 Y101.706
M104 S205
G1 F3000 X128.293 Y101.14 E108.23441
G1 F2700 E107.53441
;MESH:NONMESH
G0 F300 X128.293 Y101.14 Z0.53
G0 F9000 X128.293 Y100.7
G0 X90.6 Y100.6
;TIME_ELAPSED:65.128703
;LAYER:1
M106 S255
;TYPE:WALL-INNER
;MESH:Cube
G1 F2700 E108.23441
G1 F6000 X90.6 Y119.4 E109.01603
G1 X129.4 Y119.4 E110.62914
G1 X129.4 Y110 E111.01995
G1 X129.4 Y100.6 E111.41076
G1 X90.6 Y100.6 E113.02387
G0 F13500 X90.2 Y100.2
;TYPE:WALL-OUTER
G1 F6000 X90.2 Y119.8 E113.83874
G1 X129.8 Y119.8 E115.48512
G1 X129.8 Y110 E115.89256
G1 X129.8 Y100.2 E116.29999
G1 X90.2 Y100.2 E117.94637
G0 F13500 X90.47 Y100.47
G0 X90.94 Y100.94
;TYPE:SKIN
G1 F6000 X90.94 Y119.06 E118.69971
G1 X129.06 Y119.06 E120.28456
G1 X129.06 Y110 E120.66123
G1 X129.06 Y100.94 E121.0379
G1 X90.94 Y100.94 E122.62275
G0 F13500 X91.14 Y101.758
G1 F6000 X91.759 Y101.139 E122.65914
G0 F13500 X92.324 Y101.139
G1 F6000 X91.14 Y102.324 E122.72879
G0 F13500 X91.14 Y102.889
G1 F6000 X92.89 Y101.139 E122.83168
G0 F13500 X93.456 Y101.139
G1 F6000 X91.14 Y103.455 E122.96785
G0 F13500 X91.14 Y104.021
G1 F6000 X94.021 Y101.139 E123.13727
G0 F13500 X94.587 Y101.139
G1 F6000 X91.14 Y104.586 E123.33994
G0 F13500 X91.14 Y105.152
G1 F6000 X95.153 Y101.139 E123.57589
G0 F13500 X95.718 Y101.139
G1 F6000 X91.14 Y105.718 E123.84509
G0 F13500 X91.14 Y106.283
G1 F6000 X96.284 Y101.139 E124.14754
G0 F13500 X96.85 Y101.139
G1 F6000 X91.14 Y106.849 E124.48326
G0 F13500 X91.14 Y107.415
G1 F6000 X97.415 Y101.139 E124.85224
G0 F13500 X97.981 Y101.139
G1 F6000 X91.14 Y107.98 E125.25446
G0 F13500 X91.14 Y108.546
G1 F6000 X98.547 Y101.139 E125.68997
G0 F13500 X99.113 Y101.139
G1 F6000 X91.14 Y109.112 E126.15875
G0 F13500 X91.14 Y109.677
G1 F6000 X99.678 Y101.139 E126.66075
G0 F13500 X100.244 Y101.139
G1 F6000 X91.14 Y110.243 E127.19603
G0 F13500 X91.14 Y110.809
G1 F6000 X100.81 Y101.139 E127.76459
G0 F13500 X101.375 Y101.139
G1 F6000 X91.14 Y111.374 E128.36637
G0 F13500 X91.14 Y111.94
G1 F6000 X101.941 Y101.139 E129.00143
G0 F13500 X102.507 Y101.139
G1 F6000 X91.14 Y112.506 E129.66976
G0 F13500 X91.14 Y113.072
G1 F6000 X103.072 Y101.139 E130.37135
G0 F13500 X103.638 Y101.139
G1 F6000 X91.14 Y113.637 E131.10618
G0 F13500 X91.14 Y114.203
G1 F6000 X104.204 Y101.139 E131.87429
G0 F13500 X104.769 Y101.139
G1 F6000 X91.14 Y114.769 E132.67566
G0 F13500 X91.14 Y115.334
G1 F6000 X105.335 Y101.139 E133.51027
G0 F13500 X105.901 Y101.139
G1 F6000 X91.14 Y115.9 E134.37816
G0 F13500 X91.14 Y116.466
G1 F6000 X106.466 Y101.139 E135.2793
G0 F13500 X107.032 Y101.139
G1 F6000 X91.14 Y117.031 E136.21369
G0 F13500 X91.14 Y117.597
G1 F6000 X107.598 Y101.139 E137.18135
G0 F13500 X108.164 Y101.139
G1 F6000 X91.14 Y118.163 E138.1823
G0 F13500 X91.14 Y118.728
G1 F6000 X108.729 Y101.139 E139.21647
G0 F13500 X109.295 Y101.139
G1 F6000 X91.575 Y118.859 E140.25833
G0 F13500 X92.14 Y118.859
G1 F6000 X109.861 Y101.139 E141.30023
G0 F13500 X110.426 Y101.139
G1 F6000 X92.706 Y118.859 E142.3421
G0 F13500 X93.272 Y118.859
G1 F6000 X110.992 Y101.139 E143.38397
G0 F13500 X111.558 Y101.139
G1 F6000 X93.838 Y118.859 E144.42584
G0 F13500 X94.403 Y118.859
G1 F6000 X112.123 Y101.139 E145.4677
G0 F13500 X112.689 Y101.139
G1 F6000 X94.969 Y118.859 E146.50957
G0 F13500 X95.535 Y118.859
G1 F6000 X113.255 Y101.139 E147.55144
G0 F13500 X113.82 Y101.139
G1 F6000 X96.1 Y118.859 E148.59331
G0 F13500 X96.666 Y118.859
G1 F6000 X114.386 Y101.139 E149.63518
G0 F13500 X114.952 Y101.139
G1 F6000 X97.232 Y118.859 E150.67704
G0 F13500 X97.797 Y118.859
G1 F6000 X115.517 Y101.139 E151.71891
G0 F13500 X116.083 Y101.139
G1 F6000 X98.363 Y118.859 E152.76078
G0 F13500 X98.929 Y118.859
G1 F6000 X116.649 Y101.139 E153.80265
G0 F13500 X117.214 Y101.139
G1 F6000 X99.494 Y118.859 E154.84452
G0 F13500 X100.06 Y118.859
G1 F6000 X117.78 Y101.139 E155.88638
G0 F13500 X118.346 Y101.139
G1 F6000 X100.626 Y118.859 E156.92825
G0 F13500 X101.191 Y118.859
G1 F6000 X118.912 Y101.139 E157.97015
G0 F13500 X119.477 Y101.139
G1 F6000 X101.757 Y118.859 E159.01202
G0 F13500 X102.323 Y118.859
G1 F6000 X120.043 Y101.139 E160.05389
G0 F13500 X120.609 Y101.139
G1 F6000 X102.888 Y118.859 E161.09578
G0 F13500 X103.454 Y118.859
G1 F6000 X121.174 Y101.139 E162.13765
G0 F13500 X121.74 Y101.139
G1 F6000 X104.02 Y118.859 E163.17952
G0 F13500 X104.586 Y118.859
G1 F6000 X122.306 Y101.139 E164.22139
G0 F13500 X122.871 Y101.139
G1 F6000 X105.151 Y118.859 E165.26326
G0 F13500 X105.717 Y118.859
G1 F6000 X123.437 Y101.139 E166.30512
G0 F13500 X124.003 Y101.139
G1 F6000 X106.283 Y118.859 E167.34699
G0 F13500 X106.848 Y118.859
G1 F6000 X124.568 Y101.139 E168.38886
G0 F13500 X125.134 Y101.139
G1 F6000 X107.414 Y118.859 E169.43073
G0 F13500 X107.98 Y118.859
G1 F6000 X125.7 Y101.139 E170.4726
