; generated by PrusaSlicer 2.6.0-alpha5+win64 on 2023-03-12 at 11:09:51 UTC

; 

; external perimeters extrusion width = 0.50mm
; perimeters extrusion width = 0.50mm
; infill extrusion width = 0.50mm
; solid infill extrusion width = 0.50mm
; top infill extrusion width = 0.50mm
; support material extrusion width = 0.50mm

M107
M190 S60 ; set bed temperature and wait for it to be reached
M104 S220 ; set temperature
;TYPE:Custom
SET_GCODE_VARIABLE MACRO=START_PRINT VARIABLE=bed_temp VALUE=60
SET_GCODE_VARIABLE MACRO=START_PRINT VARIABLE=extruder_temp VALUE=220
START_PRINT
M109 S220 ; set temperature and wait for it to be reached
G21 ; set units to millimeters
G90 ; use absolute coordinates
M82 ; use absolute distances for extrusion
G92 E0
; Filament gcode
M107
;LAYER_CHANGE
;Z:0.3
;HEIGHT:0.3
;BEFORE_LAYER_CHANGE
;0.3


G1 Z.3 F18000
;AFTER_LAYER_CHANGE
;0.3
G1 E-.5 F2700
G92 E0
G1 Z.5 F18000
G1 X88.248 Y87.401
G1 Z.3
G1 E.5 F2700
;TYPE:Skirt/Brim
;WIDTH:0.5
G1 F1800
G1 X88.849 Y86.859 E.54397
G1 X90.956 Y85.076 E.69394
G1 X93.575 Y83.277 E.86657
G1 X96.362 Y81.753 E1.03916
G1 X99.29 Y80.518 E1.21182
G1 X102.328 Y79.586 E1.38448
G1 X105.444 Y78.966 E1.5571
G1 X108.607 Y78.664 E1.72974
G1 X111.784 Y78.684 E1.90236
G1 X114.944 Y79.025 E2.07505
G1 X118.052 Y79.684 E2.24767
G1 X121.078 Y80.654 E2.42032
G1 X123.99 Y81.926 E2.59297
G1 X126.758 Y83.485 E2.76558
G1 X129.355 Y85.316 E2.93823
G1 X131.752 Y87.401 E3.11084
G1 X133.927 Y89.718 E3.2835
G1 X135.632 Y91.921 E3.43486
G1 X137.33 Y94.606 E3.60747
G1 X138.747 Y97.45 E3.78011
G1 X139.869 Y100.423 E3.95276
G1 X140.685 Y103.494 E4.12541
G1 X141.186 Y106.632 E4.29807
G1 X141.366 Y109.804 E4.47069
G1 X141.225 Y112.978 E4.64331
G1 X140.764 Y116.122 E4.81596
G1 X139.986 Y119.203 E4.98861
G1 X138.902 Y122.189 E5.16121
G1 X137.52 Y125.051 E5.33389
G1 X135.856 Y127.758 E5.50653
G1 X133.927 Y130.282 E5.67913
G1 X131.752 Y132.599 E5.85179
G1 X129.355 Y134.684 E6.0244
G1 X126.425 Y136.723 E6.21835
G1 X123.637 Y138.247 E6.39098
G1 X120.71 Y139.482 E6.56359
G1 X117.672 Y140.414 E6.73625
G1 X114.556 Y141.034 E6.90887
G1 X111.393 Y141.336 E7.08151
G1 X108.216 Y141.316 E7.25413
G1 X105.056 Y140.975 E7.42682
G1 X101.948 Y140.316 E7.59944
G1 X98.922 Y139.346 E7.77209
G1 X96.01 Y138.074 E7.94474
G1 X93.242 Y136.515 E8.11735
G1 X90.645 Y134.684 E8.29
G1 X88.248 Y132.599 E8.46261
G1 X86.073 Y130.282 E8.63527
G1 X84.144 Y127.758 E8.80787
G1 X82.48 Y125.051 E8.98051
G1 X81.098 Y122.189 E9.15319
G1 X80.014 Y119.203 E9.32579
G1 X79.236 Y116.122 E9.49844
G1 X78.775 Y112.978 E9.67109
G1 X78.634 Y110.196 E9.82244
G1 X78.775 Y107.022 E9.99506
G1 X79.236 Y103.878 E10.16771
G1 X80.014 Y100.797 E10.34036
G1 X81.098 Y97.811 E10.51296
G1 X82.48 Y94.949 E10.68564
G1 X84.144 Y92.242 E10.85828
G1 X86.073 Y89.718 E11.03088
G1 X88.207 Y87.445 E11.20028
G1 X88.524 Y87.743 F18000
G1 F1800
G1 X89.133 Y87.189 E11.24501
G1 X91.204 Y85.434 E11.3925
G1 X93.786 Y83.658 E11.56277
G1 X96.534 Y82.153 E11.733
G1 X99.421 Y80.934 E11.90327
G1 X102.415 Y80.013 E12.07347
G1 X105.488 Y79.399 E12.24374
G1 X108.607 Y79.1 E12.41398
G1 X111.74 Y79.117 E12.58421
G1 X114.856 Y79.452 E12.75449
G1 X117.921 Y80.1 E12.9247
G1 X120.906 Y81.055 E13.09498
G1 X123.778 Y82.306 E13.26518
G1 X126.509 Y83.842 E13.43542
G1 X129.071 Y85.647 E13.6057
G1 X131.437 Y87.701 E13.77594
G1 X133.583 Y89.984 E13.94618
G1 X135.288 Y92.187 E14.09754
G1 X136.96 Y94.837 E14.26779
G1 X138.356 Y97.642 E14.43802
G1 X139.461 Y100.574 E14.60826
G1 X140.263 Y103.603 E14.77851
G1 X140.755 Y106.698 E14.94878
G1 X140.931 Y109.826 E15.119
G1 X140.79 Y112.956 E15.28923
G1 X140.333 Y116.056 E15.45948
G1 X139.565 Y119.094 E15.62974
G1 X138.493 Y122.038 E15.79997
G1 X137.129 Y124.859 E15.97022
G1 X135.487 Y127.527 E16.14043
G1 X133.583 Y130.016 E16.3107
G1 X131.437 Y132.299 E16.48094
G1 X129.071 Y134.353 E16.65118
G1 X126.214 Y136.342 E16.84032
G1 X123.466 Y137.847 E17.01055
G1 X120.579 Y139.066 E17.18082
G1 X117.585 Y139.987 E17.35102
G1 X114.512 Y140.601 E17.52129
G1 X111.393 Y140.9 E17.69153
G1 X108.26 Y140.883 E17.86176
G1 X105.144 Y140.548 E18.03204
G1 X102.079 Y139.9 E18.20225
G1 X99.094 Y138.945 E18.37253
G1 X96.222 Y137.694 E18.54273
G1 X93.491 Y136.158 E18.71297
G1 X90.929 Y134.353 E18.88325
G1 X88.563 Y132.299 E19.05349
G1 X86.417 Y130.016 E19.22373
G1 X84.712 Y127.813 E19.37509
G1 X83.04 Y125.163 E19.54534
G1 X81.644 Y122.358 E19.71557
G1 X80.539 Y119.426 E19.88581
G1 X79.737 Y116.397 E20.05606
G1 X79.245 Y113.302 E20.22633
G1 X79.069 Y110.174 E20.39655
G1 X79.21 Y107.044 E20.56678
G1 X79.667 Y103.944 E20.73703
G1 X80.435 Y100.906 E20.90729
G1 X81.507 Y97.962 E21.07752
G1 X82.871 Y95.141 E21.24777
G1 X84.513 Y92.473 E21.41798
G1 X86.417 Y89.984 E21.58825
G1 X88.483 Y87.787 E21.75211
;WIPE_START
G1 F14400
G1 X89.133 Y87.189 E21.59478
G1 X90.601 Y85.945 E21.25211
;WIPE_END
G92 E0
G1 Z.5 F18000
G1 X133.444 Y96.987
G1 Z.3
G1 E.5 F2700
;TYPE:Perimeter
;WIDTH:0.5
G1 F1800
G1 X134.64 Y99.426 E.64759
G1 X135.584 Y101.973 E.79517
G1 X136.265 Y104.602 E.94273
G1 X136.676 Y107.287 E1.09031
G1 X136.794 Y109.622 E1.21734
G1 X136.794 Y110.378 E1.25842
G1 X136.676 Y112.713 E1.38545
G1 X136.265 Y115.398 E1.53303
G1 X135.584 Y118.027 E1.68059
G1 X134.64 Y120.574 E1.82817
G1 X133.444 Y123.013 E1.97576
G1 X132.008 Y125.318 E2.12331
G1 X130.345 Y127.466 E2.27091
G1 X128.474 Y129.434 E2.41845
G1 X126.413 Y131.203 E2.56602
G1 X124.183 Y132.755 E2.71364
G1 X121.809 Y134.073 E2.86117
G1 X119.312 Y135.144 E3.00879
G1 X116.721 Y135.958 E3.15635
G1 X114.06 Y136.504 E3.30394
G1 X111.358 Y136.779 E3.45151
G1 X108.642 Y136.779 E3.59908
G1 X105.94 Y136.504 E3.74665
G1 X103.279 Y135.958 E3.89424
G1 X100.688 Y135.144 E4.0418
G1 X98.191 Y134.073 E4.18942
G1 X95.817 Y132.755 E4.33695
G1 X93.587 Y131.203 E4.48457
G1 X91.526 Y129.434 E4.63214
G1 X89.655 Y127.466 E4.77968
G1 X87.992 Y125.318 E4.92728
G1 X86.556 Y123.013 E5.07483
G1 X85.36 Y120.574 E5.22242
G1 X84.416 Y118.027 E5.37
G1 X83.735 Y115.398 E5.51756
G1 X83.324 Y112.713 E5.66514
G1 X83.187 Y110 E5.81273
G1 X83.324 Y107.287 E5.96032
G1 X83.735 Y104.602 E6.1079
G1 X84.416 Y101.973 E6.25546
G1 X85.36 Y99.426 E6.40304
G1 X86.556 Y96.987 E6.55063
G1 X87.992 Y94.682 E6.69818
G1 X89.655 Y92.534 E6.84578
G1 X91.526 Y90.566 E6.99332
G1 X93.587 Y88.797 E7.14089
G1 X95.817 Y87.245 E7.28851
G1 X98.191 Y85.927 E7.43604
G1 X100.688 Y84.856 E7.58366
G1 X103.279 Y84.042 E7.73122
G1 X105.94 Y83.496 E7.87881
G1 X108.642 Y83.221 E8.02638
G1 X111.358 Y83.221 E8.17395
G1 X114.06 Y83.496 E8.32152
G1 X116.721 Y84.042 E8.46911
G1 X119.312 Y84.856 E8.61667
G1 X121.809 Y85.927 E8.76429
G1 X124.183 Y87.245 E8.91182
G1 X126.413 Y88.797 E9.05944
G1 X128.474 Y90.566 E9.20701
G1 X130.345 Y92.534 E9.35455
G1 X132.008 Y94.682 E9.50215
G1 X133.413 Y96.936 E9.64646
G1 X133.826 Y96.776 F18000
;TYPE:External perimeter
G1 F1800
G1 X135.041 Y99.254 E9.79641
G1 X136 Y101.842 E9.94637
G1 X136.692 Y104.515 E10.09639
G1 X137.11 Y107.243 E10.24634
G1 X137.229 Y109.6 E10.37457
G1 X137.229 Y110.4 E10.41804
G1 X137.11 Y112.757 E10.54627
G1 X136.692 Y115.485 E10.69622
G1 X136 Y118.158 E10.84624
G1 X135.041 Y120.746 E10.9962
G1 X133.826 Y123.224 E11.14615
G1 X132.366 Y125.567 E11.29614
G1 X130.676 Y127.75 E11.44614
G1 X128.774 Y129.75 E11.5961
G1 X126.68 Y131.548 E11.74606
G1 X124.414 Y133.125 E11.89606
G1 X122.001 Y134.465 E12.04602
G1 X119.464 Y135.553 E12.196
G1 X116.83 Y136.38 E12.346
G1 X114.126 Y136.935 E12.49598
G1 X111.38 Y137.215 E12.64595
G1 X108.62 Y137.215 E12.79591
G1 X105.874 Y136.935 E12.94588
G1 X103.17 Y136.38 E13.09586
G1 X100.536 Y135.553 E13.24586
G1 X97.999 Y134.465 E13.39584
G1 X95.586 Y133.125 E13.5458
G1 X93.32 Y131.548 E13.6958
G1 X91.226 Y129.75 E13.84576
G1 X89.324 Y127.75 E13.99572
G1 X87.634 Y125.567 E14.14572
G1 X86.174 Y123.224 E14.29571
G1 X84.959 Y120.746 E14.44566
G1 X84 Y118.158 E14.59562
G1 X83.308 Y115.485 E14.74564
G1 X82.89 Y112.757 E14.89559
G1 X82.75 Y110 E15.04558
G1 X82.89 Y107.243 E15.19557
G1 X83.308 Y104.515 E15.34552
G1 X84 Y101.842 E15.49554
G1 X84.959 Y99.254 E15.6455
G1 X86.174 Y96.776 E15.79545
G1 X87.634 Y94.433 E15.94544
G1 X89.324 Y92.25 E16.09544
G1 X91.226 Y90.25 E16.2454
G1 X93.32 Y88.452 E16.39536
G1 X95.586 Y86.875 E16.54536
G1 X97.999 Y85.535 E16.69532
G1 X100.536 Y84.447 E16.8453
G1 X103.17 Y83.62 E16.9953
G1 X105.874 Y83.065 E17.14528
G1 X108.62 Y82.785 E17.29525
G1 X111.38 Y82.785 E17.44521
G1 X114.126 Y83.065 E17.59518
G1 X116.83 Y83.62 E17.74516
G1 X119.464 Y84.447 E17.89516
G1 X122.001 Y85.535 E18.04514
G1 X124.414 Y86.875 E18.1951
G1 X126.68 Y88.452 E18.3451
G1 X128.774 Y90.25 E18.49506
G1 X130.676 Y92.25 E18.64502
G1 X132.366 Y94.433 E18.79502
G1 X133.794 Y96.725 E18.94174
G1 X133.62 Y97.119 F18000
;WIPE_START
G1 F14400
G1 X135.035 Y99.243 E18.44174
;WIPE_END
G92 E0
G1 Z.5 F18000
G1 X129.678 Y101.361
G1 Z.3
G1 E.5 F2700
;TYPE:Perimeter
G1 F1800
G1 X129.311 Y101.87 E.53409
G1 X128.76 Y102.322 E.57281
G1 X128.11 Y102.615 E.61155
G1 X127.406 Y102.73 E.65031
G1 X126.696 Y102.659 E.68908
G1 X126.081 Y102.429 E.72475
G1 X125.881 Y102.322 E.73707
G1 X125.45 Y101.991 E.7666
G1 X124.999 Y101.439 E.80533
G1 X124.705 Y100.789 E.84409
G1 X124.59 Y100.085 E.88285
G1 X124.587 Y99.943 E.89057
G1 X124.661 Y99.376 E.92164
G1 X124.906 Y98.726 E.95938
G1 X125.326 Y98.134 E.99882
G1 X125.881 Y97.678 E1.03785
G1 X126.531 Y97.385 E1.07659
G1 X127.217 Y97.272 E1.11436
G1 X127.779 Y97.32 E1.14501
G1 X128.109 Y97.385 E1.16328
G1 X128.612 Y97.593 E1.19285
G1 X129.191 Y98.009 E1.23159
G1 X129.642 Y98.561 E1.27032
G1 X129.936 Y99.211 E1.30908
G1 X130.051 Y99.915 E1.34784
G1 X129.98 Y100.624 E1.38655
G1 X129.713 Y101.312 E1.42665
G1 X129.226 Y101.257 F18000
;TYPE:External perimeter
G1 F1800
G1 X128.966 Y101.605 E1.45025
G1 X128.494 Y101.976 E1.48287
G1 X127.943 Y102.213 E1.51546
G1 X127.349 Y102.298 E1.54806
G1 X126.753 Y102.227 E1.58067
G1 X126.248 Y102.026 E1.6102
G1 X125.715 Y101.645 E1.6458
G1 X125.344 Y101.174 E1.67838
G1 X125.108 Y100.622 E1.711
G1 X125.021 Y99.981 E1.74615
G1 X125.093 Y99.433 E1.77618
G1 X125.309 Y98.892 E1.80783
G1 X125.674 Y98.396 E1.84129
G1 X126.147 Y98.024 E1.87399
G1 X126.698 Y97.787 E1.90658
G1 X127.274 Y97.704 E1.9382
G1 X127.886 Y97.772 E1.97166
G1 X128.445 Y97.995 E2.00436
G1 X128.926 Y98.355 E2.037
G1 X129.297 Y98.826 E2.06958
G1 X129.533 Y99.378 E2.1022
G1 X129.619 Y99.972 E2.13481
G1 X129.548 Y100.567 E2.16737
G1 X129.325 Y101.125 E2.20002
G1 X129.262 Y101.209 E2.20572
G1 X129.409 Y101.613 F18000
;WIPE_START
G1 F14400
G1 X128.966 Y101.605 E2.11765
G1 X128.494 Y101.976 E2.01071
G1 X127.943 Y102.213 E1.90387
G1 X127.349 Y102.298 E1.79699
G1 X126.84 Y102.237 E1.70572
;WIPE_END
G92 E0
G1 Z.5 F18000
G1 X91.976 Y97.371
G1 Z.3
G1 E.5 F2700
;TYPE:Perimeter
G1 F1800
G1 X92.576 Y97.272 E.53304
G1 X93.298 Y97.34 E.57244
G1 X93.971 Y97.593 E.6115
G1 X94.55 Y98.009 E.65024
G1 X95.001 Y98.561 E.68897
G1 X95.047 Y98.629 E.69343
G1 X95.295 Y99.211 E.7278
G1 X95.403 Y99.865 E.76381
G1 X95.41 Y100.085 E.77577
G1 X95.339 Y100.624 E.80531
G1 X95.094 Y101.274 E.84305
G1 X94.674 Y101.866 E.88249
G1 X94.119 Y102.322 E.92152
G1 X93.469 Y102.615 E.96026
G1 X92.765 Y102.73 E.99902
G1 X92.055 Y102.659 E1.03779
G1 X91.457 Y102.436 E1.07247
G1 X91.24 Y102.322 E1.08579
G1 X90.807 Y101.989 E1.11547
G1 X90.358 Y101.439 E1.15405
G1 X90.064 Y100.789 E1.19281
G1 X89.949 Y100.085 E1.23157
G1 X90.02 Y99.376 E1.27028
G1 X90.247 Y98.769 E1.30549
G1 X90.347 Y98.582 E1.31701
G1 X90.685 Y98.134 E1.3475
G1 X91.18 Y97.725 E1.38239
G1 X91.388 Y97.593 E1.39577
G1 X91.917 Y97.38 E1.42675
G1 X92.248 Y97.76 F18000
;TYPE:External perimeter
G1 F1800
G1 X92.633 Y97.704 E1.44789
G1 X93.245 Y97.772 E1.48135
G1 X93.804 Y97.995 E1.51405
G1 X94.285 Y98.355 E1.54669
G1 X94.656 Y98.826 E1.57927
G1 X94.892 Y99.378 E1.61189
G1 X94.971 Y99.922 E1.64176
G1 X94.907 Y100.567 E1.67698
G1 X94.691 Y101.108 E1.70863
G1 X94.326 Y101.604 E1.74209
G1 X93.853 Y101.976 E1.77479
G1 X93.302 Y102.213 E1.80738
G1 X92.708 Y102.298 E1.83998
G1 X92.112 Y102.227 E1.87259
G1 X91.623 Y102.033 E1.90117
G1 X91.074 Y101.645 E1.9377
G1 X90.703 Y101.174 E1.97028
G1 X90.467 Y100.622 E2.0029
G1 X90.381 Y100.028 E2.03551
G1 X90.452 Y99.433 E2.06807
G1 X90.65 Y98.936 E2.09714
G1 X91.033 Y98.396 E2.13311
G1 X91.445 Y98.07 E2.16166
G1 X92.057 Y97.787 E2.19829
G1 X92.188 Y97.768 E2.20548
G1 X92.365 Y97.388 F18000
;WIPE_START
G1 F14400
G1 X92.633 Y97.704 E2.1254
G1 X93.245 Y97.772 E2.01572
G1 X93.804 Y97.995 E1.90852
G1 X94.285 Y98.355 E1.8015
G1 X94.619 Y98.778 E1.70548
;WIPE_END
G92 E0
G1 Z.5 F18000
G1 X108.076 Y131.923
G1 Z.3
G1 E.5 F2700
;TYPE:Perimeter
G1 F1800
G1 X107.678 Y131.439 E.53405
G1 X107.385 Y130.789 E.57279
G1 X107.27 Y130.085 E.61155
G1 X107.341 Y129.376 E.65026
G1 X107.586 Y128.726 E.688
G1 X108.006 Y128.134 E.72744
G1 X108.517 Y127.712 E.76345
G1 X108.709 Y127.593 E.77572
G1 X109.211 Y127.385 E.80524
G1 X109.897 Y127.272 E.84301
G1 X110.619 Y127.34 E.88241
G1 X110.789 Y127.385 E.89196
G1 X111.291 Y127.593 E.92148
G1 X111.87 Y128.009 E.96022
G1 X112.322 Y128.561 E.99898
G1 X112.615 Y129.211 E1.03772
G1 X112.73 Y129.915 E1.07648
G1 X112.659 Y130.624 E1.11519
G1 X112.414 Y131.274 E1.15293
G1 X111.994 Y131.866 E1.19237
G1 X111.439 Y132.322 E1.2314
G1 X110.789 Y132.615 E1.27014
G1 X110.085 Y132.73 E1.3089
G1 X109.376 Y132.659 E1.34761
G1 X108.726 Y132.414 E1.38535
G1 X108.114 Y131.97 E1.42643
G1 X108.267 Y131.482 F18000
;TYPE:External perimeter
G1 F1800
G1 X108.024 Y131.174 E1.44775
G1 X107.787 Y130.622 E1.48039
G1 X107.702 Y130.028 E1.51299
G1 X107.773 Y129.433 E1.54555
G1 X107.988 Y128.892 E1.57718
G1 X108.353 Y128.396 E1.61064
G1 X108.782 Y128.058 E1.64031
G1 X109.378 Y127.787 E1.67588
G1 X109.954 Y127.704 E1.7075
G1 X110.622 Y127.787 E1.74407
G1 X111.125 Y127.995 E1.77364
G1 X111.605 Y128.355 E1.80624
G1 X111.976 Y128.826 E1.83882
G1 X112.213 Y129.378 E1.87146
G1 X112.298 Y129.972 E1.90406
G1 X112.227 Y130.567 E1.93662
G1 X112.012 Y131.108 E1.96825
G1 X111.647 Y131.604 E2.00171
G1 X111.174 Y131.976 E2.03441
G1 X110.622 Y132.213 E2.06705
G1 X110.028 Y132.298 E2.09965
G1 X109.433 Y132.227 E2.13221
G1 X108.892 Y132.012 E2.16384
G1 X108.396 Y131.647 E2.1973
G1 X108.304 Y131.529 E2.20543
G1 X107.883 Y131.565 F18000
;WIPE_START
G1 F14400
G1 X108.024 Y131.174 E2.12489
G1 X107.787 Y130.622 E2.01789
G1 X107.702 Y130.028 E1.91101
G1 X107.773 Y129.433 E1.80427
G1 X107.978 Y128.917 E1.70543
;WIPE_END
G92 E0
G1 Z.5 F18000
G1 X126.454 Y88.918
G1 Z.3
G1 E.5 F2700
;TYPE:Solid infill
;WIDTH:0.50309
G1 F1800
G1 X128.331 Y90.795 E.64525
G1 X130.146 Y92.705 E.78942
G1 X131.793 Y94.832 E.93662
G1 X131.868 Y94.953 E.94441
G1 X125.155 Y88.24 E1.46388
G1 X124.045 Y87.467 E1.53789
G1 X123.409 Y87.114 E1.57769
G1 X132.895 Y96.6 E2.31175
G1 X133.215 Y97.114 E2.34488
G1 X133.626 Y97.951 E2.3959
G1 X122.015 Y86.34 E3.2944
G1 X121.693 Y86.162 E3.31453
G1 X120.857 Y85.803 E3.36431
G1 X134.223 Y99.169 E4.39861
G1 X134.4 Y99.529 E4.42056
G1 X134.657 Y100.223 E4.46105
G1 X119.77 Y85.336 E5.61305
G1 X119.222 Y85.101 E5.64568
G1 X118.774 Y84.961 E5.67136
G1 X135.022 Y101.209 E6.92868
G1 X135.365 Y102.173 E6.98467
G1 X117.87 Y84.677 E8.33853
G1 X116.966 Y84.393 E8.39038
G1 X135.582 Y103.01 E9.83098
G1 X135.799 Y103.847 E9.87829
G1 X116.142 Y84.19 E11.39941
G1 X115.362 Y84.03 E11.44298
G1 X136.012 Y104.681 E13.04098
G1 X136.124 Y105.413 E13.0815
G1 X130.261 Y99.55 E13.5352
G1 X130.31 Y99.883 E13.55362
G1 X130.298 Y100.208 E13.57142
G1 X136.237 Y106.146 E14.03096
G1 X136.349 Y106.879 E14.07153
G1 X130.216 Y100.746 E14.54612
G1 X130.178 Y100.887 E14.55411
G1 X130.046 Y101.197 E14.57255
G1 X136.429 Y107.579 E15.06645
G1 X136.462 Y108.233 E15.10228
G1 X129.834 Y101.604 E15.61521
G1 X129.565 Y101.956 E15.63945
G1 X136.495 Y108.886 E16.17572
G1 X136.528 Y109.54 E16.21155
G1 X129.254 Y102.266 E16.77444
G1 X128.905 Y102.537 E16.79862
G1 X136.543 Y110.175 E17.38967
G1 X136.513 Y110.765 E17.422
G1 X128.487 Y102.74 E18.04304
G1 X128.114 Y102.89 E18.06504
G1 X128.03 Y102.902 E18.06968
G1 X136.483 Y111.356 E18.72384
G1 X136.453 Y111.946 E18.75617
G1 X127.485 Y102.978 E19.45014
G1 X127.35 Y102.997 E19.4576
