; generated by PrusaSlicer 2.6.0-alpha5+win64 on 2023-03-11 at 08:25:41 UTC

; 

; external perimeters extrusion width = 0.40mm
; perimeters extrusion width = 0.40mm
; infill extrusion width = 0.40mm
; solid infill extrusion width = 0.40mm
; top infill extrusion width = 0.40mm
; support material extrusion width = 0.40mm

; external perimeters extrusion width = 0.40mm
; perimeters extrusion width = 0.40mm
; infill extrusion width = 0.40mm
; solid infill extrusion width = 0.40mm
; top infill extrusion width = 0.40mm
; support material extrusion width = 0.40mm

; external perimeters extrusion width = 0.40mm
; perimeters extrusion width = 0.40mm
; infill extrusion width = 0.40mm
; solid infill extrusion width = 0.40mm
; top infill extrusion width = 0.40mm
; support material extrusion width = 0.40mm

; external perimeters extrusion width = 0.40mm
; perimeters extrusion width = 0.40mm
; infill extrusion width = 0.40mm
; solid infill extrusion width = 0.40mm
; top infill extrusion width = 0.40mm
; support material extrusion width = 0.40mm

; external perimeters extrusion width = 0.40mm
; perimeters extrusion width = 0.40mm
; infill extrusion width = 0.40mm
; solid infill extrusion width = 0.40mm
; top infill extrusion width = 0.40mm
; support material extrusion width = 0.40mm

; external perimeters extrusion width = 0.40mm
; perimeters extrusion width = 0.40mm
; infill extrusion width = 0.40mm
; solid infill extrusion width = 0.40mm
; top infill extrusion width = 0.40mm
; support material extrusion width = 0.40mm

; external perimeters extrusion width = 0.40mm
; perimeters extrusion width = 0.40mm
; infill extrusion width = 0.40mm
; solid infill extrusion width = 0.40mm
; top infill extrusion width = 0.40mm
; support material extrusion width = 0.40mm

; external perimeters extrusion width = 0.40mm
; perimeters extrusion width = 0.40mm
; infill extrusion width = 0.40mm
; solid infill extrusion width = 0.40mm
; top infill extrusion width = 0.40mm
; support material extrusion width = 0.40mm

; external perimeters extrusion width = 0.40mm
; perimeters extrusion width = 0.40mm
; infill extrusion width = 0.40mm
; solid infill extrusion width = 0.40mm
; top infill extrusion width = 0.40mm
; support material extrusion width = 0.40mm

;TYPE:Custom
SET_GCODE_VARIABLE MACRO=START_PRINT VARIABLE=bed_temp VALUE=60
SET_GCODE_VARIABLE MACRO=START_PRINT VARIABLE=extruder_temp VALUE=205
START_PRINT
M109 S205 ; set temperature and wait for it to be reached
G21 ; set units to millimeters
G90 ; use absolute coordinates
M82 ; use absolute distances for extrusion
G92 E0
; Filament gcode
M107
;LAYER_CHANGE
;Z:0.25
;HEIGHT:0.25
;BEFORE_LAYER_CHANGE
;0.25


G1 Z.25 F18000
;AFTER_LAYER_CHANGE
;0.25
G1 E-.5 F2700
G92 E0
G1 Z.45 F18000
G1 X18.338 Y18.616
G1 Z.25
G1 E.5 F2700
;TYPE:Skirt/Brim
;WIDTH:0.4
G1 F1800
G1 X20.052 Y17.361 E.57647
G1 X22.5 Y16.807 E.66682
G1 X197.5 Y16.807 E6.96662
G1 X199.587 Y17.204 E7.0431
G1 X201.384 Y18.338 E7.11959
G1 X202.639 Y20.052 E7.19606
G1 X203.193 Y22.5 E7.28641
G1 X203.193 Y197.5 E13.58621
G1 X202.796 Y199.587 E13.66269
G1 X201.662 Y201.384 E13.73918
G1 X199.948 Y202.639 E13.81565
G1 X197.5 Y203.193 E13.906
G1 X22.5 Y203.193 E20.2058
G1 X20.413 Y202.796 E20.28228
G1 X18.616 Y201.662 E20.35877
G1 X17.361 Y199.948 E20.43524
G1 X16.807 Y197.5 E20.52559
G1 X16.807 Y22.5 E26.82539
G1 X17.204 Y20.413 E26.90187
G1 X18.306 Y18.667 E26.9762
G1 X18.61 Y18.866 F18000
G1 F1800
G1 X18.68 Y18.76 E26.98077
G1 X20.376 Y17.594 E27.05486
G1 X22.5 Y17.154 E27.13294
G1 X197.5 Y17.154 E33.43274
G1 X199.52 Y17.55 E33.50684
G1 X201.24 Y18.68 E33.58093
G1 X202.406 Y20.376 E33.65502
G1 X202.846 Y22.5 E33.7331
G1 X202.846 Y197.5 E40.0329
G1 X202.45 Y199.52 E40.107
G1 X201.32 Y201.24 E40.18109
G1 X199.624 Y202.406 E40.25518
G1 X197.5 Y202.846 E40.33326
G1 X22.5 Y202.846 E46.63306
G1 X20.48 Y202.45 E46.70716
G1 X18.76 Y201.32 E46.78125
G1 X17.594 Y199.624 E46.85534
G1 X17.154 Y197.5 E46.93342
G1 X17.154 Y22.5 E53.23322
G1 X17.55 Y20.48 E53.30732
G1 X18.577 Y18.917 E53.37465
;WIPE_START
G1 F14400
G1 X18.68 Y18.76 E53.3412
G1 X20.376 Y17.594 E52.97459
G1 X20.925 Y17.48 E52.87465
;WIPE_END
G92 E0
G1 Z.45 F18000
G1 X46.607 Y196.607
G1 Z.25
G1 E.5 F2700
;TYPE:Perimeter
;WIDTH:0.399999
G1 F1800
G1 X23.393 Y196.607 E1.33568
G1 X23.393 Y173.393 E2.17136
G1 X46.607 Y173.393 E3.00704
G1 X46.607 Y196.547 E3.84056
G1 X46.954 Y196.954 F18000
G1 F1800
G1 X23.046 Y196.954 E4.70122
G1 X23.046 Y173.046 E5.56188
G1 X46.954 Y173.046 E6.42254
G1 X46.954 Y196.894 E7.28104
G1 X47.3 Y197.3 F18000
;TYPE:External perimeter
G1 F1800
G1 X22.7 Y197.3 E8.16661
G1 X22.7 Y172.7 E9.05218
G1 X47.3 Y172.7 E9.93775
G1 X47.3 Y197.24 E10.82116
G1 X46.914 Y197.196 F18000
;WIPE_START
G1 F14400
G1 X44.493 Y197.247 E10.32116
;WIPE_END
G92 E0
G1 Z.45 F18000
G1 X45.851 Y173.445
G1 Z.25
G1 E.5 F2700
;TYPE:Solid infill
;WIDTH:0.401867
G1 F1800
G1 X46.399 Y173.993 E.52805
G1 X46.399 Y174.485 E.54586
G1 X45.515 Y173.601 E.59111
G1 X45.022 Y173.601 E.60895
G1 X46.399 Y174.978 E.67943
G1 X46.399 Y175.47 E.69724
G1 X44.53 Y173.601 E.7929
G1 X44.037 Y173.601 E.81074
G1 X46.399 Y175.963 E.93164
G1 X46.399 Y176.455 E.94945
G1 X43.545 Y173.601 E1.09553
G1 X43.052 Y173.601 E1.11337
G1 X46.399 Y176.948 E1.28468
G1 X46.399 Y177.44 E1.30249
G1 X42.56 Y173.601 E1.49899
G1 X42.067 Y173.601 E1.51683
G1 X46.399 Y177.933 E1.73856
G1 X46.399 Y178.425 E1.75637
G1 X41.575 Y173.601 E2.00328
G1 X41.083 Y173.601 E2.02109
G1 X46.399 Y178.917 E2.29319
G1 X46.399 Y179.41 E2.31103
G1 X40.59 Y173.601 E2.60836
G1 X40.098 Y173.601 E2.62617
G1 X46.399 Y179.902 E2.94868
G1 X46.399 Y180.395 E2.96652
G1 X39.605 Y173.601 E3.31427
G1 X39.113 Y173.601 E3.33208
G1 X46.399 Y180.887 E3.70501
G1 X46.399 Y181.38 E3.72285
G1 X38.62 Y173.601 E4.12101
G1 X38.128 Y173.601 E4.13882
G1 X46.399 Y181.872 E4.56217
G1 X46.399 Y182.365 E4.58001
G1 X37.635 Y173.601 E5.02859
G1 X37.143 Y173.601 E5.0464
G1 X46.399 Y182.857 E5.52016
G1 X46.399 Y183.35 E5.538
G1 X36.65 Y173.601 E6.037
G1 X36.158 Y173.601 E6.05481
G1 X46.399 Y183.842 E6.57899
G1 X46.399 Y184.334 E6.5968
G1 X35.666 Y173.601 E7.14616
G1 X35.173 Y173.601 E7.164
G1 X46.399 Y184.827 E7.7386
G1 X46.399 Y185.319 E7.75641
G1 X34.681 Y173.601 E8.35619
G1 X34.188 Y173.601 E8.37403
G1 X46.399 Y185.812 E8.99904
G1 X46.399 Y186.304 E9.01685
G1 X33.696 Y173.601 E9.66705
G1 X33.203 Y173.601 E9.68489
G1 X46.399 Y186.797 E10.36032
G1 X46.399 Y187.289 E10.37813
G1 X32.711 Y173.601 E11.07874
G1 X32.218 Y173.601 E11.09658
G1 X46.399 Y187.782 E11.82243
G1 X46.399 Y188.274 E11.84024
G1 X31.726 Y173.601 E12.59127
G1 X31.233 Y173.601 E12.60911
G1 X46.399 Y188.767 E13.38538
G1 X46.399 Y189.259 E13.40319
G1 X30.741 Y173.601 E14.20464
G1 X30.249 Y173.601 E14.22245
G1 X46.399 Y189.751 E15.04908
G1 X46.399 Y190.244 E15.06692
G1 X29.756 Y173.601 E15.91878
G1 X29.264 Y173.601 E15.93659
G1 X46.399 Y190.736 E16.81364
G1 X46.399 Y191.229 E16.83148
G1 X28.771 Y173.601 E17.73376
G1 X28.279 Y173.601 E17.75157
G1 X46.399 Y191.721 E18.67903
G1 X46.399 Y192.214 E18.69687
G1 X27.786 Y173.601 E19.64957
G1 X27.294 Y173.601 E19.66738
G1 X46.399 Y192.706 E20.64526
G1 X46.399 Y193.199 E20.6631
G1 X26.801 Y173.601 E21.66622
G1 X26.309 Y173.601 E21.68403
G1 X46.399 Y193.691 E22.71233
G1 X46.399 Y194.183 E22.73014
G1 X25.817 Y173.601 E23.78362
G1 X25.324 Y173.601 E23.80146
G1 X46.399 Y194.676 E24.88017
G1 X46.399 Y195.168 E24.89798
G1 X24.832 Y173.601 E26.00188
G1 X24.339 Y173.601 E26.01972
G1 X46.399 Y195.661 E27.14885
G1 X46.399 Y196.153 E27.16666
G1 X23.847 Y173.601 E28.32097
G1 X23.601 Y173.601 E28.32987
G1 X23.601 Y173.847 E28.33877
G1 X46.153 Y196.399 E29.49308
G1 X45.661 Y196.399 E29.51089
G1 X23.601 Y174.339 E30.64002
G1 X23.601 Y174.832 E30.65786
G1 X45.168 Y196.399 E31.76176
G1 X44.676 Y196.399 E31.77957
G1 X23.601 Y175.324 E32.85828
G1 X23.601 Y175.817 E32.87612
G1 X44.183 Y196.399 E33.9296
G1 X43.691 Y196.399 E33.94741
G1 X23.601 Y176.309 E34.97571
G1 X23.601 Y176.801 E34.99352
G1 X43.199 Y196.399 E35.99664
G1 X42.706 Y196.399 E36.01448
G1 X23.601 Y177.294 E36.99236
G1 X23.601 Y177.786 E37.01017
G1 X42.214 Y196.399 E37.96287
G1 X41.721 Y196.399 E37.98071
G1 X23.601 Y178.279 E38.90817
G1 X23.601 Y178.771 E38.92598
G1 X41.229 Y196.399 E39.82826
G1 X40.736 Y196.399 E39.8461
G1 X23.601 Y179.264 E40.72315
G1 X23.601 Y179.756 E40.74096
G1 X40.244 Y196.399 E41.59282
G1 X39.751 Y196.399 E41.61066
G1 X23.601 Y180.249 E42.43729
G1 X23.601 Y180.741 E42.4551
G1 X39.259 Y196.399 E43.25655
G1 X38.766 Y196.399 E43.27439
G1 X23.601 Y181.234 E44.0506
G1 X23.601 Y181.726 E44.06841
G1 X38.274 Y196.399 E44.81944
G1 X37.782 Y196.399 E44.83725
G1 X23.601 Y182.218 E45.5631
G1 X23.601 Y182.711 E45.58094
G1 X37.289 Y196.399 E46.28155
G1 X36.797 Y196.399 E46.29936
G1 X23.601 Y183.203 E46.97479
G1 X23.601 Y183.696 E46.99263
G1 X36.304 Y196.399 E47.64283
G1 X35.812 Y196.399 E47.66064
G1 X23.601 Y184.188 E48.28565
G1 X23.601 Y184.681 E48.30349
G1 X35.319 Y196.399 E48.90327
G1 X34.827 Y196.399 E48.92108
G1 X23.601 Y185.173 E49.49568
G1 X23.601 Y185.666 E49.51352
G1 X34.334 Y196.399 E50.06288
G1 X33.842 Y196.399 E50.08069
G1 X23.601 Y186.158 E50.60487
G1 X23.601 Y186.651 E50.62271
G1 X33.349 Y196.399 E51.12166
G1 X32.857 Y196.399 E51.13947
G1 X23.601 Y187.143 E51.61323
G1 X23.601 Y187.635 E51.63104
G1 X32.365 Y196.399 E52.07962
G1 X31.872 Y196.399 E52.09746
G1 X23.601 Y188.128 E52.52081
G1 X23.601 Y188.62 E52.53862
G1 X31.38 Y196.399 E52.93678
G1 X30.887 Y196.399 E52.95462
G1 X23.601 Y189.113 E53.32755
G1 X23.601 Y189.605 E53.34536
G1 X30.395 Y196.399 E53.69311
G1 X29.902 Y196.399 E53.71095
G1 X23.601 Y190.098 E54.03346
G1 X23.601 Y190.59 E54.05127
G1 X29.41 Y196.399 E54.3486
G1 X28.917 Y196.399 E54.36644
G1 X23.601 Y191.083 E54.63854
G1 X23.601 Y191.575 E54.65635
G1 X28.425 Y196.399 E54.90326
G1 X27.932 Y196.399 E54.9211
G1 X23.601 Y192.068 E55.14278
G1 X23.601 Y192.56 E55.16059
G1 X27.44 Y196.399 E55.35709
G1 X26.948 Y196.399 E55.3749
G1 X23.601 Y193.052 E55.54621
G1 X23.601 Y193.545 E55.56405
G1 X26.455 Y196.399 E55.71013
G1 X25.963 Y196.399 E55.72794
G1 X23.601 Y194.037 E55.84884
G1 X23.601 Y194.53 E55.86668
G1 X25.47 Y196.399 E55.96234
G1 X24.978 Y196.399 E55.98015
G1 X23.601 Y195.022 E56.05063
G1 X23.601 Y195.515 E56.06847
G1 X24.485 Y196.399 E56.11372
G1 X23.993 Y196.399 E56.13153
G1 X23.445 Y195.851 E56.15958
;WIPE_START
G1 F14400
G1 X23.993 Y196.399 E56.02154
G1 X24.485 Y196.399 E55.9339
G1 X23.601 Y195.515 E55.71121
G1 X23.601 Y195.225 E55.65958
;WIPE_END
G92 E0
G1 Z.45 F18000
G1 X121.607 Y196.607
G1 Z.25
G1 E.5 F2700
;TYPE:Perimeter
;WIDTH:0.399999
G1 F1800
G1 X98.393 Y196.607 E1.33568
G1 X98.393 Y173.393 E2.17136
G1 X121.607 Y173.393 E3.00704
G1 X121.607 Y196.547 E3.84056
G1 X121.954 Y196.954 F18000
G1 F1800
G1 X98.046 Y196.954 E4.70122
G1 X98.046 Y173.046 E5.56188
G1 X121.954 Y173.046 E6.42254
G1 X121.954 Y196.894 E7.28104
G1 X122.3 Y197.3 F18000
;TYPE:External perimeter
G1 F1800
G1 X97.7 Y197.3 E8.16661
G1 X97.7 Y172.7 E9.05218
G1 X122.3 Y172.7 E9.93775
G1 X122.3 Y197.24 E10.82116
G1 X121.914 Y197.196 F18000
;WIPE_START
G1 F14400
G1 X119.493 Y197.247 E10.32116
;WIPE_END
G92 E0
G1 Z.45 F18000
G1 X120.851 Y173.445
G1 Z.25
G1 E.5 F2700
;TYPE:Solid infill
;WIDTH:0.401867
G1 F1800
G1 X121.399 Y173.993 E.52805
G1 X121.399 Y174.485 E.54586
G1 X120.515 Y173.601 E.59111
G1 X120.022 Y173.601 E.60895
G1 X121.399 Y174.978 E.67943
G1 X121.399 Y175.47 E.69724
G1 X119.53 Y173.601 E.7929
G1 X119.037 Y173.601 E.81074
G1 X121.399 Y175.963 E.93164
G1 X121.399 Y176.455 E.94945
G1 X118.545 Y173.601 E1.09553
G1 X118.052 Y173.601 E1.11337
G1 X121.399 Y176.948 E1.28468
G1 X121.399 Y177.44 E1.30249
G1 X117.56 Y173.601 E1.49899
G1 X117.067 Y173.601 E1.51683
G1 X121.399 Y177.933 E1.73856
G1 X121.399 Y178.425 E1.75637
G1 X116.575 Y173.601 E2.00328
G1 X116.083 Y173.601 E2.02109
G1 X121.399 Y178.917 E2.29319
G1 X121.399 Y179.41 E2.31103
G1 X115.59 Y173.601 E2.60836
G1 X115.098 Y173.601 E2.62617
G1 X121.399 Y179.902 E2.94868
G1 X121.399 Y180.395 E2.96652
G1 X114.605 Y173.601 E3.31427
G1 X114.113 Y173.601 E3.33208
G1 X121.399 Y180.887 E3.70501
G1 X121.399 Y181.38 E3.72285
G1 X113.62 Y173.601 E4.12101
G1 X113.128 Y173.601 E4.13882
G1 X121.399 Y181.872 E4.56217
G1 X121.399 Y182.365 E4.58001
G1 X112.635 Y173.601 E5.02859
G1 X112.143 Y173.601 E5.0464
G1 X121.399 Y182.857 E5.52016
G1 X121.399 Y183.35 E5.538
G1 X111.65 Y173.601 E6.037
G1 X111.158 Y173.601 E6.05481
G1 X121.399 Y183.842 E6.57899
G1 X121.399 Y184.334 E6.5968
G1 X110.666 Y173.601 E7.14616
G1 X110.173 Y173.601 E7.164
G1 X121.399 Y184.827 E7.7386
G1 X121.399 Y185.319 E7.75641
G1 X109.681 Y173.601 E8.35619
G1 X109.188 Y173.601 E8.37403
G1 X121.399 Y185.812 E8.99904
G1 X121.399 Y186.304 E9.01685
G1 X108.696 Y173.601 E9.66705
G1 X108.203 Y173.601 E9.68489
G1 X121.399 Y186.797 E10.36032
G1 X121.399 Y187.289 E10.37813
G1 X107.711 Y173.601 E11.07874
G1 X107.218 Y173.601 E11.09658
G1 X121.399 Y187.782 E11.82243
G1 X121.399 Y188.274 E11.84024
G1 X106.726 Y173.601 E12.59127
G1 X106.233 Y173.601 E12.60911
G1 X121.399 Y188.767 E13.38538
G1 X121.399 Y189.259 E13.40319
G1 X105.741 Y173.601 E14.20464
G1 X105.249 Y173.601 E14.22245
G1 X121.399 Y189.751 E15.04908
G1 X121.399 Y190.244 E15.06692
G1 X104.756 Y173.601 E15.91878
G1 X104.264 Y173.601 E15.93659
G1 X121.399 Y190.736 E16.81364
G1 X121.399 Y191.229 E16.83148
G1 X103.771 Y173.601 E17.73376
G1 X103.279 Y173.601 E17.75157
G1 X121.399 Y191.721 E18.67903
G1 X121.399 Y192.214 E18.69687
G1 X102.786 Y173.601 E19.64957
G1 X102.294 Y173.601 E19.66738
G1 X121.399 Y192.706 E20.64526
G1 X121.399 Y193.199 E20.6631
G1 X101.801 Y173.601 E21.66622
G1 X101.309 Y173.601 E21.68403
G1 X121.399 Y193.691 E22.71233
G1 X121.399 Y194.183 E22.73014
G1 X100.817 Y173.601 E23.78362
G1 X100.324 Y173.601 E23.80146
G1 X121.399 Y194.676 E24.88017
G1 X121.399 Y195.168 E24.89798
G1 X99.832 Y173.601 E26.00188
G1 X99.339 Y173.601 E26.01972
G1 X121.399 Y195.661 E27.14885
G1 X121.399 Y196.153 E27.16666
G1 X98.847 Y173.601 E28.32097
G1 X98.601 Y173.601 E28.32987
G1 X98.601 Y173.847 E28.33877
G1 X121.153 Y196.399 E29.49308
G1 X120.661 Y196.399 E29.51089
G1 X98.601 Y174.339 E30.64002
G1 X98.601 Y174.832 E30.65786
G1 X120.168 Y196.399 E31.76176
G1 X119.676 Y196.399 E31.77957
G1 X98.601 Y175.324 E32.85828
G1 X98.601 Y175.817 E32.87612
G1 X119.183 Y196.399 E33.9296
G1 X118.691 Y196.399 E33.94741
G1 X98.601 Y176.309 E34.97571
G1 X98.601 Y176.801 E34.99352
G1 X118.199 Y196.399 E35.99664
G1 X117.706 Y196.399 E36.01448
G1 X98.601 Y177.294 E36.99236
G1 X98.601 Y177.786 E37.01017
G1 X117.214 Y196.399 E37.96287
G1 X116.721 Y196.399 E37.98071
G1 X98.601 Y178.279 E38.90817
G1 X98.601 Y178.771 E38.92598
G1 X116.229 Y196.399 E39.82826
G1 X115.736 Y196.399 E39.8461
G1 X98.601 Y179.264 E40.72315
G1 X98.601 Y179.756 E40.74096
G1 X115.244 Y196.399 E41.59282
G1 X114.751 Y196.399 E41.61066
G1 X98.601 Y180.249 E42.43729
G1 X98.601 Y180.741 E42.4551
G1 X114.259 Y196.399 E43.25655
G1 X113.766 Y196.399 E43.27439
G1 X98.601 Y181.234 E44.0506
G1 X98.601 Y181.726 E44.06841
G1 X113.274 Y196.399 E44.81944
G1 X112.782 Y196.399 E44.83725
G1 X98.601 Y182.218 E45.5631
G1 X98.601 Y182.711 E45.58094
G1 X112.289 Y196.399 E46.28155
G1 X111.797 Y196.399 E46.29936
G1 X98.601 Y183.203 E46.97479
G1 X98.601 Y183.696 E46.99263
G1 X111.304 Y196.399 E47.64283
G1 X110.812 Y196.399 E47.66064
G1 X98.601 Y184.188 E48.28565
G1 X98.601 Y184.681 E48.30349
G1 X110.319 Y196.399 E48.90327
G1 X109.827 Y196.399 E48.92108
G1 X98.601 Y185.173 E49.49568
G1 X98.601 Y185.666 E49.51352
G1 X109.334 Y196.399 E50.06288
G1 X108.842 Y196.399 E50.08069
G1 X98.601 Y186.158 E50.60487
G1 X98.601 Y186.651 E50.62271
G1 X108.349 Y196.399 E51.12166
G1 X107.857 Y196.399 E51.13947
G1 X98.601 Y187.143 E51.61323
G1 X98.601 Y187.635 E51.63104
G1 X107.365 Y196.399 E52.07962
G1 X106.872 Y196.399 E52.09746
G1 X98.601 Y188.128 E52.52081
G1 X98.601 Y188.62 E52.53862
G1 X106.38 Y196.399 E52.93678
G1 X105.887 Y196.399 E52.95462
G1 X98.601 Y189.113 E53.32755
G1 X98.601 Y189.605 E53.34536
G1 X105.395 Y196.399 E53.69311
G1 X104.902 Y196.399 E53.71095
