; generated by SuperSlicer 2.5.59 on 2023-03-04 at 19:05:05 UTC

; 

; external perimeters extrusion width = 0.44mm
; perimeters extrusion width = 0.46mm
; infill extrusion width = 0.44mm
; solid infill extrusion width = 0.46mm
; top infill extrusion width = 0.44mm
; first layer extrusion width = 0.56mm

; external perimeters extrusion width = 0.44mm
; perimeters extrusion width = 0.46mm
; infill extrusion width = 0.44mm
; solid infill extrusion width = 0.46mm
; top infill extrusion width = 0.44mm
; first layer extrusion width = 0.56mm

; external perimeters extrusion width = 0.44mm
; perimeters extrusion width = 0.46mm
; infill extrusion width = 0.44mm
; solid infill extrusion width = 0.46mm
; top infill extrusion width = 0.44mm
; first layer extrusion width = 0.56mm

; external perimeters extrusion width = 0.44mm
; perimeters extrusion width = 0.46mm
; infill extrusion width = 0.44mm
; solid infill extrusion width = 0.46mm
; top infill extrusion width = 0.44mm
; first layer extrusion width = 0.56mm

; external perimeters extrusion width = 0.44mm
; perimeters extrusion width = 0.46mm
; infill extrusion width = 0.44mm
; solid infill extrusion width = 0.46mm
; top infill extrusion width = 0.44mm
; first layer extrusion width = 0.56mm

; object:{"name":"filament_flow_test","id":"filament_flow_test id:0 copy 0","object_center":[79.299999,38.599998,0.000000],"boundingbox_center":[79.299999,38.599998,0.700000],"boundingbox_size":[20.000000,20.000000,1.400000]}
EXCLUDE_OBJECT_DEFINE NAME=filament_flow_test_id_0_copy_0 CENTER=79.299999,38.599998 POLYGON=[[69.300000,28.599998],[79.300000,28.599998],[89.300000,31.099998],[89.300000,46.100000],[79.300000,48.600000],[69.300000,48.600000],[69.300000,28.599998]]
; object:{"name":"filament_flow_test","id":"filament_flow_test id:1 copy 0","object_center":[79.299999,110.000000,0.000000],"boundingbox_center":[79.299999,110.000000,0.700000],"boundingbox_size":[20.000000,20.000000,1.400000]}
EXCLUDE_OBJECT_DEFINE NAME=filament_flow_test_id_1_copy_0 CENTER=79.299999,110.000000 POLYGON=[[69.300000,100.000000],[79.300000,100.000000],[89.300000,102.500000],[89.300000,117.500000],[79.300000,120.000000],[69.300000,120.000000],[69.300000,100.000000]]
; object:{"name":"filament_flow_test","id":"filament_flow_test id:2 copy 0","object_center":[79.299999,181.400002,0.000000],"boundingbox_center":[79.299999,181.400002,0.700000],"boundingbox_size":[20.000000,20.000000,1.400000]}
EXCLUDE_OBJECT_DEFINE NAME=filament_flow_test_id_2_copy_0 CENTER=79.299999,181.400002 POLYGON=[[69.300000,171.400000],[79.300000,171.400000],[89.300000,173.900000],[89.300000,188.900000],[79.300000,191.400000],[69.300000,191.400000],[69.300000,171.400000]]
; object:{"name":"filament_flow_test","id":"filament_flow_test id:3 copy 0","object_center":[150.700001,38.599998,0.000000],"boundingbox_center":[150.700001,38.599998,0.700000],"boundingbox_size":[20.000000,20.000000,1.400000]}
EXCLUDE_OBJECT_DEFINE NAME=filament_flow_test_id_3_copy_0 CENTER=150.700001,38.599998 POLYGON=[[140.700000,28.599998],[150.700000,28.599998],[160.700000,31.099998],[160.700000,46.100000],[150.700000,48.600000],[140.700000,48.600000],[140.700000,28.599998]]
; object:{"name":"filament_flow_test","id":"filament_flow_test id:4 copy 0","object_center":[150.700001,181.400002,0.000000],"boundingbox_center":[150.700001,181.400002,0.700000],"boundingbox_size":[20.000000,20.000000,1.400000]}
EXCLUDE_OBJECT_DEFINE NAME=filament_flow_test_id_4_copy_0 CENTER=150.700001,181.400002 POLYGON=[[140.700000,171.400000],[150.700000,171.400000],[160.700000,173.900000],[160.700000,188.900000],[150.700000,191.400000],[140.700000,191.400000],[140.700000,171.400000]]
; plater:{"center":[115.000000,110.000000,0.000000],"boundingbox_center":[115.000000,110.000000,0.700000],"boundingbox_size":[91.400002,162.800003,1.400000]}

;TYPE:Custom
SET_GCODE_VARIABLE MACRO=START_PRINT VARIABLE=bed_temp VALUE=60
SET_GCODE_VARIABLE MACRO=START_PRINT VARIABLE=extruder_temp VALUE=215
START_PRINT
M107
G21 ; set units to millimeters
G90 ; use absolute coordinates
M82 ; use absolute distances for extrusion
G92 E0
; Filament gcode
;_TOOLCHANGE 0
M104 S215 ; set temperature
M109 S215 ; set temperature and wait for it to be reached
M190 S60 ; set bed temperature and wait for it to be reached
M107
;LAYER_CHANGE
;Z:0.2
;HEIGHT:0.2
;BEFORE_LAYER_CHANGE
;0.2


G1 E-0.8 F1800
G1 Z0.2 F30000
;AFTER_LAYER_CHANGE
;0.2
G92 E0
M204 S500
G1 X65.175 Y25.757
G1 E0.8 F1800
;TYPE:Skirt
;WIDTH:0.48
G1 F4800
G1 X64.781 Y27.3 E0.86365
G1 X64.781 Y192.7 E7.47595
G1 X65.292 Y194.44 E7.54844
G1 X66.457 Y195.525 E7.61209
G1 X68 Y195.919 E7.67574
G1 X152 Y195.919 E11.03386
G1 X152.781 Y195.822 E11.0653
G1 X162.781 Y193.322 E11.47738
G1 X163.74 Y192.908 E11.51916
G1 X164.825 Y191.743 E11.58281
G1 X165.219 Y190.2 E11.64646
G1 X165.219 Y29.8 E18.05887
G1 X165.049 Y28.769 E18.10064
G1 X164.182 Y27.434 E18.16429
G1 X162.781 Y26.678 E18.22794
G1 X152.781 Y24.178 E18.64002
G1 X152 Y24.081 E18.67147
G1 X68 Y24.081 E22.02959
G1 X66.26 Y24.592 E22.10207
G1 X65.216 Y25.713 E22.16333
G92 E0
;WIPE_START
G1 F24000
G1 X66.26 Y24.592 E-0.10916
G1 X68 Y24.081 E-0.23835
G1 X75.321 Y24.081 E-0.76
;WIPE_END
G1 E-0.8 F1800
; acceleration to travel
M204 S1500
G1 X133.262 Y154.712 F30000
; decel to extrusion
M204 S500
G1 X140.398 Y170.799
; end travel
G1 E0 F1800
;WIDTH:0.56292
G1 F4800
G1 X140.589 Y170.72 E0.00984
G1 X150.811 Y170.72 E0.49603
G1 X151.002 Y170.799 E0.50587
G1 X151.301 Y171.098 E0.52595
G1 X151.38 Y171.289 E0.53579
G1 X151.38 Y173.22 E0.62764
G1 X160.811 Y173.22 E1.0762
G1 X161.002 Y173.299 E1.08604
G1 X161.301 Y173.598 E1.10613
G1 X161.38 Y173.789 E1.11597
G1 X161.38 Y189.011 E1.83997
G1 X161.301 Y189.202 E1.84981
G1 X161.002 Y189.501 E1.86989
G1 X160.811 Y189.58 E1.87973
G1 X151.38 Y189.58 E2.32829
G1 X151.38 Y191.511 E2.42014
G1 X151.301 Y191.702 E2.42998
G1 X151.002 Y192.001 E2.45006
G1 X150.811 Y192.08 E2.4599
G1 X140.589 Y192.08 E2.9461
G1 X140.398 Y192.001 E2.95593
G1 X140.099 Y191.702 E2.97602
G1 X140.02 Y191.511 E2.98586
G1 X140.02 Y171.289 E3.94767
G1 X140.099 Y171.098 E3.95751
G1 X140.355 Y170.842 E3.97474
G1 X140.692 Y171.24 F30000
G1 F4800
G1 X150.708 Y171.24 E4.45109
G1 X150.86 Y171.392 E4.46133
G1 X150.86 Y173.74 E4.573
G1 X160.708 Y173.74 E5.04137
G1 X160.86 Y173.892 E5.05162
G1 X160.86 Y188.908 E5.76578
G1 X160.708 Y189.06 E5.77602
G1 X150.86 Y189.06 E6.2444
G1 X150.86 Y191.408 E6.35606
G1 X150.708 Y191.56 E6.3663
G1 X140.692 Y191.56 E6.84266
G1 X140.54 Y191.408 E6.8529
G1 X140.54 Y171.392 E7.80487
G1 X140.65 Y171.282 E7.81227
G92 E0
;WIPE_START
G1 F24000
G1 X140.54 Y171.392 E-0.01107
G1 X140.54 Y181.904 E-0.76
;WIPE_END
G1 E-0.8 F1800
; acceleration to travel
M204 S1500
G1 X95.524 Y174.679 F30000
; decel to extrusion
M204 S500
G1 X89.98 Y173.789
; end travel
G1 E0 F1800
G1 F4800
G1 X89.98 Y189.011 E0.724
G1 X89.901 Y189.202 E0.73384
G1 X89.602 Y189.501 E0.75392
G1 X89.411 Y189.58 E0.76376
G1 X79.98 Y189.58 E1.21233
G1 X79.98 Y191.511 E1.30418
G1 X79.901 Y191.702 E1.31401
G1 X79.602 Y192.001 E1.3341
G1 X79.411 Y192.08 E1.34394
G1 X69.189 Y192.08 E1.83013
G1 X68.998 Y192.001 E1.83997
G1 X68.699 Y191.702 E1.86005
G1 X68.62 Y191.511 E1.86989
G1 X68.62 Y171.289 E2.8317
G1 X68.699 Y171.098 E2.84154
G1 X68.998 Y170.799 E2.86162
G1 X69.189 Y170.72 E2.87146
G1 X79.411 Y170.72 E3.35766
G1 X79.602 Y170.799 E3.36749
G1 X79.901 Y171.098 E3.38758
G1 X79.98 Y171.289 E3.39742
G1 X79.98 Y173.22 E3.48927
G1 X89.411 Y173.22 E3.93783
G1 X89.602 Y173.299 E3.94767
G1 X89.901 Y173.598 E3.96775
G1 X89.957 Y173.733 E3.97474
G1 X89.46 Y173.892 F30000
G1 F4800
G1 X89.46 Y188.908 E4.6889
G1 X89.308 Y189.06 E4.69914
G1 X79.46 Y189.06 E5.16752
G1 X79.46 Y191.408 E5.27918
G1 X79.308 Y191.56 E5.28943
G1 X69.292 Y191.56 E5.76578
G1 X69.14 Y191.408 E5.77602
G1 X69.14 Y171.392 E6.728
G1 X69.292 Y171.24 E6.73824
G1 X79.308 Y171.24 E7.21459
G1 X79.46 Y171.392 E7.22484
G1 X79.46 Y173.74 E7.3365
G1 X89.308 Y173.74 E7.80487
G1 X89.418 Y173.85 E7.81227
G92 E0
;WIPE_START
G1 F24000
G1 X89.308 Y173.74 E-0.01107
G1 X79.46 Y173.74 E-0.71272
G1 X79.46 Y173.076 E-0.76
;WIPE_END
G1 E-0.8 F1800
; acceleration to travel
M204 S1500
G1 X79.416 Y126.425 F30000
; decel to extrusion
M204 S500
G1 X79.411 Y120.68
; end travel
G1 E0 F1800
G1 F4800
G1 X69.189 Y120.68 E0.48619
G1 X68.998 Y120.601 E0.49603
G1 X68.699 Y120.302 E0.51611
G1 X68.62 Y120.111 E0.52595
G1 X68.62 Y99.889 E1.48777
G1 X68.699 Y99.698 E1.4976
G1 X68.998 Y99.399 E1.51769
G1 X69.189 Y99.32 E1.52753
G1 X79.411 Y99.32 E2.01372
G1 X79.602 Y99.399 E2.02356
G1 X79.901 Y99.698 E2.04364
G1 X79.98 Y99.889 E2.05348
G1 X79.98 Y101.82 E2.14533
G1 X89.411 Y101.82 E2.59389
G1 X89.602 Y101.899 E2.60373
G1 X89.901 Y102.198 E2.62381
G1 X89.98 Y102.389 E2.63365
G1 X89.98 Y117.611 E3.35766
G1 X89.901 Y117.802 E3.36749
G1 X89.602 Y118.101 E3.38758
G1 X89.411 Y118.18 E3.39742
G1 X79.98 Y118.18 E3.84598
G1 X79.98 Y120.111 E3.93783
G1 X79.901 Y120.302 E3.94767
G1 X79.602 Y120.601 E3.96775
G1 X79.467 Y120.657 E3.97474
G1 X79.308 Y120.16 F30000
G1 F4800
G1 X69.292 Y120.16 E4.45109
G1 X69.14 Y120.008 E4.46133
G1 X69.14 Y99.992 E5.41331
G1 X69.292 Y99.84 E5.42355
G1 X79.308 Y99.84 E5.8999
G1 X79.46 Y99.992 E5.91015
G1 X79.46 Y102.34 E6.02181
G1 X89.308 Y102.34 E6.49019
G1 X89.46 Y102.492 E6.50043
G1 X89.46 Y117.508 E7.21459
G1 X89.308 Y117.66 E7.22484
G1 X79.46 Y117.66 E7.69321
G1 X79.46 Y120.008 E7.80487
G1 X79.35 Y120.118 E7.81227
G92 E0
;WIPE_START
G1 F24000
G1 X79.46 Y120.008 E-0.01107
G1 X79.46 Y117.66 E-0.17834
G1 X87.624 Y117.66 E-0.76
;WIPE_END
G1 E-0.8 F1800
; acceleration to travel
M204 S1500
G1 X134.611 Y56.707 F30000
; decel to extrusion
M204 S500
G1 X140.398 Y49.201
; end travel
G1 E0 F1800
G1 F4800
G1 X140.099 Y48.902 E0.02008
G1 X140.02 Y48.711 E0.02992
G1 X140.02 Y28.489 E0.99173
G1 X140.099 Y28.298 E1.00157
G1 X140.398 Y27.999 E1.02166
G1 X140.589 Y27.92 E1.0315
G1 X150.811 Y27.92 E1.51769
G1 X151.002 Y27.999 E1.52753
G1 X151.301 Y28.298 E1.54761
G1 X151.38 Y28.489 E1.55745
G1 X151.38 Y30.42 E1.6493
G1 X160.811 Y30.42 E2.09786
G1 X161.002 Y30.499 E2.1077
G1 X161.301 Y30.798 E2.12778
G1 X161.38 Y30.989 E2.13762
G1 X161.38 Y46.211 E2.86162
G1 X161.301 Y46.402 E2.87146
G1 X161.002 Y46.701 E2.89155
G1 X160.811 Y46.78 E2.90139
G1 X151.38 Y46.78 E3.34995
G1 X151.38 Y48.711 E3.4418
G1 X151.301 Y48.902 E3.45164
G1 X151.002 Y49.201 E3.47172
G1 X150.811 Y49.28 E3.48156
G1 X140.589 Y49.28 E3.96775
G1 X140.453 Y49.224 E3.97474
G1 X140.692 Y48.76 F30000
G1 F4800
G1 X140.54 Y48.608 E3.98498
G1 X140.54 Y28.592 E4.93695
G1 X140.692 Y28.44 E4.9472
G1 X150.708 Y28.44 E5.42355
G1 X150.86 Y28.592 E5.4338
G1 X150.86 Y30.94 E5.54546
G1 X160.708 Y30.94 E6.01383
G1 X160.86 Y31.092 E6.02408
G1 X160.86 Y46.108 E6.73824
G1 X160.708 Y46.26 E6.74848
G1 X150.86 Y46.26 E7.21686
G1 X150.86 Y48.608 E7.32852
G1 X150.708 Y48.76 E7.33877
G1 X140.752 Y48.76 E7.81227
G92 E0
;WIPE_START
G1 F24000
G1 X150.708 Y48.76 E-0.70932
G1 X150.86 Y48.608 E-0.72467
G1 X150.86 Y48.112 E-0.76
;WIPE_END
G1 E-0.8 F1800
; acceleration to travel
M204 S1500
G1 X96.655 Y46.42 F30000
; decel to extrusion
M204 S500
G1 X89.98 Y46.211
; end travel
G1 E0 F1800
G1 F4800
G1 X89.901 Y46.402 E0.00984
G1 X89.602 Y46.701 E0.02992
G1 X89.411 Y46.78 E0.03976
G1 X79.98 Y46.78 E0.48833
G1 X79.98 Y48.711 E0.58017
G1 X79.901 Y48.902 E0.59001
G1 X79.602 Y49.201 E0.6101
G1 X79.411 Y49.28 E0.61994
G1 X69.189 Y49.28 E1.10613
G1 X68.998 Y49.201 E1.11597
G1 X68.699 Y48.902 E1.13605
G1 X68.62 Y48.711 E1.14589
G1 X68.62 Y28.489 E2.1077
G1 X68.699 Y28.298 E2.11754
G1 X68.998 Y27.999 E2.13762
G1 X69.189 Y27.92 E2.14746
G1 X79.411 Y27.92 E2.63365
G1 X79.602 Y27.999 E2.64349
G1 X79.901 Y28.298 E2.66358
G1 X79.98 Y28.489 E2.67342
G1 X79.98 Y30.42 E2.76526
G1 X89.411 Y30.42 E3.21383
G1 X89.602 Y30.499 E3.22367
G1 X89.901 Y30.798 E3.24375
G1 X89.98 Y30.989 E3.25359
G1 X89.98 Y46.151 E3.97474
G1 X89.46 Y46.108 F30000
G1 F4800
G1 X89.308 Y46.26 E3.98498
G1 X79.46 Y46.26 E4.45336
G1 X79.46 Y48.608 E4.56502
G1 X79.308 Y48.76 E4.57526
G1 X69.292 Y48.76 E5.05162
G1 X69.14 Y48.608 E5.06186
G1 X69.14 Y28.592 E6.01383
G1 X69.292 Y28.44 E6.02408
G1 X79.308 Y28.44 E6.50043
G1 X79.46 Y28.592 E6.51067
G1 X79.46 Y30.94 E6.62234
G1 X89.308 Y30.94 E7.09071
G1 X89.46 Y31.092 E7.10096
G1 X89.46 Y46.048 E7.81227
G92 E0
;WIPE_START
G1 F24000
G1 X89.46 Y35.381 E-0.76
;WIPE_END
G1 E-0.8 F1800
; printing object filament_flow_test id:0 copy 0
EXCLUDE_OBJECT_START NAME=filament_flow_test_id_0_copy_0
G1 X78.919 Y45.719 F30000
G1 E0 F1800
;TYPE:External perimeter
G1 F6000
G1 X78.919 Y48.219 E0.10939
G1 X69.681 Y48.219 E0.51358
G1 X69.681 Y28.981 E1.35534
G1 X78.919 Y28.981 E1.75952
G1 X78.919 Y31.481 E1.86892
G1 X88.919 Y31.481 E2.30649
G1 X88.919 Y45.719 E2.92946
G1 X78.979 Y45.719 E3.3644
;WIPE_START
G1 X78.519 Y45.719 F30000
;WIPE_END
G1 X78.399 Y45.199
;TYPE:Internal perimeter
G1 F6000
G1 X78.399 Y47.699 E3.4738
G1 X70.201 Y47.699 E3.83248
G1 X70.201 Y29.501 E4.62873
G1 X78.399 Y29.501 E4.98741
G1 X78.399 Y32.001 E5.0968
G1 X88.399 Y32.001 E5.53437
G1 X88.399 Y45.199 E6.11184
G1 X78.459 Y45.199 E6.54678
G1 X77.879 Y44.679 F30000
G1 F6000
G1 X77.879 Y47.179 E6.65617
G1 X70.721 Y47.179 E6.96935
G1 X70.721 Y30.021 E7.72009
G1 X77.879 Y30.021 E8.03326
G1 X77.879 Y32.521 E8.14265
G1 X87.879 Y32.521 E8.58023
G1 X87.879 Y44.679 E9.11218
G1 X77.939 Y44.679 E9.54713
G92 E0
;WIPE_START
G1 F24000
G1 X87.879 Y44.679 E-0.70822
G1 X87.879 Y43.952 E-0.76
;WIPE_END
G1 E-0.8 F1800
G1 X86.671 Y32.677 F30000
G1 E0 F1800
;TYPE:Solid infill
;WIDTH:0.558451
G1 F3000
G1 X87.499 Y33.505 E0.0508
G1 X87.499 Y34.24 E0.08273
G1 X86.16 Y32.901 E0.16495
G1 X85.424 Y32.901 E0.19687
G1 X87.499 Y34.976 E0.32424
G1 X87.499 Y35.711 E0.35617
G1 X84.689 Y32.901 E0.52868
G1 X83.953 Y32.901 E0.5606
G1 X87.499 Y36.447 E0.77826
G1 X87.499 Y37.182 E0.81019
G1 X83.218 Y32.901 E1.07299
G1 X82.483 Y32.901 E1.10492
G1 X87.499 Y37.917 E1.41287
G1 X87.499 Y38.653 E1.44479
G1 X81.747 Y32.901 E1.79789
G1 X81.012 Y32.901 E1.82981
G1 X87.499 Y39.388 E2.22806
G1 X87.499 Y40.123 E2.25998
G1 X80.276 Y32.901 E2.70337
G1 X79.541 Y32.901 E2.73529
G1 X87.499 Y40.859 E3.22383
G1 X87.499 Y41.594 E3.25575
G1 X78.582 Y32.677 E3.80316
G92 E0
;WIPE_START
G1 F24000
G1 X86.125 Y40.22 E-0.76
;WIPE_END
G1 E-0.8 F1800
G1 X77.723 Y31.082 F30000
G1 E0 F1800
G1 F3000
G1 X77.041 Y30.401 E0.04183
G1 X76.306 Y30.401 E0.07376
G1 X77.723 Y31.818 E0.16074
G92 E0
;WIPE_START
G1 F24000
G1 X76.306 Y30.401 E-0.14277
G1 X77.041 Y30.401 E-0.19516
G1 X77.723 Y31.082 E-0.26383
;WIPE_END
G1 E-0.8 F1800
G1 X75.347 Y30.177 F30000
G1 E0 F1800
G1 F3000
G1 X77.499 Y32.33 E0.13213
G1 X77.499 Y32.901 E0.15693
G1 X78.07 Y32.901 E0.18173
G1 X87.499 Y42.33 E0.76056
G1 X87.499 Y43.065 E0.79248
G1 X74.835 Y30.401 E1.56993
G1 X74.1 Y30.401 E1.60186
G1 X87.499 Y43.8 E2.42445
G1 X87.499 Y44.299 E2.44609
G1 X87.262 Y44.299 E2.45638
G1 X73.364 Y30.401 E3.30958
G1 X72.629 Y30.401 E3.3415
G1 X86.527 Y44.299 E4.1947
G1 X85.791 Y44.299 E4.22662
G1 X71.893 Y30.401 E5.07982
G1 X71.158 Y30.401 E5.11175
G1 X85.056 Y44.299 E5.96495
G1 X84.321 Y44.299 E5.99687
G1 X71.101 Y31.079 E6.80842
G1 X71.101 Y31.815 E6.84034
G1 X83.585 Y44.299 E7.60675
G1 X82.85 Y44.299 E7.63867
G1 X71.101 Y32.55 E8.35993
G1 X71.101 Y33.286 E8.39185
G1 X82.114 Y44.299 E9.06797
G1 X81.379 Y44.299 E9.09989
G1 X71.101 Y34.021 E9.73086
G1 X71.101 Y34.756 E9.76278
G1 X80.644 Y44.299 E10.3486
G1 X79.908 Y44.299 E10.38052
G1 X71.101 Y35.492 E10.9212
G1 X71.101 Y36.227 E10.95312
G1 X79.173 Y44.299 E11.44865
G1 X78.437 Y44.299 E11.48058
G1 X71.101 Y36.963 E11.93096
G1 X71.101 Y37.698 E11.96288
G1 X77.702 Y44.299 E12.36812
G1 X77.499 Y44.299 E12.37694
G1 X77.499 Y44.831 E12.40004
G1 X71.101 Y38.433 E12.79282
G1 X71.101 Y39.169 E12.82474
G1 X77.499 Y45.567 E13.21751
G1 X77.499 Y46.302 E13.24943
G1 X71.101 Y39.904 E13.64221
G1 X71.101 Y40.64 E13.67413
G1 X77.26 Y46.799 E14.05226
G1 X76.525 Y46.799 E14.08418
G1 X71.101 Y41.375 E14.41717
G1 X71.101 Y42.11 E14.44909
G1 X75.79 Y46.799 E14.73693
G1 X75.054 Y46.799 E14.76885
