; generated by PrusaSlicer 2.6.0-alpha5+win64 on 2023-03-15 at 15:30:08 UTC

; 

; external perimeters extrusion width = 0.40mm
; perimeters extrusion width = 0.40mm
; infill extrusion width = 0.40mm
; solid infill extrusion width = 0.40mm
; top infill extrusion width = 0.40mm
; support material extrusion width = 0.40mm
; first layer extrusion width = 0.60mm

M107
M190 S60 ; set bed temperature and wait for it to be reached
M104 S205 ; set temperature
;TYPE:Custom
SET_GCODE_VARIABLE MACRO=START_PRINT VARIABLE=bed_temp VALUE=60
SET_GCODE_VARIABLE MACRO=START_PRINT VARIABLE=extruder_temp VALUE=205
START_PRINT
M109 S205 ; set temperature and wait for it to be reached
G21 ; set units to millimeters
G90 ; use absolute coordinates
M82 ; use absolute distances for extrusion
G92 E0
; Filament gcode
M107
;LAYER_CHANGE
;Z:0.2
;HEIGHT:0.2
;BEFORE_LAYER_CHANGE
;0.2


G1 Z.2 F18000
;AFTER_LAYER_CHANGE
;0.2
G1 E-.5 F2700
G92 E0
G1 Z.4 F18000
G1 X42.194 Y25.062
G1 Z.2
G1 E.5 F2700
;TYPE:Skirt/Brim
;WIDTH:0.6
G1 F1800
G1 X42.666 Y24.301 E.54148
G1 X43.513 Y23.226 E.60487
G1 X44.143 Y22.589 E.64637
G1 X45.209 Y21.73 E.70979
G1 X45.964 Y21.249 E.75126
G1 X47.194 Y20.648 E.81467
G1 X48.728 Y20.147 E.88942
G1 X51 Y19.886 E.99535
G1 X169.685 Y19.924 E6.493
G1 X170.575 Y20.025 E6.53449
G1 X171.909 Y20.329 E6.59787
G1 X172.734 Y20.618 E6.63836
G1 X173.938 Y21.194 E6.70018
G1 X174.699 Y21.666 E6.74166
G1 X175.774 Y22.513 E6.80505
G1 X176.411 Y23.143 E6.84655
G1 X177.27 Y24.209 E6.90997
G1 X177.751 Y24.964 E6.95144
G1 X178.352 Y26.195 E7.01489
G1 X178.66 Y27.059 E7.05738
G1 X178.975 Y28.425 E7.12232
G1 X179.114 Y30 E7.19556
G1 X179.114 Y190 E14.60698
G1 X178.975 Y191.575 E14.68022
G1 X178.671 Y192.909 E14.7436
G1 X178.375 Y193.755 E14.78512
G1 X177.781 Y194.988 E14.84852
G1 X177.304 Y195.747 E14.89004
G1 X176.451 Y196.817 E14.95343
G1 X175.817 Y197.451 E14.99496
G1 X174.747 Y198.304 E15.05835
G1 X173.989 Y198.781 E15.09984
G1 X172.755 Y199.375 E15.16328
G1 X171.909 Y199.671 E15.2048
G1 X170.575 Y199.975 E15.26818
G1 X169 Y200.114 E15.34142
G1 X51 Y200.114 E20.80734
G1 X49.425 Y199.975 E20.88058
G1 X48.091 Y199.671 E20.94396
G1 X47.266 Y199.382 E20.98445
G1 X46.061 Y198.806 E21.04632
G1 X45.301 Y198.334 E21.08776
G1 X44.226 Y197.487 E21.15115
G1 X43.589 Y196.857 E21.19265
G1 X42.73 Y195.791 E21.25607
G1 X42.249 Y195.036 E21.29754
G1 X41.648 Y193.806 E21.36095
G1 X41.147 Y192.272 E21.4357
G1 X40.886 Y190 E21.54163
G1 X40.886 Y30 E28.95305
G1 X41.025 Y28.425 E29.02629
G1 X41.329 Y27.091 E29.08967
G1 X41.618 Y26.266 E29.13016
G1 X42.168 Y25.116 E29.18921
G1 X42.667 Y25.355 F18000
G1 F1800
G1 X43.139 Y24.595 E29.23065
G1 X43.909 Y23.617 E29.28831
G1 X44.539 Y22.981 E29.32978
G1 X45.508 Y22.2 E29.38743
G1 X46.263 Y21.719 E29.4289
G1 X47.381 Y21.173 E29.48653
G1 X48.852 Y20.69 E29.55825
G1 X51 Y20.443 E29.6584
G1 X169.622 Y20.478 E35.15313
G1 X170.512 Y20.578 E35.19462
G1 X171.725 Y20.855 E35.25225
G1 X172.55 Y21.144 E35.29274
G1 X173.645 Y21.667 E35.34895
G1 X174.405 Y22.139 E35.39039
G1 X175.382 Y22.909 E35.44801
G1 X176.019 Y23.539 E35.48951
G1 X176.8 Y24.508 E35.54716
G1 X177.281 Y25.263 E35.58863
G1 X177.827 Y26.382 E35.6463
G1 X178.135 Y27.246 E35.68879
G1 X178.422 Y28.488 E35.74784
G1 X178.557 Y30 E35.81816
G1 X178.557 Y190 E43.22958
G1 X178.422 Y191.512 E43.2999
G1 X178.145 Y192.725 E43.35753
G1 X177.849 Y193.571 E43.39905
G1 X177.309 Y194.692 E43.45669
G1 X176.833 Y195.45 E43.49815
G1 X176.057 Y196.423 E43.5558
G1 X175.423 Y197.057 E43.59733
G1 X174.451 Y197.833 E43.65494
G1 X173.692 Y198.309 E43.69644
G1 X172.571 Y198.849 E43.75408
G1 X171.725 Y199.145 E43.7956
G1 X170.512 Y199.422 E43.85323
G1 X169 Y199.557 E43.92355
G1 X51 Y199.557 E49.38947
G1 X49.488 Y199.422 E49.45979
G1 X48.275 Y199.145 E49.51742
G1 X47.45 Y198.857 E49.5579
G1 X46.355 Y198.333 E49.61413
G1 X45.595 Y197.861 E49.65557
G1 X44.618 Y197.091 E49.71319
G1 X43.981 Y196.461 E49.75469
G1 X43.2 Y195.492 E49.81234
G1 X42.719 Y194.737 E49.85381
G1 X42.173 Y193.619 E49.91144
G1 X41.69 Y192.148 E49.98316
G1 X41.443 Y190 E50.08331
G1 X41.443 Y30 E57.49473
G1 X41.578 Y28.488 E57.56505
G1 X41.855 Y27.275 E57.62268
G1 X42.143 Y26.45 E57.66316
G1 X42.641 Y25.409 E57.71661
;WIPE_START
G1 F14400
G1 X43.139 Y24.595 E57.54663
G1 X43.909 Y23.617 E57.32491
G1 X44.337 Y23.185 E57.21661
;WIPE_END
G92 E0
G1 Z.4 F18000
G1 X49.086 Y192.316
G1 Z.2
G1 E.5 F2700
;TYPE:Perimeter
;WIDTH:0.835081
G1 F1800
G1 X49.043 Y192.286 E.50345
;WIDTH:0.83839
G1 X48.617 Y191.843 E.5441
G1 X48.314 Y191.365 E.58153
;WIDTH:0.834912
G1 X48.158 Y190.973 E.60931
;WIDTH:0.832174
G1 X48.041 Y190.55 E.63811
;WIDTH:0.837604
G1 X47.976 Y189.945 E.67832
G1 X47.976 Y155.999 E2.92141
;WIDTH:0.865136
G1 X47.99 Y155.49 E2.95622
G1 X47.965 Y155.417 E2.9615
;WIDTH:0.81615
G1 X47.941 Y155.343 E2.9665
;WIDTH:0.767163
G1 X47.916 Y155.27 E2.97115
;WIDTH:0.718176
G1 X47.892 Y155.197 E2.97546
;WIDTH:0.669189
G1 X47.867 Y155.124 E2.97948
;WIDTH:0.620202
G1 X47.857 Y154.791 E2.99547
;WIDTH:0.599999
G1 X47.857 Y149.209 E3.25404
;WIDTH:0.644189
G1 X47.879 Y149.093 E3.25994
;WIDTH:0.688379
G1 X47.901 Y148.976 E3.26633
;WIDTH:0.732568
G1 X47.923 Y148.86 E3.2731
;WIDTH:0.776758
G1 X47.945 Y148.743 E3.28036
;WIDTH:0.820948
G1 X47.968 Y148.627 E3.28801
;WIDTH:0.865137
G1 X47.99 Y148.51 E3.29615
G1 X47.976 Y148.001 E3.33096
;WIDTH:0.837603
G1 X47.976 Y113.999 E5.57775
;WIDTH:0.865136
G1 X47.99 Y113.49 E5.61256
G1 X47.965 Y113.417 E5.61784
;WIDTH:0.81615
G1 X47.941 Y113.343 E5.62284
;WIDTH:0.767163
G1 X47.916 Y113.27 E5.62749
;WIDTH:0.718177
G1 X47.892 Y113.197 E5.6318
;WIDTH:0.66919
G1 X47.867 Y113.124 E5.63582
;WIDTH:0.620203
G1 X47.857 Y112.791 E5.65181
;WIDTH:0.599999
G1 X47.857 Y107.209 E5.91038
;WIDTH:0.644189
G1 X47.879 Y107.093 E5.91628
;WIDTH:0.688379
G1 X47.901 Y106.976 E5.92267
;WIDTH:0.732568
G1 X47.923 Y106.86 E5.92944
;WIDTH:0.776758
G1 X47.945 Y106.743 E5.9367
;WIDTH:0.820948
G1 X47.968 Y106.627 E5.94435
;WIDTH:0.865137
G1 X47.99 Y106.51 E5.95249
G1 X47.976 Y106.001 E5.9873
;WIDTH:0.837604
G1 X47.976 Y71.999 E8.23409
;WIDTH:0.865136
G1 X47.99 Y71.49 E8.2689
G1 X47.965 Y71.417 E8.27418
;WIDTH:0.81615
G1 X47.941 Y71.343 E8.27918
;WIDTH:0.767163
G1 X47.916 Y71.27 E8.28383
;WIDTH:0.718177
G1 X47.892 Y71.197 E8.28814
;WIDTH:0.66919
G1 X47.867 Y71.124 E8.29216
;WIDTH:0.620203
G1 X47.857 Y70.791 E8.30815
;WIDTH:0.599999
G1 X47.857 Y65.209 E8.56672
;WIDTH:0.644189
G1 X47.879 Y65.093 E8.57262
;WIDTH:0.688379
G1 X47.901 Y64.976 E8.57901
;WIDTH:0.732568
G1 X47.923 Y64.86 E8.58578
;WIDTH:0.776758
G1 X47.945 Y64.743 E8.59304
;WIDTH:0.820948
G1 X47.968 Y64.627 E8.60069
;WIDTH:0.865137
G1 X47.99 Y64.51 E8.60883
G1 X47.976 Y64.001 E8.64364
;WIDTH:0.837603
G1 X47.976 Y30.077 E10.88528
G1 X48 Y29.804 E10.90339
;WIDTH:0.834044
G1 X48.071 Y29.286 E10.93778
;WIDTH:0.836043
G1 X48.259 Y28.75 E10.97524
G1 X48.427 Y28.451 E10.99786
;WIDTH:0.830688
G1 X48.753 Y28.001 E11.03426
;WIDTH:0.838389
G1 X49.157 Y27.617 E11.07113
G1 X49.635 Y27.314 E11.10856
;WIDTH:0.834909
G1 X50.027 Y27.158 E11.13634
;WIDTH:0.832173
G1 X50.45 Y27.041 E11.16514
;WIDTH:0.837598
G1 X51.077 Y26.976 E11.20679
G1 X85.001 Y26.976 E13.44841
;WIDTH:0.864769
G1 X85.51 Y26.99 E13.48321
G1 X85.583 Y26.966 E13.48846
;WIDTH:0.815867
G1 X85.657 Y26.941 E13.49348
;WIDTH:0.766965
G1 X85.73 Y26.917 E13.49811
;WIDTH:0.718063
G1 X85.803 Y26.892 E13.50244
;WIDTH:0.669161
G1 X85.876 Y26.868 E13.50644
;WIDTH:0.620258
G1 X86.137 Y26.858 E13.51898
;WIDTH:0.599999
G1 X91.791 Y26.858 E13.78088
;WIDTH:0.644115
G1 X91.907 Y26.88 E13.78678
;WIDTH:0.688231
G1 X92.024 Y26.902 E13.79317
;WIDTH:0.732347
G1 X92.14 Y26.924 E13.79994
;WIDTH:0.776463
G1 X92.257 Y26.946 E13.8072
;WIDTH:0.820579
G1 X92.373 Y26.968 E13.81483
;WIDTH:0.864694
G1 X92.49 Y26.99 E13.82296
G1 X92.999 Y26.977 E13.85775
;WIDTH:0.837155
G1 X127.001 Y26.977 E16.10327
;WIDTH:0.864321
G1 X127.51 Y26.991 E16.13805
G1 X127.583 Y26.966 E16.14332
;WIDTH:0.815518
G1 X127.656 Y26.942 E16.14826
;WIDTH:0.766714
G1 X127.73 Y26.918 E16.15294
;WIDTH:0.71791
G1 X127.803 Y26.893 E16.15727
;WIDTH:0.669106
G1 X127.876 Y26.869 E16.16127
;WIDTH:0.620302
G1 X128.209 Y26.859 E16.17726
;WIDTH:0.599999
G1 X134.357 Y26.859 E16.46204
;WIDTH:0.648747
G1 X134.437 Y26.883 E16.46625
;WIDTH:0.697495
G1 X134.517 Y26.908 E16.47081
;WIDTH:0.746242
G1 X134.598 Y26.932 E16.47575
;WIDTH:0.79499
G1 X134.678 Y26.956 E16.48097
;WIDTH:0.843737
G1 X134.758 Y26.981 E16.48655
G1 X134.999 Y26.977 E16.5026
;WIDTH:0.836708
G1 X168.945 Y26.978 E18.74316
;WIDTH:0.836347
G1 X169.196 Y27 E18.75978
;WIDTH:0.834043
G1 X169.714 Y27.071 E18.79417
;WIDTH:0.83656
G1 X170.267 Y27.266 E18.83287
G1 X170.558 Y27.43 E18.85491
;WIDTH:0.830687
G1 X170.999 Y27.753 E18.89072
;WIDTH:0.838389
G1 X171.383 Y28.157 E18.92759
G1 X171.686 Y28.635 E18.96502
;WIDTH:0.834911
G1 X171.842 Y29.027 E18.9928
;WIDTH:0.832172
G1 X171.959 Y29.45 E19.0216
;WIDTH:0.837603
G1 X172.024 Y30.055 E19.06181
G1 X172.024 Y64.001 E21.3049
;WIDTH:0.865135
G1 X172.01 Y64.51 E21.33971
G1 X172.035 Y64.583 E21.34499
;WIDTH:0.816148
G1 X172.059 Y64.657 E21.34999
;WIDTH:0.76716
G1 X172.084 Y64.73 E21.35464
;WIDTH:0.718173
G1 X172.108 Y64.803 E21.35895
;WIDTH:0.669185
G1 X172.133 Y64.876 E21.36297
;WIDTH:0.620197
G1 X172.143 Y65.209 E21.37896
;WIDTH:0.599999
G1 X172.143 Y70.791 E21.63753
;WIDTH:0.644189
G1 X172.121 Y70.907 E21.64343
;WIDTH:0.688378
G1 X172.099 Y71.024 E21.64982
;WIDTH:0.732567
G1 X172.077 Y71.14 E21.65659
;WIDTH:0.776757
G1 X172.055 Y71.257 E21.66385
;WIDTH:0.820946
G1 X172.032 Y71.373 E21.6715
;WIDTH:0.865135
G1 X172.01 Y71.49 E21.67964
G1 X172.024 Y71.999 E21.71445
;WIDTH:0.837603
G1 X172.024 Y106.001 E23.96124
;WIDTH:0.865135
G1 X172.01 Y106.51 E23.99605
G1 X172.035 Y106.583 E24.00133
;WIDTH:0.816147
G1 X172.059 Y106.657 E24.00633
;WIDTH:0.767158
G1 X172.084 Y106.73 E24.01098
;WIDTH:0.71817
G1 X172.108 Y106.803 E24.01529
;WIDTH:0.669181
G1 X172.133 Y106.876 E24.01931
;WIDTH:0.620192
G1 X172.143 Y107.209 E24.0353
;WIDTH:0.599999
G1 X172.143 Y112.791 E24.29387
;WIDTH:0.644189
G1 X172.121 Y112.907 E24.29977
;WIDTH:0.688378
G1 X172.099 Y113.024 E24.30616
;WIDTH:0.732567
G1 X172.077 Y113.14 E24.31293
;WIDTH:0.776756
G1 X172.055 Y113.257 E24.32019
;WIDTH:0.820945
G1 X172.032 Y113.373 E24.32784
;WIDTH:0.865134
G1 X172.01 Y113.49 E24.33598
G1 X172.024 Y113.999 E24.37079
;WIDTH:0.837603
G1 X172.024 Y148.001 E26.61758
;WIDTH:0.865135
G1 X172.01 Y148.51 E26.65239
G1 X172.035 Y148.583 E26.65767
;WIDTH:0.816147
G1 X172.059 Y148.657 E26.66267
;WIDTH:0.767159
G1 X172.084 Y148.73 E26.66732
;WIDTH:0.718171
G1 X172.108 Y148.803 E26.67163
;WIDTH:0.669183
G1 X172.133 Y148.876 E26.67565
;WIDTH:0.620195
G1 X172.143 Y149.209 E26.69164
;WIDTH:0.599999
G1 X172.143 Y154.791 E26.95021
;WIDTH:0.644188
G1 X172.121 Y154.907 E26.95611
;WIDTH:0.688377
G1 X172.099 Y155.024 E26.9625
;WIDTH:0.732566
G1 X172.077 Y155.14 E26.96927
;WIDTH:0.776755
G1 X172.055 Y155.257 E26.97653
;WIDTH:0.820944
G1 X172.032 Y155.373 E26.98418
;WIDTH:0.865133
G1 X172.01 Y155.49 E26.99232
G1 X172.024 Y155.999 E27.02713
;WIDTH:0.837602
G1 X172.024 Y189.923 E29.26876
G1 X172 Y190.196 E29.28687
;WIDTH:0.834042
G1 X171.929 Y190.714 E29.32126
;WIDTH:0.836562
G1 X171.734 Y191.267 E29.35996
G1 X171.57 Y191.558 E29.382
;WIDTH:0.830685
G1 X171.247 Y191.999 E29.41781
;WIDTH:0.838386
G1 X170.843 Y192.383 E29.45468
G1 X170.365 Y192.686 E29.49211
;WIDTH:0.834915
G1 X169.973 Y192.842 E29.51989
;WIDTH:0.832181
G1 X169.55 Y192.959 E29.54869
;WIDTH:0.837605
G1 X168.945 Y193.024 E29.5889
G1 X134.999 Y193.024 E31.83199
;WIDTH:0.865142
G1 X134.49 Y193.01 E31.8668
G1 X134.417 Y193.035 E31.87208
;WIDTH:0.816161
G1 X134.343 Y193.059 E31.87708
;WIDTH:0.767179
G1 X134.27 Y193.084 E31.88173
;WIDTH:0.718198
G1 X134.197 Y193.108 E31.88604
;WIDTH:0.669216
G1 X134.124 Y193.133 E31.89006
;WIDTH:0.620234
G1 X133.791 Y193.143 E31.90605
;WIDTH:0.599999
G1 X128.209 Y193.143 E32.16462
;WIDTH:0.64419
G1 X128.093 Y193.121 E32.17052
;WIDTH:0.68838
G1 X127.976 Y193.099 E32.17691
;WIDTH:0.73257
G1 X127.86 Y193.077 E32.18368
;WIDTH:0.776761
G1 X127.743 Y193.055 E32.19094
;WIDTH:0.820951
G1 X127.627 Y193.032 E32.19859
;WIDTH:0.865141
G1 X127.51 Y193.01 E32.20673
G1 X127.001 Y193.024 E32.24154
;WIDTH:0.837605
G1 X92.999 Y193.024 E34.48834
;WIDTH:0.865142
G1 X92.49 Y193.01 E34.52315
G1 X92.417 Y193.035 E34.52843
;WIDTH:0.816162
G1 X92.343 Y193.059 E34.53343
;WIDTH:0.767182
G1 X92.27 Y193.084 E34.53808
;WIDTH:0.718202
G1 X92.197 Y193.108 E34.54239
;WIDTH:0.669222
G1 X92.124 Y193.133 E34.54641
;WIDTH:0.620241
G1 X91.863 Y193.143 E34.55895
;WIDTH:0.599999
G1 X86.209 Y193.143 E34.82085
;WIDTH:0.64419
G1 X86.093 Y193.121 E34.82675
;WIDTH:0.68838
G1 X85.976 Y193.099 E34.83314
;WIDTH:0.73257
G1 X85.86 Y193.077 E34.83991
;WIDTH:0.776761
G1 X85.743 Y193.055 E34.84717
;WIDTH:0.820951
G1 X85.627 Y193.032 E34.85482
;WIDTH:0.865141
G1 X85.51 Y193.01 E34.86296
G1 X85.001 Y193.024 E34.89777
;WIDTH:0.837605
G1 X51.077 Y193.024 E37.13941
G1 X50.804 Y193 E37.15752
;WIDTH:0.834051
G1 X50.286 Y192.929 E37.19191
;WIDTH:0.835081
G1 X49.782 Y192.752 E37.2271
G1 X49.503 Y192.605 E37.24787
G1 X49.135 Y192.35 E37.27736
G1 X48.694 Y192.891 F18000
;TYPE:External perimeter
;WIDTH:0.599999
G1 F1800
G1 X48.109 Y192.306 E37.31568
G1 X47.668 Y191.605 E37.35404
G1 X47.395 Y190.823 E37.39241
G1 X47.3 Y189.983 E37.43157
G1 X47.3 Y30.017 E44.8414
G1 X47.395 Y29.177 E44.88056
G1 X47.661 Y28.416 E44.9179
G1 X48.109 Y27.694 E44.95726
G1 X48.694 Y27.109 E44.99558
G1 X49.395 Y26.668 E45.03394
G1 X50.177 Y26.395 E45.07231
G1 X51.017 Y26.3 E45.11147
G1 X169.005 Y26.303 E50.57683
G1 X169.823 Y26.395 E50.61496
G1 X170.605 Y26.668 E50.65333
G1 X171.203 Y27.044 E50.68605
G1 X171.599 Y27.401 E50.71075
G1 X171.956 Y27.797 E50.73545
G1 X172.332 Y28.395 E50.76817
G1 X172.605 Y29.177 E50.80654
G1 X172.7 Y30.017 E50.8457
G1 X172.7 Y189.983 E58.25553
G1 X172.605 Y190.823 E58.29469
G1 X172.332 Y191.605 E58.33306
G1 X171.891 Y192.306 E58.37142
G1 X171.306 Y192.891 E58.40974
G1 X170.605 Y193.332 E58.4481
G1 X169.823 Y193.605 E58.48647
G1 X168.983 Y193.7 E58.52563
G1 X51.017 Y193.7 E63.98997
G1 X50.177 Y193.605 E64.02913
G1 X49.395 Y193.332 E64.0675
G1 X48.745 Y192.923 E64.10307
G1 X48.754 Y192.496 F18000
;WIPE_START
G1 F14400
G1 X48.109 Y192.306 E63.94523
G1 X47.668 Y191.605 E63.79771
G1 X47.395 Y190.823 E63.65017
G1 X47.365 Y190.56 E63.60307
;WIPE_END
G92 E0
G1 Z.4 F18000
G1 X170.479 Y65.484
G1 Z.2
G1 E.5 F2700
;TYPE:Perimeter
G1 F1800
G1 X170.41 Y65.565 E.50493
G1 X169.957 Y65.876 E.53038
G1 X169.439 Y66.06 E.55584
G1 X169.001 Y66.111 E.57627
G1 X134.999 Y66.111 E2.15129
G1 X134.423 Y66.03 E2.17823
G1 X133.937 Y65.824 E2.20268
G1 X133.507 Y65.493 E2.22782
G1 X133.176 Y65.063 E2.25296
G1 X132.962 Y64.55 E2.27871
G1 X132.889 Y64.001 E2.30436
G1 X132.889 Y29.999 E3.87938
G1 X132.95 Y29.502 E3.90257
G1 X133.124 Y29.043 E3.92531
G1 X133.435 Y28.59 E3.95076
G1 X133.854 Y28.233 E3.97626
G1 X134.283 Y28.024 E3.99836
;WIDTH:0.648747
G1 X134.393 Y27.976 E4.00441
;WIDTH:0.697495
G1 X134.502 Y27.927 E4.01091
;WIDTH:0.746242
G1 X134.611 Y27.879 E4.01788
;WIDTH:0.79499
G1 X134.72 Y27.831 E4.02533
;WIDTH:0.843737
G1 X134.83 Y27.783 E4.03332
G1 X134.999 Y27.771 E4.0446
;WIDTH:0.836708
G1 X168.945 Y27.771 E6.28516
;WIDTH:0.836347
G1 X169.454 Y27.825 E6.31893
;WIDTH:0.83656
G1 X169.985 Y28.007 E6.35597
G1 X170.481 Y28.344 E6.39554
;WIDTH:0.830687
G1 X170.858 Y28.784 E6.43349
;WIDTH:0.828313
G1 X170.907 Y28.858 E6.43929
;WIDTH:0.826715
G1 X171.127 Y29.357 E6.47483
;WIDTH:0.829074
G1 X171.217 Y29.875 E6.5092
;WIDTH:0.837603
G1 X171.229 Y64.001 E8.76418
;WIDTH:0.865135
G1 X171.192 Y64.456 E8.79539
G1 X171.156 Y64.496 E8.79907
;WIDTH:0.816148
G1 X171.12 Y64.535 E8.80248
;WIDTH:0.76716
G1 X171.085 Y64.575 E8.80568
;WIDTH:0.718173
G1 X171.049 Y64.614 E8.80866
;WIDTH:0.669185
G1 X171.013 Y64.654 E8.81146
;WIDTH:0.620197
G1 X170.767 Y65.146 E8.83786
;WIDTH:0.599999
G1 X170.518 Y65.438 E8.85564
G1 X170.087 Y65.103 F18000
;TYPE:External perimeter
G1 F1800
G1 X169.744 Y65.362 E8.87555
G1 X169.366 Y65.508 E8.89432
G1 X169.001 Y65.554 E8.91136
G1 X134.999 Y65.554 E10.48638
