; generated by PrusaSlicer 2.6.0-alpha5+win64 on 2023-03-15 at 14:01:59 UTC

; 

; external perimeters extrusion width = 0.40mm
; perimeters extrusion width = 0.40mm
; infill extrusion width = 0.40mm
; solid infill extrusion width = 0.40mm
; top infill extrusion width = 0.40mm
; first layer extrusion width = 0.40mm

M107
M190 S60 ; set bed temperature and wait for it to be reached
M104 S205 ; set temperature
;TYPE:Custom
SET_GCODE_VARIABLE MACRO=START_PRINT VARIABLE=bed_temp VALUE=60
SET_GCODE_VARIABLE MACRO=START_PRINT VARIABLE=extruder_temp VALUE=205
START_PRINT
M109 S205 ; set temperature and wait for it to be reached
G21 ; set units to millimeters
G90 ; use absolute coordinates
M82 ; use absolute distances for extrusion
G92 E0
; Filament gcode
M107
;LAYER_CHANGE
;Z:0.2
;HEIGHT:0.2
;BEFORE_LAYER_CHANGE
;0.2


G1 Z.2 F18000
;AFTER_LAYER_CHANGE
;0.2
G1 E-.5 F2700
G92 E0
G1 Z.4 F18000
G1 X66.207 Y85.653
G1 Z.2
G1 E.5 F2700
;TYPE:Skirt/Brim
;WIDTH:0.4
G1 F3600
G1 X67.349 Y84.87 E.54111
G1 X68.592 Y84.258 E.58225
G1 X69.909 Y83.829 E.62338
G1 X71.274 Y83.592 E.66451
G1 X72.25 Y83.536 E.69354
G1 X148.157 Y83.551 E2.94732
G1 X150.089 Y83.829 E3.00527
G1 X151.406 Y84.257 E3.04639
G1 X152.148 Y84.596 E3.07061
G1 X153.335 Y85.31 E3.11174
G1 X154.409 Y86.187 E3.15291
G1 X155.347 Y87.207 E3.19405
G1 X156.399 Y88.843 E3.2518
G1 X156.94 Y90.122 E3.29303
G1 X157.171 Y90.909 E3.31738
G1 X157.407 Y92.265 E3.35825
G1 X157.464 Y93.25 E3.38754
G1 X157.464 Y126.75 E4.3822
G1 X157.408 Y127.726 E4.41123
G1 X157.292 Y128.533 E4.43544
G1 X156.941 Y129.873 E4.47657
G1 X156.403 Y131.15 E4.51771
G1 X155.693 Y132.331 E4.55862
G1 X154.412 Y133.81 E4.61671
G1 X153.341 Y134.686 E4.65779
G1 X152.651 Y135.13 E4.68215
G1 X151.408 Y135.742 E4.72329
G1 X150.091 Y136.171 E4.76442
G1 X148.726 Y136.408 E4.80555
G1 X147.75 Y136.464 E4.83458
G1 X71.843 Y136.449 E7.08836
G1 X70.468 Y136.293 E7.12945
G1 X69.127 Y135.941 E7.17061
G1 X67.349 Y135.13 E7.22863
G1 X66.207 Y134.347 E7.26974
G1 X65.591 Y133.813 E7.29395
G1 X64.653 Y132.793 E7.33509
G1 X63.871 Y131.652 E7.37616
G1 X63.258 Y130.408 E7.41734
G1 X62.829 Y129.093 E7.45841
G1 X62.592 Y127.728 E7.49954
G1 X62.536 Y126.749 E7.52866
G1 X62.536 Y93.251 E8.52326
G1 X62.591 Y92.277 E8.55223
G1 X62.827 Y90.916 E8.59324
G1 X63.256 Y89.599 E8.63437
G1 X63.868 Y88.353 E8.67559
G1 X64.311 Y87.664 E8.69991
G1 X65.588 Y86.19 E8.75781
G1 X66.161 Y85.692 E8.78035
G1 X66.395 Y85.961 F18000
G1 F3600
G1 X67.521 Y85.184 E8.82097
G1 X68.717 Y84.593 E8.86058
G1 X69.985 Y84.178 E8.90019
G1 X71.299 Y83.948 E8.9398
G1 X72.25 Y83.893 E8.96808
G1 X148.132 Y83.907 E11.22111
G1 X150.013 Y84.178 E11.27754
G1 X151.282 Y84.592 E11.31717
G1 X151.977 Y84.909 E11.33985
G1 X153.121 Y85.596 E11.37947
G1 X154.157 Y86.439 E11.41913
G1 X155.061 Y87.421 E11.45876
G1 X156.086 Y89.014 E11.515
G1 X156.605 Y90.247 E11.55472
G1 X156.822 Y90.985 E11.57756
G1 X157.051 Y92.291 E11.61693
G1 X157.107 Y93.25 E11.64545
G1 X157.107 Y126.75 E12.64011
G1 X157.052 Y127.701 E12.66839
G1 X156.943 Y128.458 E12.6911
G1 X156.607 Y129.749 E12.73071
G1 X156.09 Y130.979 E12.77033
G1 X155.407 Y132.117 E12.80974
G1 X154.16 Y133.558 E12.86632
G1 X153.126 Y134.4 E12.90591
G1 X152.479 Y134.816 E12.92875
G1 X151.283 Y135.407 E12.96836
G1 X150.015 Y135.822 E13.00797
G1 X148.701 Y136.052 E13.04758
G1 X147.75 Y136.107 E13.07586
G1 X71.868 Y136.093 E15.32889
G1 X70.544 Y135.944 E15.36845
G1 X69.251 Y135.607 E15.40812
G1 X67.521 Y134.816 E15.4646
G1 X66.421 Y134.061 E15.50421
G1 X65.843 Y133.561 E15.5269
G1 X64.939 Y132.579 E15.56653
G1 X64.185 Y131.481 E15.60608
G1 X63.593 Y130.283 E15.64576
G1 X63.178 Y129.017 E15.68532
G1 X62.948 Y127.703 E15.72493
G1 X62.893 Y126.749 E15.7533
G1 X62.893 Y93.251 E16.7479
G1 X62.948 Y92.302 E16.77612
G1 X63.176 Y90.991 E16.81563
G1 X63.59 Y89.723 E16.85523
G1 X64.182 Y88.524 E16.89493
G1 X64.597 Y87.878 E16.91773
G1 X65.84 Y86.442 E16.97412
G1 X66.349 Y86.001 E16.99412
;WIPE_START
G1 F14400
G1 X67.521 Y85.184 E16.73964
G1 X68.717 Y84.593 E16.50201
G1 X68.759 Y84.579 E16.49412
;WIPE_END
G92 E0
G1 Z.4 F18000
G1 X120.25 Y99.491
G1 Z.2
G1 E.5 F2700
;TYPE:External perimeter
;WIDTH:0.399999
G1 F3600
G1 X120.302 Y99.365 E.50405
G1 X120.466 Y99.252 E.50996
G1 X121.121 Y99.268 E.52941
G1 X121.242 Y99.32 E.53332
G1 X128.979 Y107.058 E.85822
G1 X129.427 Y107.438 E.87566
G1 X129.926 Y107.723 E.89272
G1 X130.477 Y107.884 E.90976
G1 X131.048 Y107.941 E.9268
G1 X131.617 Y107.864 E.94385
G1 X132.162 Y107.683 E.9609
G1 X132.651 Y107.382 E.97795
G1 X133.049 Y107.022 E.99388
G1 X140.75 Y99.32 E1.31726
G1 X140.92 Y99.25 E1.32272
G1 X141.509 Y99.25 E1.34021
G1 X141.635 Y99.302 E1.34426
G1 X141.748 Y99.466 E1.35017
G1 X141.732 Y100.121 E1.36962
G1 X141.68 Y100.242 E1.37353
G1 X133.802 Y108.13 E1.70454
G1 X133.452 Y108.584 E1.72156
G1 X133.215 Y109.107 E1.73861
G1 X133.079 Y109.665 E1.75566
G1 X133.076 Y110.239 E1.7727
G1 X133.179 Y110.804 E1.78975
G1 X133.41 Y111.33 E1.80681
G1 X133.733 Y111.804 E1.82384
G1 X141.68 Y119.75 E2.15751
G1 X141.75 Y119.92 E2.16297
G1 X141.75 Y120.509 E2.18046
G1 X141.698 Y120.635 E2.18451
G1 X141.534 Y120.748 E2.19042
G1 X140.879 Y120.732 E2.20987
G1 X140.758 Y120.68 E2.21378
G1 X133.021 Y112.942 E2.53868
G1 X132.573 Y112.562 E2.55612
G1 X132.074 Y112.277 E2.57318
G1 X131.523 Y112.116 E2.59022
G1 X130.952 Y112.059 E2.60726
G1 X130.383 Y112.136 E2.62431
G1 X129.838 Y112.317 E2.64136
G1 X129.349 Y112.618 E2.65841
G1 X128.951 Y112.978 E2.67434
G1 X121.25 Y120.68 E2.99772
G1 X121.08 Y120.75 E3.00318
G1 X120.491 Y120.75 E3.02067
G1 X120.365 Y120.698 E3.02472
G1 X120.252 Y120.534 E3.03063
G1 X120.268 Y119.879 E3.05008
G1 X120.32 Y119.758 E3.05399
G1 X128.058 Y112.021 E3.37889
G1 X128.438 Y111.573 E3.39633
G1 X128.723 Y111.074 E3.41339
G1 X128.884 Y110.523 E3.43043
G1 X128.941 Y109.952 E3.44747
G1 X128.864 Y109.383 E3.46452
G1 X128.683 Y108.838 E3.48157
G1 X128.382 Y108.349 E3.49862
G1 X128.022 Y107.951 E3.51455
G1 X120.318 Y100.248 E3.83802
G1 X120.25 Y100.08 E3.8434
G1 X120.25 Y99.551 E3.85911
;WIPE_START
G1 F14400
G1 X120.302 Y99.365 E3.82471
G1 X120.466 Y99.252 E3.78923
G1 X121.121 Y99.268 E3.67252
G1 X121.242 Y99.32 E3.64906
G1 X122.393 Y100.471 E3.35911
;WIPE_END
G92 E0
G1 Z.4 F18000
G1 X120.25 Y89.451
G1 Z.2
G1 E.5 F2700
G1 F3600
G1 X147.745 Y89.451 E1.31636
G1 X148.29 Y89.49 E1.33258
G1 X148.819 Y89.605 E1.34865
G1 X149.328 Y89.794 E1.36477
G1 X149.806 Y90.056 E1.38095
G1 X150.238 Y90.379 E1.39697
G1 X150.621 Y90.762 E1.41305
G1 X150.946 Y91.196 E1.42915
G1 X151.204 Y91.669 E1.44515
G1 X151.395 Y92.18 E1.46135
G1 X151.51 Y92.71 E1.47745
G1 X151.55 Y93.399 E1.49794
G1 X151.55 Y126.742 E2.48794
G1 X151.51 Y127.29 E2.50425
G1 X151.395 Y127.82 E2.52035
G1 X151.206 Y128.328 E2.53644
G1 X150.946 Y128.804 E2.55254
G1 X150.621 Y129.238 E2.56864
G1 X150.238 Y129.621 E2.58472
G1 X149.804 Y129.946 E2.60082
G1 X149.328 Y130.206 E2.61692
G1 X148.82 Y130.395 E2.63301
G1 X148.29 Y130.51 E2.64911
G1 X147.742 Y130.55 E2.66542
G1 X72.258 Y130.55 E4.90663
G1 X71.71 Y130.51 E4.92294
G1 X71.18 Y130.395 E4.93904
G1 X70.672 Y130.206 E4.95513
G1 X70.196 Y129.946 E4.97123
G1 X69.762 Y129.621 E4.98733
G1 X69.379 Y129.238 E5.00341
G1 X69.054 Y128.804 E5.01951
G1 X68.794 Y128.328 E5.03561
G1 X68.605 Y127.82 E5.0517
G1 X68.49 Y127.291 E5.06777
G1 X68.451 Y126.742 E5.08411
G1 X68.451 Y93.258 E6.07829
G1 X68.49 Y92.71 E6.0946
G1 X68.605 Y92.18 E6.1107
G1 X68.794 Y91.672 E6.12679
G1 X69.054 Y91.196 E6.14289
G1 X69.379 Y90.762 E6.15899
G1 X69.762 Y90.379 E6.17507
G1 X70.196 Y90.054 E6.19117
G1 X70.672 Y89.794 E6.20727
G1 X71.181 Y89.605 E6.22339
G1 X71.71 Y89.49 E6.23946
G1 X72.258 Y89.451 E6.25577
G1 X120.19 Y89.451 E7.67893
;WIPE_START
G1 F14400
G1 X122.997 Y89.451 E7.17893
;WIPE_END
G92 E0
G1 Z.4 F18000
G1 X99.748 Y99.466
G1 Z.2
G1 E.5 F2700
G1 F3600
G1 X99.732 Y100.121 E.51945
G1 X99.68 Y100.242 E.52336
G1 X91.942 Y107.979 E.84826
G1 X91.562 Y108.427 E.8657
G1 X91.277 Y108.926 E.88276
G1 X91.116 Y109.477 E.8998
G1 X91.059 Y110.048 E.91684
G1 X91.136 Y110.617 E.93389
G1 X91.317 Y111.162 E.95094
G1 X91.618 Y111.651 E.96799
G1 X91.978 Y112.049 E.98392
G1 X99.682 Y119.752 E1.30739
G1 X99.75 Y119.92 E1.31277
G1 X99.75 Y120.509 E1.33026
G1 X99.698 Y120.635 E1.33431
G1 X99.534 Y120.748 E1.34022
G1 X98.879 Y120.732 E1.35967
G1 X98.758 Y120.68 E1.36358
G1 X91.021 Y112.942 E1.68848
G1 X90.573 Y112.562 E1.70592
G1 X90.074 Y112.277 E1.72298
G1 X89.523 Y112.116 E1.74002
G1 X88.952 Y112.059 E1.75706
G1 X88.383 Y112.136 E1.77411
G1 X87.838 Y112.317 E1.79116
G1 X87.349 Y112.618 E1.80821
G1 X86.951 Y112.978 E1.82414
G1 X79.25 Y120.68 E2.14752
G1 X79.08 Y120.75 E2.15298
G1 X78.491 Y120.75 E2.17047
G1 X78.365 Y120.698 E2.17452
G1 X78.252 Y120.534 E2.18043
G1 X78.268 Y119.879 E2.19988
G1 X78.32 Y119.758 E2.20379
G1 X86.058 Y112.021 E2.52869
G1 X86.438 Y111.573 E2.54613
G1 X86.723 Y111.074 E2.56319
G1 X86.884 Y110.523 E2.58023
G1 X86.941 Y109.952 E2.59727
G1 X86.864 Y109.383 E2.61432
G1 X86.683 Y108.838 E2.63137
G1 X86.382 Y108.349 E2.64842
G1 X86.022 Y107.951 E2.66435
G1 X78.32 Y100.25 E2.98773
G1 X78.25 Y100.08 E2.99319
G1 X78.25 Y99.491 E3.01068
G1 X78.302 Y99.365 E3.01473
G1 X78.466 Y99.252 E3.02064
G1 X79.121 Y99.268 E3.04009
G1 X79.242 Y99.32 E3.044
G1 X86.979 Y107.058 E3.3689
G1 X87.427 Y107.438 E3.38634
G1 X87.926 Y107.723 E3.4034
G1 X88.477 Y107.884 E3.42044
G1 X89.048 Y107.941 E3.43748
G1 X89.617 Y107.864 E3.45453
G1 X90.162 Y107.683 E3.47158
G1 X90.651 Y107.382 E3.48863
G1 X91.049 Y107.022 E3.50456
G1 X98.75 Y99.32 E3.82794
G1 X98.92 Y99.25 E3.8334
G1 X99.509 Y99.25 E3.85089
G1 X99.635 Y99.302 E3.85494
G1 X99.714 Y99.417 E3.85908
;WIPE_START
G1 F14400
G1 X99.732 Y100.121 E3.73364
G1 X99.68 Y100.242 E3.71018
G1 X98.286 Y101.636 E3.35908
;WIPE_END
G92 E0
G1 Z.4 F18000
G1 X149.478 Y89.998
G1 Z.2
G1 E.5 F2700
;TYPE:Solid infill
;WIDTH:0.400861
G1 F3600
G1 X150.42 Y90.941 E.53967
G1 X150.72 Y91.341 E.55455
G1 X150.96 Y91.781 E.56947
G1 X151.083 Y92.11 E.57992
G1 X148.89 Y89.917 E.67223
G1 X148.744 Y89.862 E.67687
G1 X148.22 Y89.753 E.6928
G1 X151.247 Y92.78 E.82021
G1 X151.282 Y93.321 E.83635
G1 X147.679 Y89.719 E.98798
G1 X147.173 Y89.719 E1.00304
G1 X151.282 Y93.827 E1.17597
G1 X151.282 Y94.334 E1.19106
G1 X146.667 Y89.719 E1.38531
G1 X146.16 Y89.719 E1.4004
G1 X151.282 Y94.84 E1.61597
G1 X151.282 Y95.346 E1.63103
G1 X145.654 Y89.719 E1.8679
G1 X145.148 Y89.719 E1.88296
G1 X151.282 Y95.852 E2.14113
G1 X151.282 Y96.358 E2.15619
G1 X144.642 Y89.719 E2.43565
G1 X144.136 Y89.719 E2.45071
G1 X151.282 Y96.865 E2.75149
G1 X151.282 Y97.371 E2.76655
G1 X143.629 Y89.719 E3.08865
G1 X143.123 Y89.719 E3.10371
G1 X151.282 Y97.877 E3.44711
G1 X151.282 Y98.383 E3.46217
G1 X142.617 Y89.719 E3.82687
G1 X142.111 Y89.719 E3.84193
G1 X151.282 Y98.889 E4.22793
G1 X151.282 Y99.396 E4.24302
G1 X141.605 Y89.719 E4.65034
G1 X141.098 Y89.719 E4.66543
G1 X151.282 Y99.902 E5.09406
G1 X151.282 Y100.408 E5.10912
G1 X140.592 Y89.718 E5.55907
G1 X140.086 Y89.718 E5.57413
G1 X151.282 Y100.914 E6.04538
G1 X151.282 Y101.42 E6.06044
G1 X139.58 Y89.718 E6.55299
G1 X139.074 Y89.718 E6.56805
G1 X151.282 Y101.927 E7.08192
G1 X151.282 Y102.433 E7.09698
G1 X138.567 Y89.718 E7.63217
G1 X138.061 Y89.718 E7.64723
G1 X151.282 Y102.939 E8.20372
G1 X151.282 Y103.445 E8.21878
G1 X137.555 Y89.718 E8.79656
G1 X137.049 Y89.718 E8.81162
G1 X151.282 Y103.951 E9.4107
G1 X151.282 Y104.458 E9.42579
G1 X136.543 Y89.718 E10.04619
G1 X136.036 Y89.718 E10.06128
G1 X151.282 Y104.964 E10.703
G1 X151.282 Y105.47 E10.71806
G1 X135.53 Y89.718 E11.38108
G1 X135.024 Y89.718 E11.39614
G1 X151.282 Y105.976 E12.08046
G1 X151.282 Y106.482 E12.09552
G1 X134.518 Y89.718 E12.80114
G1 X134.012 Y89.718 E12.8162
G1 X151.282 Y106.989 E13.54313
G1 X151.282 Y107.495 E13.55819
G1 X133.505 Y89.718 E14.30644
G1 X132.999 Y89.718 E14.3215
G1 X151.282 Y108.001 E15.09105
G1 X151.282 Y108.507 E15.10611
G1 X132.493 Y89.718 E15.89696
G1 X131.987 Y89.718 E15.91202
G1 X141.253 Y98.985 E16.30206
G1 X141.589 Y98.988 E16.31206
G1 X141.773 Y99.067 E16.31802
G1 X141.932 Y99.226 E16.32471
G1 X141.998 Y99.354 E16.329
G1 X142.018 Y99.497 E16.3333
G1 X142.01 Y99.741 E16.34057
G1 X151.282 Y109.013 E16.73084
G1 X151.282 Y109.52 E16.74593
G1 X141.983 Y100.221 E17.13734
G1 X141.914 Y100.382 E17.14255
G1 X141.776 Y100.52 E17.14836
G1 X151.282 Y110.026 E17.54848
G1 X151.282 Y110.532 E17.56354
G1 X141.523 Y100.773 E17.97431
G1 X141.27 Y101.026 E17.98496
G1 X151.282 Y111.038 E18.40638
G1 X151.282 Y111.545 E18.42147
G1 X141.017 Y101.279 E18.85356
G1 X140.764 Y101.533 E18.86423
G1 X151.282 Y112.051 E19.30694
G1 X151.282 Y112.557 E19.322
G1 X140.511 Y101.786 E19.77536
G1 X140.258 Y102.039 E19.78601
G1 X151.282 Y113.063 E20.25002
G1 X151.282 Y113.569 E20.26508
G1 X140.005 Y102.292 E20.73974
G1 X139.752 Y102.545 E20.75039
G1 X151.282 Y114.076 E21.23572
G1 X151.282 Y114.582 E21.25078
G1 X139.499 Y102.799 E21.74674
G1 X139.246 Y103.052 E21.75739
G1 X151.282 Y115.088 E22.264
G1 X151.282 Y115.594 E22.27906
G1 X138.993 Y103.305 E22.79632
G1 X138.739 Y103.558 E22.80699
G1 X151.282 Y116.1 E23.33492
G1 X151.282 Y116.607 E23.35001
G1 X138.486 Y103.811 E23.88861
G1 X138.233 Y104.065 E23.89928
G1 X151.282 Y117.113 E24.44851
G1 X151.282 Y117.619 E24.46357
G1 X137.98 Y104.318 E25.02345
G1 X137.727 Y104.571 E25.0341
G1 X151.282 Y118.125 E25.60462
G1 X151.282 Y118.631 E25.61968
G1 X137.474 Y104.824 E26.20085
G1 X137.221 Y105.077 E26.2115
G1 X151.282 Y119.138 E26.80334
G1 X151.282 Y119.644 E26.8184
G1 X136.968 Y105.33 E27.42089
G1 X136.715 Y105.584 E27.43156
G1 X151.282 Y120.15 E28.04468
G1 X151.282 Y120.656 E28.05974
G1 X136.462 Y105.837 E28.68351
G1 X136.209 Y106.09 E28.69416
G1 X151.282 Y121.162 E29.32858
G1 X151.282 Y121.669 E29.34367
G1 X135.956 Y106.343 E29.98876
G1 X135.703 Y106.596 E29.99941
G1 X151.282 Y122.175 E30.65515
G1 X151.282 Y122.681 E30.67021
G1 X135.45 Y106.85 E31.33658
G1 X135.197 Y107.103 E31.34723
G1 X151.282 Y123.187 E32.02424
G1 X151.282 Y123.693 E32.0393
G1 X134.944 Y107.356 E32.72696
G1 X134.691 Y107.609 E32.73761
G1 X151.282 Y124.2 E33.43594
G1 X151.282 Y124.706 E33.451
G1 X134.438 Y107.862 E34.15998
G1 X134.185 Y108.115 E34.17063
G1 X151.282 Y125.212 E34.89026
G1 X151.282 Y125.718 E34.90532
G1 X133.939 Y108.376 E35.63529
G1 X133.722 Y108.665 E35.64605
G1 X151.282 Y126.224 E36.38515
G1 X151.282 Y126.731 E36.40024
G1 X133.544 Y108.993 E37.14685
G1 X133.41 Y109.366 E37.15865
G1 X151.248 Y127.203 E37.90945
G1 X151.163 Y127.625 E37.92226
G1 X133.34 Y109.802 E38.67245
G1 X133.328 Y110.043 E38.67963
G1 X133.352 Y110.32 E38.68791
G1 X151.039 Y128.007 E39.43238
G1 X150.961 Y128.216 E39.43902
G1 X150.884 Y128.358 E39.44383
G1 X133.551 Y111.024 E40.17342
G1 X133.728 Y111.351 E40.18449
G1 X133.936 Y111.628 E40.1948
G1 X141.911 Y119.607 E40.53056
G1 X142.015 Y119.854 E40.53854
G1 X142.015 Y119.995 E40.54274
G1 X150.702 Y128.682 E40.90839
G1 X150.486 Y128.972 E40.91915
G1 X142.018 Y120.504 E41.27558
G1 X141.995 Y120.656 E41.28016
G1 X141.857 Y120.85 E41.28725
G1 X150.244 Y129.236 E41.64025
G1 X149.98 Y129.479 E41.65093
G1 X141.519 Y121.018 E42.00706
G1 X140.999 Y121.003 E42.02254
G1 X149.691 Y129.696 E42.38842
G1 X149.368 Y129.879 E42.39947
G1 X132.06 Y112.571 E43.12798
G1 X131.642 Y112.412 E43.14129
G1 X131.335 Y112.352 E43.1506
G1 X149.018 Y130.035 E43.8949
G1 X148.637 Y130.161 E43.90684
G1 X130.817 Y112.34 E44.65692
G1 X130.612 Y112.358 E44.66304
G1 X130.382 Y112.411 E44.67006
G1 X148.217 Y130.247 E45.42078
G1 X147.745 Y130.281 E45.43486
G1 X130.004 Y112.54 E46.1816
G1 X129.672 Y112.715 E46.19277
G1 X147.24 Y130.282 E46.93221
G1 X146.733 Y130.282 E46.9473
G1 X129.381 Y112.929 E47.67769
G1 X129.127 Y113.181 E47.68834
G1 X146.227 Y130.282 E48.40812
G1 X145.721 Y130.282 E48.42318
G1 X128.874 Y113.434 E49.13231
G1 X128.621 Y113.687 E49.14296
G1 X145.215 Y130.282 E49.84144
G1 X144.709 Y130.282 E49.8565
G1 X128.367 Y113.94 E50.54435
G1 X128.114 Y114.193 E50.555
G1 X144.202 Y130.282 E51.23218
G1 X143.696 Y130.282 E51.24724
G1 X127.861 Y114.447 E51.91375
G1 X127.608 Y114.7 E51.9244
G1 X143.19 Y130.282 E52.58026
G1 X142.684 Y130.282 E52.59532
