; generated by PrusaSlicer 2.6.0-alpha5+win64 on 2023-03-15 at 14:46:22 UTC

; 

; external perimeters extrusion width = 0.50mm
; perimeters extrusion width = 0.50mm
; infill extrusion width = 0.50mm
; solid infill extrusion width = 0.50mm
; top infill extrusion width = 0.50mm
; first layer extrusion width = 0.50mm

M107
M190 S60 ; set bed temperature and wait for it to be reached
M104 S205 ; set temperature
;TYPE:Custom
SET_GCODE_VARIABLE MACRO=START_PRINT VARIABLE=bed_temp VALUE=60
SET_GCODE_VARIABLE MACRO=START_PRINT VARIABLE=extruder_temp VALUE=205
START_PRINT
M109 S205 ; set temperature and wait for it to be reached
G21 ; set units to millimeters
G90 ; use absolute coordinates
M82 ; use absolute distances for extrusion
G92 E0
; Filament gcode
M107
;LAYER_CHANGE
;Z:0.2
;HEIGHT:0.2
;BEFORE_LAYER_CHANGE
;0.2


G1 Z.2 F18000
;AFTER_LAYER_CHANGE
;0.2
G1 E-.5 F2700
G92 E0
G1 Z.4 F18000
G1 X88.533 Y87.903
G1 Z.2
G1 E.5 F2700
;TYPE:Skirt/Brim
;WIDTH:0.5
G1 F3600
G1 X89.717 Y87.076 E.55489
G1 X91.135 Y86.482 E.61332
G1 X92.459 Y86.238 E.66449
G1 X127.428 Y86.228 E1.99353
G1 X128.589 Y86.407 E2.03818
G1 X129.836 Y86.848 E2.08845
G1 X130.507 Y87.199 E2.11723
G1 X131.684 Y88.109 E2.17377
G1 X132.645 Y89.252 E2.23053
G1 X133.199 Y90.254 E2.27405
G1 X133.526 Y91.164 E2.3108
G1 X133.758 Y92.421 E2.35938
G1 X133.772 Y127.428 E3.68987
G1 X133.6 Y128.559 E3.73335
G1 X133.32 Y129.453 E3.76896
G1 X132.816 Y130.48 E3.81244
G1 X132.26 Y131.271 E3.84919
G1 X131.467 Y132.097 E3.89271
G1 X130.722 Y132.662 E3.92825
G1 X129.746 Y133.199 E3.97059
G1 X128.368 Y133.634 E4.02551
G1 X126.975 Y133.789 E4.07878
G1 X92.572 Y133.772 E5.38631
G1 X91.441 Y133.6 E5.42979
G1 X90.547 Y133.32 E5.4654
G1 X89.52 Y132.816 E5.50888
G1 X88.729 Y132.26 E5.54563
G1 X87.903 Y131.467 E5.58915
G1 X87.338 Y130.722 E5.62469
G1 X86.801 Y129.746 E5.66703
G1 X86.366 Y128.368 E5.72195
G1 X86.211 Y126.975 E5.77522
G1 X86.228 Y92.572 E7.08275
G1 X86.4 Y91.441 E7.12623
G1 X86.68 Y90.547 E7.16184
G1 X87.184 Y89.52 E7.20532
G1 X87.74 Y88.729 E7.24207
G1 X88.491 Y87.947 E7.28328
G1 X88.82 Y88.262 F18000
G1 F3600
G1 X89.945 Y87.472 E7.33553
G1 X91.256 Y86.923 E7.38955
G1 X92.503 Y86.693 E7.43774
G1 X127.393 Y86.684 E8.76378
G1 X128.485 Y86.852 E8.80577
G1 X129.638 Y87.26 E8.85225
G1 X130.273 Y87.592 E8.87948
G1 X131.373 Y88.444 E8.93236
G1 X132.262 Y89.501 E8.98485
G1 X132.782 Y90.441 E9.02568
G1 X133.085 Y91.285 E9.05976
G1 X133.303 Y92.465 E9.10537
G1 X133.332 Y126.975 E10.41697
G1 X133.238 Y128.025 E10.45704
G1 X132.896 Y129.282 E10.50655
G1 X132.423 Y130.247 E10.54739
G1 X131.907 Y130.98 E10.58146
G1 X131.163 Y131.755 E10.62229
G1 X130.473 Y132.278 E10.6552
G1 X129.559 Y132.782 E10.69487
G1 X128.283 Y133.185 E10.74573
G1 X126.975 Y133.332 E10.79576
G1 X93.025 Y133.332 E12.08607
G1 X91.975 Y133.238 E12.12614
G1 X90.718 Y132.896 E12.17565
G1 X89.753 Y132.423 E12.21649
G1 X89.02 Y131.907 E12.25056
G1 X88.245 Y131.163 E12.29139
G1 X87.722 Y130.473 E12.3243
G1 X87.218 Y129.559 E12.36397
G1 X86.815 Y128.283 E12.41483
G1 X86.668 Y126.975 E12.46486
G1 X86.668 Y93.025 E13.75517
G1 X86.762 Y91.975 E13.79524
G1 X87.104 Y90.718 E13.84475
G1 X87.577 Y89.753 E13.88559
G1 X88.093 Y89.02 E13.91966
G1 X88.778 Y88.305 E13.95729
;WIPE_START
G1 F14400
G1 X89.945 Y87.472 E13.70189
G1 X91.212 Y86.942 E13.45729
;WIPE_END
G92 E0
G1 Z.4 F18000
G1 X92.547 Y92.598
G1 Z.2
G1 E.5 F2700
;TYPE:External perimeter
;WIDTH:0.499999
G1 F3600
G1 X92.792 Y92.423 E.51144
G1 X93.048 Y92.375 E.52134
G1 X126.886 Y92.377 E1.8074
G1 X127.167 Y92.407 E1.81814
G1 X127.383 Y92.534 E1.82766
G1 X127.577 Y92.792 E1.83993
G1 X127.625 Y93.116 E1.85238
G1 X127.625 Y126.884 E3.13578
G1 X127.583 Y127.191 E3.14756
G1 X127.453 Y127.402 E3.15698
G1 X127.208 Y127.577 E3.16842
G1 X126.952 Y127.625 E3.17832
G1 X93.116 Y127.625 E4.4643
G1 X92.809 Y127.583 E4.47608
G1 X92.598 Y127.453 E4.4855
G1 X92.423 Y127.208 E4.49694
G1 X92.375 Y126.952 E4.50684
G1 X92.375 Y93.116 E5.79282
G1 X92.417 Y92.809 E5.8046
G1 X92.515 Y92.649 E5.81173
;WIPE_START
G1 F14400
G1 X92.792 Y92.423 E5.74805
G1 X93.048 Y92.375 E5.70166
G1 X95.237 Y92.375 E5.31173
;WIPE_END
G92 E0
G1 Z.4 F18000
G1 X126.239 Y92.514
G1 Z.2
G1 E.5 F2700
;TYPE:Solid infill
;WIDTH:0.501518
G1 F3600
G1 X127.282 Y93.558 E.55627
G1 X127.282 Y94.207 E.58102
G1 X125.796 Y92.72 E.66118
G1 X125.147 Y92.72 E.68593
G1 X127.282 Y94.855 E.80107
G1 X127.282 Y95.504 E.82582
G1 X124.498 Y92.72 E.97595
G1 X123.85 Y92.72 E1.00066
G1 X127.282 Y96.152 E1.18574
G1 X127.282 Y96.801 E1.21049
G1 X123.201 Y92.72 E1.43057
G1 X122.553 Y92.72 E1.45528
G1 X127.282 Y97.449 E1.7103
G1 X127.282 Y98.098 E1.73505
G1 X121.904 Y92.72 E2.02507
G1 X121.255 Y92.72 E2.04982
G1 X127.282 Y98.747 E2.37484
G1 X127.282 Y99.395 E2.39955
G1 X120.607 Y92.72 E2.75952
G1 X119.958 Y92.72 E2.78427
G1 X127.282 Y100.044 E3.17924
G1 X127.282 Y100.692 E3.20395
G1 X119.31 Y92.72 E3.63386
G1 X118.661 Y92.72 E3.65861
G1 X127.282 Y101.341 E4.12352
G1 X127.282 Y101.989 E4.14823
G1 X118.012 Y92.72 E4.64811
G1 X117.364 Y92.719 E4.67282
G1 X127.282 Y102.638 E5.2077
G1 X127.282 Y103.286 E5.23241
G1 X116.715 Y92.719 E5.80226
G1 X116.067 Y92.719 E5.82697
G1 X127.282 Y103.935 E6.4318
G1 X127.282 Y104.584 E6.45655
G1 X115.418 Y92.719 E7.09637
G1 X114.769 Y92.719 E7.12112
G1 X127.282 Y105.232 E7.79592
G1 X127.282 Y105.881 E7.82067
G1 X114.121 Y92.719 E8.53044
G1 X113.472 Y92.719 E8.55519
G1 X127.282 Y106.529 E9.29993
G1 X127.282 Y107.178 E9.32468
G1 X112.824 Y92.719 E10.10439
G1 X112.175 Y92.719 E10.12914
G1 X127.282 Y107.826 E10.94382
G1 X127.282 Y108.475 E10.96857
G1 X111.526 Y92.719 E11.81825
G1 X110.878 Y92.719 E11.84296
G1 X127.282 Y109.123 E12.72759
G1 X127.282 Y109.772 E12.75234
G1 X110.229 Y92.719 E13.67197
G1 X109.581 Y92.719 E13.69668
G1 X127.282 Y110.421 E14.65128
G1 X127.282 Y111.069 E14.67599
G1 X108.932 Y92.719 E15.66556
G1 X108.283 Y92.719 E15.69031
G1 X127.282 Y111.718 E16.71488
G1 X127.282 Y112.366 E16.73959
G1 X107.635 Y92.719 E17.79911
G1 X106.986 Y92.719 E17.82386
G1 X127.282 Y113.015 E18.91837
G1 X127.282 Y113.663 E18.94308
G1 X106.338 Y92.719 E20.07254
G1 X105.689 Y92.719 E20.09729
G1 X127.282 Y114.312 E21.26175
G1 X127.282 Y114.96 E21.28646
G1 X105.04 Y92.719 E22.48589
G1 X104.392 Y92.719 E22.5106
G1 X127.282 Y115.609 E23.745
G1 X127.282 Y116.258 E23.76975
G1 X103.743 Y92.719 E25.03915
G1 X103.095 Y92.719 E25.06386
G1 X127.282 Y116.906 E26.36821
G1 X127.282 Y117.555 E26.39296
G1 X102.446 Y92.718 E27.73233
G1 X101.797 Y92.718 E27.75708
G1 X127.282 Y118.203 E29.13143
G1 X127.282 Y118.852 E29.15618
G1 X101.149 Y92.718 E30.5655
G1 X100.5 Y92.718 E30.59025
G1 X127.282 Y119.5 E32.03454
G1 X127.282 Y120.149 E32.05929
G1 X99.852 Y92.718 E33.53855
G1 X99.203 Y92.718 E33.5633
G1 X127.282 Y120.797 E35.07753
G1 X127.282 Y121.446 E35.10228
G1 X98.554 Y92.718 E36.65151
G1 X97.906 Y92.718 E36.67622
G1 X127.282 Y122.095 E38.26042
G1 X127.282 Y122.743 E38.28513
G1 X97.257 Y92.718 E39.90431
G1 X96.609 Y92.718 E39.92902
G1 X127.282 Y123.392 E41.58317
G1 X127.282 Y124.04 E41.60788
G1 X95.96 Y92.718 E43.297
G1 X95.311 Y92.718 E43.32175
G1 X127.282 Y124.689 E45.04587
G1 X127.282 Y125.337 E45.07058
G1 X94.663 Y92.718 E46.82964
G1 X94.014 Y92.718 E46.85439
G1 X127.282 Y125.986 E48.64845
G1 X127.282 Y126.634 E48.67316
G1 X93.366 Y92.718 E50.50217
G1 X93.125 Y92.718 E50.51136
G1 X92.913 Y92.75 E50.51954
G1 X92.823 Y92.803 E50.52352
G1 X92.813 Y92.814 E50.52409
G1 X127.186 Y127.187 E52.37774
G1 X127.085 Y127.251 E52.3823
G1 X126.92 Y127.282 E52.3887
G1 X126.633 Y127.282 E52.39964
G1 X92.718 Y93.367 E54.22859
G1 X92.718 Y94.016 E54.25334
G1 X125.984 Y127.282 E56.0473
G1 X125.336 Y127.282 E56.07201
G1 X92.718 Y94.664 E57.83102
G1 X92.718 Y95.313 E57.85577
G1 X124.687 Y127.282 E59.57978
G1 X124.039 Y127.282 E59.60449
G1 X92.718 Y95.961 E61.29356
G1 X92.718 Y96.61 E61.31831
G1 X123.39 Y127.282 E62.97238
G1 X122.741 Y127.282 E62.99713
G1 X92.718 Y97.259 E64.6162
G1 X92.718 Y97.907 E64.64091
G1 X122.093 Y127.282 E66.22503
G1 X121.444 Y127.282 E66.24978
G1 X92.718 Y98.556 E67.7989
G1 X92.718 Y99.204 E67.82361
G1 X120.796 Y127.282 E69.33779
G1 X120.147 Y127.282 E69.36254
G1 X92.718 Y99.853 E70.84172
G1 X92.718 Y100.501 E70.86643
G1 X119.499 Y127.282 E72.31067
G1 X118.85 Y127.282 E72.33542
G1 X92.718 Y101.15 E73.74466
G1 X92.718 Y101.798 E73.76937
G1 X118.202 Y127.282 E75.14366
G1 X117.553 Y127.282 E75.16841
G1 X92.718 Y102.447 E76.5077
G1 X92.718 Y103.096 E76.53245
G1 X116.904 Y127.282 E77.83674
G1 X116.256 Y127.282 E77.86145
G1 X92.718 Y103.744 E79.1308
G1 X92.718 Y104.393 E79.15555
G1 X115.607 Y127.282 E80.3899
G1 X114.959 Y127.282 E80.41461
G1 X92.718 Y105.041 E81.61401
G1 X92.718 Y105.69 E81.63876
G1 X114.31 Y127.282 E82.80317
G1 X113.662 Y127.282 E82.82788
G1 X92.718 Y106.338 E83.95734
G1 X92.718 Y106.987 E83.98209
G1 X113.013 Y127.282 E85.07655
G1 X112.365 Y127.282 E85.10126
G1 X92.718 Y107.635 E86.16078
G1 X92.718 Y108.284 E86.18553
G1 X111.716 Y127.282 E87.21005
G1 X111.067 Y127.282 E87.2348
G1 X92.718 Y108.933 E88.22432
G1 X92.718 Y109.581 E88.24903
G1 X110.419 Y127.282 E89.2036
G1 X109.77 Y127.282 E89.22835
G1 X92.718 Y110.23 E90.14792
G1 X92.718 Y110.878 E90.17263
G1 X109.122 Y127.282 E91.05726
G1 X108.473 Y127.282 E91.08201
G1 X92.718 Y111.527 E91.93164
G1 X92.718 Y112.175 E91.95635
G1 X107.825 Y127.282 E92.77103
G1 X107.176 Y127.282 E92.79578
G1 X92.718 Y112.824 E93.57547
G1 X92.718 Y113.472 E93.60018
G1 X106.528 Y127.282 E94.34492
G1 X105.879 Y127.282 E94.36967
G1 X92.718 Y114.121 E95.07941
G1 X92.718 Y114.77 E95.10416
G1 X105.23 Y127.282 E95.7789
G1 X104.582 Y127.282 E95.80361
G1 X92.718 Y115.418 E96.44341
G1 X92.718 Y116.067 E96.46816
G1 X103.933 Y127.282 E97.07296
G1 X103.285 Y127.282 E97.09767
G1 X92.718 Y116.715 E97.66752
G1 X92.718 Y117.364 E97.69227
G1 X102.636 Y127.282 E98.22712
G1 X101.988 Y127.282 E98.25183
G1 X92.718 Y118.012 E98.75174
G1 X92.718 Y118.661 E98.77649
G1 X101.339 Y127.282 E99.2414
G1 X100.691 Y127.282 E99.26611
G1 X92.718 Y119.309 E99.69607
G1 X92.718 Y119.958 E99.72082
G1 X100.042 Y127.282 E100.11579
G1 X99.393 Y127.282 E100.14054
G1 X92.718 Y120.607 E100.50051
G1 X92.718 Y121.255 E100.52522
G1 X98.745 Y127.282 E100.85024
G1 X98.096 Y127.282 E100.87499
G1 X92.718 Y121.904 E101.16501
G1 X92.718 Y122.552 E101.18972
G1 X97.448 Y127.282 E101.4448
G1 X96.799 Y127.282 E101.46955
G1 X92.718 Y123.201 E101.68963
G1 X92.718 Y123.849 E101.71434
G1 X96.151 Y127.282 E101.89947
G1 X95.502 Y127.282 E101.92422
G1 X92.718 Y124.498 E102.07435
G1 X92.718 Y125.146 E102.09906
G1 X94.854 Y127.282 E102.21425
G1 X94.205 Y127.282 E102.239
G1 X92.718 Y125.795 E102.31919
G1 X92.718 Y126.444 E102.34394
G1 X93.762 Y127.488 E102.40024
M106 S255
;LAYER_CHANGE
;Z:0.4
;HEIGHT:0.2
;BEFORE_LAYER_CHANGE
;0.4


G1 Z.4 F18000
;AFTER_LAYER_CHANGE
;0.4
G1 X93.762 Y127.825
;TYPE:External perimeter
;WIDTH:0.499999
G1 F1259.993
G1 X93.148 Y127.825 E102.42358
G1 X92.864 Y127.787 E102.43447
G1 F1278.781
G1 X92.55 Y127.676 E102.44713
G1 F1275.35
G1 X92.275 Y127.356 E102.46317
G1 F1260
G1 X92.175 Y126.953 E102.47895
G1 X92.175 Y126.253 E102.50555
G1 F1259.993
G1 X92.175 Y93.848 E103.73714
G1 X92.175 Y93.148 E103.76374
G1 X92.213 Y92.864 E103.77463
G1 F1278.781
G1 X92.324 Y92.55 E103.78729
G1 F1275.35
G1 X92.644 Y92.275 E103.80333
G1 F1260.029
G1 X93.047 Y92.175 E103.81911
G1 X93.747 Y92.175 E103.84571
G1 F1261.07
G1 X126.181 Y92.182 E105.07841
G1 F1309.312
G1 X126.874 Y92.182 E105.10475
G1 F1264.025
G1 X127.115 Y92.195 E105.11392
G1 X127.452 Y92.326 E105.12766
G1 F1284.328
G1 X127.571 Y92.451 E105.13422
G1 F1277.869
G1 X127.766 Y92.722 E105.14691
G1 F1259.993
G1 X127.825 Y93.133 E105.16269
G1 X127.825 Y93.833 E105.18929
G1 X127.825 Y126.152 E106.41761
G1 X127.825 Y126.852 E106.44421
G1 X127.787 Y127.136 E106.4551
G1 F1278.775
G1 X127.676 Y127.45 E106.46776
G1 F1275.35
G1 X127.356 Y127.725 E106.4838
G1 F1259.993
G1 X126.953 Y127.825 E106.49958
G1 X126.253 Y127.825 E106.52618
G1 X94.522 Y127.825 E107.73216
G1 X93.822 Y127.825 E107.75876
;WIPE_START
G1 F14400
G1 X93.148 Y127.825 E107.6387
G1 X92.864 Y127.787 E107.58766
G1 X92.55 Y127.676 E107.52834
G1 X92.275 Y127.356 E107.45318
G1 X92.175 Y126.953 E107.37922
G1 X92.175 Y126.277 E107.25876
;WIPE_END
G92 E0
G1 Z.6 F18000
G1 X126.305 Y127.688
G1 Z.4
G1 E.5 F2700
;TYPE:Solid infill
;WIDTH:0.500759
G1 F11008.237
G1 X127.482 Y126.511 E.56337
G1 X127.482 Y125.863 E.58804
G1 X125.863 Y127.482 E.6752
G1 X125.216 Y127.482 E.69983
G1 X127.482 Y125.216 E.82183
G1 X127.482 Y124.568 E.8465
G1 X124.568 Y127.482 E1.00338
G1 X123.921 Y127.482 E1.02801
G1 X127.482 Y123.921 E1.21973
G1 X127.482 Y123.273 E1.2444
G1 X123.273 Y127.482 E1.47101
G1 X122.626 Y127.482 E1.49564
G1 X127.482 Y122.626 E1.75708
G1 X127.482 Y121.978 E1.78175
G1 X121.978 Y127.482 E2.07808
G1 X121.331 Y127.482 E2.10271
G1 X127.482 Y121.331 E2.43387
G1 X127.482 Y120.683 E2.45854
G1 X120.683 Y127.482 E2.82459
G1 X120.036 Y127.482 E2.84922
G1 X127.482 Y120.036 E3.2501
G1 X127.482 Y119.388 E3.27477
G1 X119.388 Y127.482 E3.71054
G1 X118.741 Y127.482 E3.73517
G1 X127.482 Y118.741 E4.20577
G1 X127.482 Y118.093 E4.23044
G1 X118.093 Y127.482 E4.73593
G1 X117.446 Y127.482 E4.76056
G1 X127.482 Y117.446 E5.30088
G1 X127.482 Y116.798 E5.32555
G1 X116.798 Y127.482 E5.90076
G1 X116.151 Y127.482 E5.92539
G1 X127.482 Y116.151 E6.53543
G1 X127.482 Y115.503 E6.5601
G1 X115.503 Y127.482 E7.20503
G1 X114.856 Y127.482 E7.22966
G1 X127.482 Y114.856 E7.90942
G1 X127.482 Y114.208 E7.93409
G1 X114.208 Y127.482 E8.64874
G1 X113.561 Y127.482 E8.67337
G1 X127.482 Y113.561 E9.42285
G1 X127.482 Y112.913 E9.44752
G1 X112.913 Y127.482 E10.23189
G1 X112.266 Y127.482 E10.25652
G1 X127.482 Y112.266 E11.07572
G1 X127.482 Y111.618 E11.10039
G1 X111.618 Y127.482 E11.95448
G1 X110.971 Y127.482 E11.97911
G1 X127.482 Y110.971 E12.86804
G1 X127.482 Y110.324 E12.89267
G1 X110.324 Y127.482 E13.81643
G1 X109.676 Y127.482 E13.8411
G1 X127.482 Y109.676 E14.79975
G1 X127.482 Y109.029 E14.82438
G1 X109.029 Y127.482 E15.81786
G1 X108.381 Y127.482 E15.84253
G1 X127.482 Y108.381 E16.8709
G1 X127.482 Y107.734 E16.89553
G1 X107.734 Y127.482 E17.95873
G1 X107.086 Y127.482 E17.9834
G1 X127.482 Y107.086 E19.08149
G1 X127.482 Y106.439 E19.10612
G1 X106.439 Y127.482 E20.23904
G1 X105.791 Y127.482 E20.26371
G1 X127.482 Y105.791 E21.43152
G1 X127.482 Y105.144 E21.45615
G1 X105.144 Y127.482 E22.65879
G1 X104.496 Y127.482 E22.68346
G1 X127.482 Y104.496 E23.92099
G1 X127.482 Y103.849 E23.94562
G1 X103.849 Y127.482 E25.21798
G1 X103.201 Y127.482 E25.24265
G1 X127.482 Y103.201 E26.5499
G1 X127.482 Y102.554 E26.57453
G1 X102.554 Y127.482 E27.91661
G1 X101.906 Y127.482 E27.94128
G1 X127.482 Y101.906 E29.31825
G1 X127.482 Y101.259 E29.34288
G1 X101.259 Y127.482 E30.75468
G1 X100.611 Y127.482 E30.77935
G1 X127.482 Y100.611 E32.22604
G1 X127.482 Y99.964 E32.25067
G1 X99.964 Y127.482 E33.73219
G1 X99.316 Y127.482 E33.75686
G1 X127.482 Y99.316 E35.27327
G1 X127.482 Y98.669 E35.2979
G1 X98.669 Y127.482 E36.84914
G1 X98.021 Y127.482 E36.87381
G1 X127.482 Y98.021 E38.45994
G1 X127.482 Y97.374 E38.48457
G1 X97.374 Y127.482 E40.10554
G1 X96.726 Y127.482 E40.13021
G1 X127.482 Y96.726 E41.78606
G1 X127.482 Y96.079 E41.81069
G1 X96.079 Y127.482 E43.50138
G1 X95.431 Y127.482 E43.52605
G1 X127.482 Y95.431 E45.25162
G1 X127.482 Y94.784 E45.27625
G1 X94.784 Y127.482 E47.03666
G1 X94.136 Y127.482 E47.06133
G1 X127.482 Y94.136 E48.85662
G1 X127.482 Y93.489 E48.88125
G1 X93.489 Y127.482 E50.71138
G1 X93.084 Y127.482 E50.7268
G1 X92.883 Y127.441 E50.73461
G1 X127.446 Y92.878 E52.59543
G1 X127.406 Y92.775 E52.59964
G1 X127.246 Y92.607 E52.60847
G1 X127.127 Y92.549 E52.61351
G1 X92.554 Y127.122 E54.47486
G1 X92.518 Y126.922 E54.4826
G1 X92.518 Y126.511 E54.49825
G1 X126.504 Y92.525 E56.328
G1 X125.857 Y92.525 E56.35263
G1 X92.518 Y125.863 E58.14752
G1 X92.518 Y125.216 E58.17215
G1 X125.209 Y92.524 E59.93221
G1 X124.562 Y92.524 E59.95684
G1 X92.518 Y124.568 E61.68204
G1 X92.518 Y123.921 E61.70667
G1 X123.915 Y92.524 E63.39703
G1 X123.267 Y92.524 E63.4217
G1 X92.518 Y123.273 E65.07718
G1 X92.518 Y122.626 E65.10181
