; generated by PrusaSlicer 2.6.0-alpha5+win64 on 2023-03-15 at 13:50:15 UTC

; 

; external perimeters extrusion width = 0.60mm
; perimeters extrusion width = 0.60mm
; infill extrusion width = 0.60mm
; solid infill extrusion width = 0.60mm
; top infill extrusion width = 0.60mm
; first layer extrusion width = 0.60mm

M107
M190 S60 ; set bed temperature and wait for it to be reached
M104 S205 ; set temperature
;TYPE:Custom
SET_GCODE_VARIABLE MACRO=START_PRINT VARIABLE=bed_temp VALUE=60
SET_GCODE_VARIABLE MACRO=START_PRINT VARIABLE=extruder_temp VALUE=205
START_PRINT
M109 S205 ; set temperature and wait for it to be reached
G21 ; set units to millimeters
G90 ; use absolute coordinates
M82 ; use absolute distances for extrusion
G92 E0
; Filament gcode
M107
;LAYER_CHANGE
;Z:0.2
;HEIGHT:0.2
;BEFORE_LAYER_CHANGE
;0.2


G1 Z.2 F18000
;AFTER_LAYER_CHANGE
;0.2
G1 E-.5 F2700
G92 E0
G1 Z.4 F18000
G1 X88.4 Y87.754
G1 Z.2
G1 E.5 F2700
;TYPE:Skirt/Brim
;WIDTH:0.6
G1 F3600
G1 X89.617 Y86.903 E.56879
G1 X91.082 Y86.29 E.64235
G1 X92.44 Y86.039 E.70632
G1 X127.443 Y86.029 E2.32771
G1 X128.635 Y86.212 E2.38357
G1 X129.923 Y86.668 E2.44686
G1 X130.609 Y87.028 E2.48275
G1 X131.82 Y87.963 E2.55362
G1 X132.813 Y89.144 E2.62509
G1 X133.381 Y90.172 E2.67949
G1 X133.719 Y91.111 E2.72572
G1 X133.957 Y92.402 E2.78653
G1 X133.971 Y127.443 E4.40968
G1 X133.795 Y128.605 E4.46412
G1 X133.505 Y129.527 E4.50889
G1 X132.988 Y130.583 E4.56335
G1 X132.414 Y131.398 E4.60953
G1 X131.6 Y132.246 E4.66398
G1 X130.831 Y132.83 E4.70871
G1 X129.828 Y133.381 E4.76172
G1 X128.405 Y133.831 E4.83085
G1 X126.975 Y133.989 E4.89749
G1 X92.557 Y133.971 E6.49178
G1 X91.395 Y133.795 E6.54622
G1 X90.473 Y133.505 E6.59099
G1 X89.417 Y132.988 E6.64545
G1 X88.602 Y132.414 E6.69163
G1 X87.754 Y131.6 E6.74608
G1 X87.17 Y130.831 E6.79081
G1 X86.619 Y129.828 E6.84382
G1 X86.169 Y128.405 E6.91295
G1 X86.011 Y126.975 E6.97959
G1 X86.029 Y92.557 E8.57388
G1 X86.205 Y91.395 E8.62832
G1 X86.495 Y90.473 E8.67309
G1 X87.012 Y89.417 E8.72755
G1 X87.586 Y88.602 E8.77373
G1 X88.358 Y87.797 E8.82539
G1 X88.759 Y88.182 F18000
G1 F3600
G1 X89.895 Y87.385 E8.88967
G1 X91.229 Y86.827 E8.95665
G1 X92.493 Y86.593 E9.0162
G1 X127.4 Y86.584 E10.63314
G1 X128.508 Y86.755 E10.68507
G1 X129.681 Y87.17 E10.74271
G1 X130.324 Y87.506 E10.77632
G1 X131.441 Y88.371 E10.84176
G1 X132.346 Y89.447 E10.90689
G1 X132.873 Y90.4 E10.95733
G1 X133.181 Y91.259 E10.9996
G1 X133.403 Y92.455 E11.05595
G1 X133.432 Y126.975 E12.65496
G1 X133.337 Y128.04 E12.70449
G1 X132.989 Y129.319 E12.76589
G1 X132.509 Y130.298 E12.8164
G1 X131.985 Y131.044 E12.85863
G1 X131.23 Y131.83 E12.90911
G1 X130.528 Y132.362 E12.94991
G1 X129.6 Y132.873 E12.99898
G1 X128.302 Y133.283 E13.06203
G1 X126.975 Y133.432 E13.12388
G1 X93.025 Y133.432 E14.69649
G1 X91.96 Y133.337 E14.74602
G1 X90.681 Y132.989 E14.80742
G1 X89.702 Y132.509 E14.85793
G1 X88.956 Y131.985 E14.90016
G1 X88.17 Y131.23 E14.95064
G1 X87.638 Y130.528 E14.99144
G1 X87.127 Y129.6 E15.04051
G1 X86.717 Y128.302 E15.10356
G1 X86.568 Y126.975 E15.16541
G1 X86.568 Y93.025 E16.73802
G1 X86.663 Y91.96 E16.78755
G1 X87.011 Y90.681 E16.84895
G1 X87.491 Y89.702 E16.89946
G1 X88.015 Y88.956 E16.94169
G1 X88.717 Y88.225 E16.98864
;WIPE_START
G1 F14400
G1 X89.895 Y87.385 E16.73093
G1 X91.15 Y86.86 E16.48864
;WIPE_END
G92 E0
G1 Z.4 F18000
G1 X92.584 Y92.631
G1 Z.2
G1 E.5 F2700
;TYPE:External perimeter
;WIDTH:0.599999
G1 F3600
G1 X92.809 Y92.47 E.51282
G1 X93.053 Y92.425 E.52431
G1 X126.886 Y92.427 E2.0915
G1 X127.152 Y92.455 E2.10389
G1 X127.35 Y92.572 E2.11454
G1 X127.53 Y92.809 E2.12833
G1 X127.575 Y93.116 E2.1427
G1 X127.575 Y126.884 E3.70688
G1 X127.535 Y127.176 E3.72053
G1 X127.416 Y127.369 E3.73103
G1 X127.191 Y127.53 E3.74385
G1 X126.947 Y127.575 E3.75534
G1 X93.116 Y127.575 E5.32244
G1 X92.824 Y127.535 E5.33609
G1 X92.631 Y127.416 E5.34659
G1 X92.47 Y127.191 E5.35941
G1 X92.425 Y126.947 E5.3709
G1 X92.425 Y93.116 E6.938
G1 X92.465 Y92.824 E6.95165
G1 X92.552 Y92.682 E6.95936
;WIPE_START
G1 F14400
G1 X92.809 Y92.47 E6.90002
G1 X93.053 Y92.425 E6.85582
G1 X95.279 Y92.425 E6.45936
;WIPE_END
G92 E0
G1 Z.4 F18000
G1 X127.408 Y94.008
G1 Z.2
G1 E.5 F2700
;TYPE:Solid infill
;WIDTH:0.60526
G1 F3600
G1 X126.245 Y92.845 E.57691
G1 X125.45 Y92.845 E.61408
G1 X127.157 Y94.552 E.72696
G1 X127.157 Y95.348 E.76418
G1 X124.655 Y92.845 E.92966
G1 X123.859 Y92.845 E.96688
G1 X127.157 Y96.143 E1.18497
G1 X127.157 Y96.938 E1.22214
G1 X123.064 Y92.845 E1.4928
G1 X122.269 Y92.845 E1.52997
G1 X127.157 Y97.733 E1.8532
G1 X127.157 Y98.529 E1.89042
G1 X121.473 Y92.845 E2.26629
G1 X120.678 Y92.845 E2.30346
G1 X127.157 Y99.324 E2.7319
G1 X127.157 Y100.119 E2.76907
G1 X119.883 Y92.845 E3.25008
G1 X119.087 Y92.845 E3.2873
G1 X127.157 Y100.915 E3.82094
G1 X127.157 Y101.71 E3.85811
G1 X118.292 Y92.845 E4.44432
G1 X117.497 Y92.845 E4.48149
G1 X127.157 Y102.505 E5.12028
G1 X127.157 Y103.3 E5.15745
G1 X116.701 Y92.844 E5.84887
G1 X115.906 Y92.844 E5.88604
G1 X127.157 Y104.096 E6.63007
G1 X127.157 Y104.891 E6.66724
G1 X115.111 Y92.844 E7.46384
G1 X114.315 Y92.844 E7.50106
G1 X127.157 Y105.686 E8.35026
G1 X127.157 Y106.481 E8.38743
G1 X113.52 Y92.844 E9.2892
G1 X112.725 Y92.844 E9.32637
G1 X127.157 Y107.277 E10.28075
G1 X127.157 Y108.072 E10.31792
G1 X111.929 Y92.844 E11.3249
G1 X111.134 Y92.844 E11.36207
G1 X127.157 Y108.867 E12.42162
G1 X127.157 Y109.662 E12.45879
G1 X110.339 Y92.844 E13.57091
G1 X109.543 Y92.844 E13.60813
G1 X127.157 Y110.458 E14.77289
G1 X127.157 Y111.253 E14.81006
G1 X108.748 Y92.844 E16.02739
G1 X107.953 Y92.844 E16.06456
G1 X127.157 Y112.048 E17.33446
G1 X127.157 Y112.844 E17.37168
G1 X107.157 Y92.844 E18.69422
G1 X106.362 Y92.844 E18.73139
G1 X127.157 Y113.639 E20.1065
G1 X127.157 Y114.434 E20.14367
G1 X105.567 Y92.844 E21.57135
G1 X104.771 Y92.844 E21.60857
G1 X127.157 Y115.229 E23.08885
G1 X127.157 Y116.025 E23.12607
G1 X103.976 Y92.844 E24.65896
G1 X103.181 Y92.844 E24.69613
G1 X127.157 Y116.82 E26.28159
G1 X127.157 Y117.615 E26.31876
G1 X102.385 Y92.843 E27.95685
G1 X101.59 Y92.843 E27.99402
G1 X127.157 Y118.41 E29.68469
G1 X127.157 Y119.206 E29.72191
G1 X100.795 Y92.843 E31.46518
G1 X100 Y92.843 E31.50235
G1 X127.157 Y120.001 E33.29819
G1 X127.157 Y120.796 E33.33536
G1 X99.204 Y92.843 E35.1838
G1 X98.409 Y92.843 E35.22097
G1 X127.157 Y121.592 E37.12202
G1 X127.157 Y122.387 E37.15919
G1 X97.614 Y92.843 E39.11281
G1 X96.818 Y92.843 E39.15003
G1 X127.157 Y123.182 E41.15625
G1 X127.157 Y123.977 E41.19342
G1 X96.023 Y92.843 E43.25221
G1 X95.228 Y92.843 E43.28938
G1 X127.157 Y124.773 E45.40078
G1 X127.157 Y125.568 E45.43795
G1 X94.432 Y92.843 E47.60195
G1 X93.637 Y92.843 E47.63912
G1 X127.157 Y126.363 E49.85569
G1 X127.157 Y126.912 E49.88136
G1 X127.136 Y127.034 E49.88715
G1 X127.094 Y127.095 E49.89061
G1 X92.905 Y92.906 E52.15142
G1 X92.864 Y92.966 E52.15482
G1 X92.843 Y93.088 E52.16061
G1 X92.843 Y93.639 E52.18637
G1 X126.361 Y127.157 E54.40281
G1 X125.565 Y127.157 E54.44003
G1 X92.843 Y94.435 E56.60383
G1 X92.843 Y95.23 E56.641
G1 X124.77 Y127.157 E58.75223
G1 X123.975 Y127.157 E58.7894
G1 X92.843 Y96.025 E60.84806
G1 X92.843 Y96.82 E60.88523
G1 X123.18 Y127.157 E62.89132
G1 X122.384 Y127.157 E62.92854
G1 X92.843 Y97.616 E64.88199
G1 X92.843 Y98.411 E64.91916
G1 X121.589 Y127.157 E66.82004
G1 X120.794 Y127.157 E66.85721
G1 X92.843 Y99.206 E68.70552
G1 X92.843 Y100.001 E68.74269
G1 X119.999 Y127.157 E70.53843
G1 X119.203 Y127.157 E70.57565
G1 X92.843 Y100.797 E72.31875
G1 X92.843 Y101.592 E72.35592
G1 X118.408 Y127.157 E74.04645
G1 X117.613 Y127.157 E74.08362
G1 X92.843 Y102.387 E75.72158
G1 X92.843 Y103.183 E75.7588
G1 X116.817 Y127.157 E77.34413
G1 X116.022 Y127.157 E77.3813
G1 X92.843 Y103.978 E78.91405
G1 X92.843 Y104.773 E78.95122
G1 X115.227 Y127.157 E80.4314
G1 X114.432 Y127.157 E80.46857
G1 X92.843 Y105.568 E81.89618
G1 X92.843 Y106.364 E81.9334
G1 X113.636 Y127.157 E83.30838
G1 X112.841 Y127.157 E83.34555
G1 X92.843 Y107.159 E84.66796
G1 X92.843 Y107.954 E84.70513
G1 X112.046 Y127.157 E85.97496
G1 X111.251 Y127.157 E86.01213
G1 X92.843 Y108.749 E87.22939
G1 X92.843 Y109.545 E87.26661
G1 X110.455 Y127.157 E88.43124
G1 X109.66 Y127.157 E88.46841
G1 X92.843 Y110.34 E89.58047
G1 X92.843 Y111.135 E89.61764
G1 X108.865 Y127.157 E90.67712
G1 X108.07 Y127.157 E90.71429
G1 X92.843 Y111.93 E91.7212
G1 X92.843 Y112.726 E91.75842
G1 X107.274 Y127.157 E92.7127
G1 X106.479 Y127.157 E92.74987
G1 X92.843 Y113.521 E93.65158
G1 X92.843 Y114.316 E93.68875
G1 X105.684 Y127.157 E94.53789
G1 X104.888 Y127.157 E94.57511
G1 X92.843 Y115.112 E95.37161
G1 X92.843 Y115.907 E95.40878
G1 X104.093 Y127.157 E96.15271
G1 X103.298 Y127.157 E96.18988
G1 X92.843 Y116.702 E96.88124
G1 X92.843 Y117.497 E96.91841
G1 X102.503 Y127.157 E97.5572
G1 X101.707 Y127.157 E97.59442
G1 X92.843 Y118.293 E98.18057
G1 X92.843 Y119.088 E98.21774
G1 X100.912 Y127.157 E98.75132
G1 X100.117 Y127.157 E98.78849
G1 X92.843 Y119.883 E99.2695
G1 X92.843 Y120.678 E99.30667
G1 X99.322 Y127.157 E99.73511
G1 X98.526 Y127.157 E99.77233
G1 X92.843 Y121.474 E100.14813
G1 X92.843 Y122.269 E100.1853
G1 X97.731 Y127.157 E100.50853
G1 X96.936 Y127.157 E100.5457
G1 X92.843 Y123.064 E100.81636
G1 X92.843 Y123.859 E100.85353
G1 X96.141 Y127.157 E101.07162
G1 X95.345 Y127.157 E101.10884
G1 X92.843 Y124.655 E101.27429
G1 X92.843 Y125.45 E101.31146
G1 X94.55 Y127.157 E101.42434
G1 X93.755 Y127.157 E101.46151
G1 X92.592 Y125.995 E101.53838
M106 S255
;LAYER_CHANGE
;Z:0.4
;HEIGHT:0.2
;BEFORE_LAYER_CHANGE
;0.4


G1 Z.4 F18000
;AFTER_LAYER_CHANGE
;0.4
G1 X92.225 Y125.995
;TYPE:External perimeter
;WIDTH:0.599999
G1 F1500
G1 X92.225 Y125.195 E101.57544
G1 F1499.995
G1 X92.225 Y93.948 E103.02284
G1 X92.225 Y93.148 E103.0599
G1 X92.262 Y92.874 E103.07271
G1 F1517.893
G1 X92.364 Y92.58 E103.08712
G1 F1512.562
G1 X92.667 Y92.319 E103.10564
G1 F1500.031
G1 X93.052 Y92.225 E103.124
G1 X93.852 Y92.225 E103.16106
G1 F1501.022
G1 X126.238 Y92.232 E104.66122
G1 F1490.757
G1 X127.039 Y92.232 E104.69832
G1 X127.302 Y92.308 E104.711
G1 F1527.203
G1 X127.514 Y92.464 E104.72319
G1 F1517.804
G1 X127.718 Y92.738 E104.73901
G1 F1499.995
G1 X127.775 Y93.133 E104.7575
G1 X127.775 Y93.933 E104.79456
G1 X127.775 Y126.052 E106.28235
G1 X127.775 Y126.852 E106.31941
G1 X127.738 Y127.126 E106.33222
G1 F1517.888
G1 X127.636 Y127.42 E106.34663
G1 F1512.562
G1 X127.333 Y127.681 E106.36515
G1 F1499.995
G1 X126.948 Y127.775 E106.38351
G1 X126.148 Y127.775 E106.42057
G1 X93.948 Y127.775 E107.91212
G1 X93.148 Y127.775 E107.94918
G1 X92.874 Y127.738 E107.96199
G1 F1517.893
G1 X92.58 Y127.636 E107.9764
G1 F1512.562
G1 X92.319 Y127.333 E107.99492
G1 F1500.001
G1 X92.225 Y126.948 E108.01328
G1 X92.225 Y126.055 E108.05464
;WIPE_START
G1 F14400
G1 X92.225 Y123.248 E107.55464
;WIPE_END
G92 E0
G1 Z.6 F18000
G1 X127.608 Y126.854
G1 Z.4
G1 E.5 F2700
;TYPE:Solid infill
;WIDTH:0.603102
G1 F8997.077
G1 X127.124 Y127.319 E.53126
G1 X126.91 Y127.357 E.54138
G1 X126.312 Y127.357 E.56923
G1 X127.357 Y126.312 E.63807
G1 X127.357 Y125.52 E.67496
G1 X125.52 Y127.357 E.79597
G1 X124.728 Y127.357 E.83286
G1 X127.357 Y124.728 E1.00604
G1 X127.357 Y123.935 E1.04298
G1 X123.935 Y127.357 E1.2684
G1 X123.143 Y127.357 E1.30529
G1 X127.357 Y123.143 E1.58288
G1 X127.357 Y122.351 E1.61977
G1 X122.351 Y127.357 E1.94953
G1 X121.559 Y127.357 E1.98642
G1 X127.357 Y121.559 E2.36835
G1 X127.357 Y120.766 E2.40529
G1 X120.766 Y127.357 E2.83946
G1 X119.974 Y127.357 E2.87635
G1 X127.357 Y119.974 E3.36269
G1 X127.357 Y119.182 E3.39958
G1 X119.182 Y127.357 E3.93809
G1 X118.39 Y127.357 E3.97498
G1 X127.357 Y118.39 E4.56566
G1 X127.357 Y117.598 E4.60255
G1 X117.598 Y127.357 E5.24541
G1 X116.805 Y127.357 E5.28235
G1 X127.357 Y116.805 E5.97744
G1 X127.357 Y116.013 E6.01433
G1 X116.013 Y127.357 E6.76159
G1 X115.221 Y127.357 E6.79848
G1 X127.357 Y115.221 E7.59792
G1 X127.357 Y114.429 E7.63481
G1 X114.429 Y127.357 E8.48642
G1 X113.637 Y127.357 E8.52331
G1 X127.357 Y113.637 E9.42709
G1 X127.357 Y112.844 E9.46403
G1 X112.844 Y127.357 E10.42005
G1 X112.052 Y127.357 E10.45694
G1 X127.357 Y112.052 E11.46513
G1 X127.357 Y111.26 E11.50202
G1 X111.26 Y127.357 E12.56238
G1 X110.468 Y127.357 E12.59927
G1 X127.357 Y110.468 E13.7118
G1 X127.357 Y109.675 E13.74874
G1 X109.675 Y127.357 E14.91351
G1 X108.883 Y127.357 E14.9504
G1 X127.357 Y108.883 E16.16734
G1 X127.357 Y108.091 E16.20423
G1 X108.091 Y127.357 E17.47334
G1 X107.299 Y127.357 E17.51023
G1 X127.357 Y107.299 E18.83151
G1 X127.357 Y106.507 E18.8684
G1 X106.507 Y127.357 E20.24185
G1 X105.714 Y127.357 E20.27879
G1 X127.357 Y105.714 E21.70448
G1 X127.357 Y104.922 E21.74137
G1 X104.922 Y127.357 E23.21923
G1 X104.13 Y127.357 E23.25612
G1 X127.357 Y104.13 E24.78615
G1 X127.357 Y103.338 E24.82304
G1 X103.338 Y127.357 E26.40525
G1 X102.546 Y127.357 E26.44214
G1 X127.357 Y102.546 E28.07652
G1 X127.357 Y101.753 E28.11346
G1 X101.753 Y127.357 E29.80007
G1 X100.961 Y127.357 E29.83696
G1 X127.357 Y100.961 E31.57575
G1 X127.357 Y100.169 E31.61264
G1 X100.169 Y127.357 E33.4036
G1 X99.377 Y127.357 E33.44049
G1 X127.357 Y99.377 E35.28362
G1 X127.357 Y98.584 E35.32056
G1 X98.584 Y127.357 E37.21593
G1 X97.792 Y127.357 E37.25282
G1 X127.357 Y97.792 E39.20036
G1 X127.357 Y97 E39.23725
G1 X97 Y127.357 E41.23696
G1 X96.208 Y127.357 E41.27385
G1 X127.357 Y96.208 E43.32573
G1 X127.357 Y95.416 E43.36262
G1 X95.416 Y127.357 E45.46667
G1 X94.623 Y127.357 E45.50361
G1 X127.357 Y94.623 E47.6599
G1 X127.357 Y93.831 E47.69679
G1 X93.831 Y127.357 E49.90525
G1 X93.049 Y127.347 E49.94168
G1 X127.349 Y93.047 E52.20113
G1 X127.304 Y92.849 E52.21059
G1 X127.171 Y92.709 E52.21958
G1 X127.078 Y92.664 E52.22439
G1 X126.954 Y92.65 E52.2302
G1 X92.651 Y126.953 E54.48985
G1 X92.643 Y126.169 E54.52637
G1 X126.162 Y92.65 E56.73437
G1 X125.37 Y92.649 E56.77126
G1 X92.643 Y125.377 E58.92712
G1 X92.643 Y124.584 E58.96406
G1 X124.578 Y92.649 E61.06772
G1 X123.786 Y92.649 E61.10461
G1 X92.643 Y123.792 E63.1561
G1 X92.643 Y123 E63.19299
G1 X122.994 Y92.649 E65.1923
G1 X122.202 Y92.649 E65.22919
G1 X92.643 Y122.208 E67.17633
G1 X92.643 Y121.416 E67.21322
G1 X121.41 Y92.649 E69.10819
G1 X120.618 Y92.649 E69.14508
G1 X92.643 Y120.623 E70.98785
G1 X92.643 Y119.831 E71.02474
G1 X119.826 Y92.648 E72.81537
G1 X119.034 Y92.648 E72.85226
G1 X92.643 Y119.039 E74.59072
G1 X92.643 Y118.247 E74.62761
G1 X118.241 Y92.648 E76.31386
G1 X117.449 Y92.648 E76.35075
G1 X92.643 Y117.454 E77.9848
G1 X92.643 Y116.662 E78.02169
G1 X116.657 Y92.648 E79.60357
G1 X115.865 Y92.648 E79.64046
G1 X92.643 Y115.87 E81.17017
G1 X92.643 Y115.078 E81.20706
G1 X115.073 Y92.647 E82.68463
G1 X114.281 Y92.647 E82.72152
G1 X92.643 Y114.286 E84.14692
G1 X92.643 Y113.493 E84.18386
G1 X113.489 Y92.647 E85.55705
G1 X112.697 Y92.647 E85.59394
G1 X92.643 Y112.701 E86.91496
G1 X92.643 Y111.909 E86.95185
G1 X111.905 Y92.647 E88.2207
G1 X111.113 Y92.647 E88.25759
G1 X92.643 Y111.117 E89.47427
G1 X92.643 Y110.324 E89.51121
G1 X110.321 Y92.646 E90.67571
G1 X109.529 Y92.646 E90.7126
G1 X92.643 Y109.532 E91.82493
G1 X92.643 Y108.74 E91.86182
G1 X108.737 Y92.646 E92.92198
G1 X107.945 Y92.646 E92.95887
G1 X92.643 Y107.948 E93.96686
G1 X92.643 Y107.156 E94.00375
G1 X107.153 Y92.646 E94.95957
G1 X106.361 Y92.646 E94.99646
G1 X92.643 Y106.363 E95.90007
G1 X92.643 Y105.571 E95.93696
G1 X105.569 Y92.645 E96.78844
G1 X104.777 Y92.645 E96.82533
G1 X92.643 Y104.779 E97.62463
G1 X92.643 Y103.987 E97.66152
G1 X103.985 Y92.645 E98.40865
G1 X103.192 Y92.645 E98.44559
G1 X92.643 Y103.195 E99.14052
G1 X92.643 Y102.402 E99.17746
G1 X102.4 Y92.645 E99.82018
G1 X101.608 Y92.645 E99.85707
G1 X92.643 Y101.61 E100.44762
G1 X92.643 Y100.818 E100.48451
G1 X100.816 Y92.644 E101.02292
G1 X100.024 Y92.644 E101.05981
G1 X92.643 Y100.026 E101.54605
G1 X92.643 Y99.233 E101.58299
G1 X99.232 Y92.644 E102.01703
G1 X98.44 Y92.644 E102.05392
G1 X92.643 Y98.441 E102.43579
G1 X92.643 Y97.649 E102.47268
G1 X97.648 Y92.644 E102.80237
G1 X96.856 Y92.644 E102.83926
G1 X92.643 Y96.857 E103.11678
G1 X92.643 Y96.065 E103.15367
G1 X96.064 Y92.643 E103.37905
G1 X95.272 Y92.643 E103.41594
G1 X92.643 Y95.272 E103.58912
