; generated by PrusaSlicer 2.6.0-alpha5+win64 on 2023-03-15 at 17:15:03 UTC

; 

; external perimeters extrusion width = 0.50mm
; perimeters extrusion width = 0.50mm
; infill extrusion width = 0.50mm
; solid infill extrusion width = 0.50mm
; top infill extrusion width = 0.50mm
; first layer extrusion width = 0.50mm

M107
M190 S60 ; set bed temperature and wait for it to be reached
M104 S205 ; set temperature
;TYPE:Custom
SET_GCODE_VARIABLE MACRO=START_PRINT VARIABLE=bed_temp VALUE=60
SET_GCODE_VARIABLE MACRO=START_PRINT VARIABLE=extruder_temp VALUE=205
START_PRINT
M109 S205 ; set temperature and wait for it to be reached
G21 ; set units to millimeters
G90 ; use absolute coordinates
M82 ; use absolute distances for extrusion
G92 E0
; Filament gcode
M107
;LAYER_CHANGE
;Z:0.2
;HEIGHT:0.2
;BEFORE_LAYER_CHANGE
;0.2


G1 Z.2 F18000
;AFTER_LAYER_CHANGE
;0.2
G1 E-.5 F2700
G92 E0
G1 Z.4 F18000
G1 X65.041 Y65.454
G1 Z.2
G1 E.5 F2700
;TYPE:Skirt/Brim
;WIDTH:0.5
G1 F3600
G1 X66.54 Y64.154 E.57541
G1 X67.754 Y63.421 E.62931
G1 X68.522 Y63.071 E.66139
G1 X69.866 Y62.634 E.7151
G1 X71.829 Y62.351 E.79048
G1 X148.171 Y62.351 E3.69196
G1 X150.132 Y62.633 E3.76726
G1 X151.478 Y63.071 E3.82106
G1 X152.246 Y63.421 E3.85314
G1 X153.454 Y64.15 E3.90676
G1 X154.549 Y65.044 E3.96049
G1 X155.507 Y66.087 E4.01431
G1 X156.578 Y67.754 E4.08962
G1 X156.928 Y68.52 E4.12163
G1 X157.364 Y69.858 E4.17511
G1 X157.608 Y71.259 E4.22916
G1 X157.664 Y72.251 E4.26692
G1 X157.664 Y147.75 E7.13636
G1 X157.488 Y149.576 E7.20608
G1 X156.929 Y151.478 E7.28143
G1 X156.579 Y152.246 E7.31351
G1 X155.849 Y153.456 E7.36722
G1 X154.954 Y154.551 E7.42097
G1 X153.456 Y155.849 E7.4963
G1 X152.246 Y156.579 E7.55001
G1 X151.478 Y156.929 E7.58209
G1 X149.576 Y157.488 E7.65744
G1 X147.75 Y157.664 E7.72716
G1 X72.251 Y157.664 E10.5966
G1 X70.424 Y157.488 E10.66636
G1 X68.522 Y156.929 E10.74171
G1 X67.254 Y156.305 E10.79542
G1 X66.544 Y155.849 E10.82749
G1 X65.451 Y154.956 E10.88113
G1 X64.151 Y153.456 E10.95657
G1 X63.421 Y152.246 E11.01028
G1 X63.071 Y151.478 E11.04236
G1 X62.512 Y149.577 E11.11767
G1 X62.336 Y147.75 E11.18743
G1 X62.336 Y72.251 E14.05687
G1 X62.512 Y70.424 E14.12663
G1 X63.068 Y68.528 E14.20172
G1 X63.692 Y67.259 E14.25547
G1 X64.489 Y66.092 E14.30918
G1 X65.002 Y65.499 E14.33898
G1 X65.347 Y65.798 F18000
G1 F3600
G1 X66.814 Y64.52 E14.41293
G1 X67.974 Y63.822 E14.46438
G1 X68.682 Y63.499 E14.49396
G1 X69.964 Y63.08 E14.54522
G1 X71.861 Y62.807 E14.61806
G1 X148.139 Y62.807 E17.51711
G1 X150.035 Y63.08 E17.58991
G1 X151.318 Y63.499 E17.64121
G1 X152.026 Y63.822 E17.67079
G1 X153.181 Y64.516 E17.722
G1 X154.63 Y65.771 E17.79486
G1 X155.483 Y66.818 E17.84619
G1 X155.904 Y67.473 E17.87578
G1 X156.5 Y68.68 E17.92694
G1 X157.04 Y70.517 E17.99971
G1 X157.193 Y71.861 E18.05112
G1 X157.207 Y147.75 E20.93538
G1 X157.041 Y149.479 E21.0014
G1 X156.501 Y151.318 E21.07424
G1 X156.178 Y152.026 E21.10382
G1 X155.483 Y153.182 E21.15508
G1 X154.631 Y154.228 E21.20635
G1 X153.182 Y155.483 E21.27921
G1 X152.026 Y156.178 E21.33047
G1 X151.318 Y156.501 E21.36005
G1 X149.479 Y157.041 E21.43289
G1 X147.75 Y157.207 E21.49891
G1 X72.251 Y157.207 E24.36835
G1 X70.521 Y157.041 E24.4344
G1 X68.682 Y156.501 E24.50724
G1 X67.473 Y155.904 E24.55849
G1 X66.818 Y155.483 E24.58808
G1 X65.774 Y154.633 E24.63925
G1 X64.517 Y153.182 E24.71221
G1 X63.822 Y152.026 E24.76347
G1 X63.499 Y151.318 E24.79305
G1 X62.959 Y149.48 E24.86586
G1 X62.793 Y147.75 E24.93191
G1 X62.793 Y72.251 E27.80135
G1 X62.959 Y70.521 E27.8674
G1 X63.497 Y68.688 E27.94
G1 X64.093 Y67.478 E27.99126
G1 X64.855 Y66.366 E28.04249
G1 X65.307 Y65.843 E28.06876
;WIPE_START
G1 F14400
G1 X66.814 Y64.52 E27.71156
G1 X67.501 Y64.107 E27.56876
;WIPE_END
G92 E0
G1 Z.4 F18000
G1 X69.417 Y69.795
G1 Z.2
G1 E.5 F2700
;TYPE:External perimeter
;WIDTH:0.499999
G1 F3600
G1 X69.798 Y69.415 E.52045
G1 X70.223 Y69.096 E.54065
G1 X70.693 Y68.84 E.56099
G1 X71.194 Y68.653 E.58131
G1 X71.717 Y68.539 E.60165
G1 X72.259 Y68.501 E.6223
G1 X147.743 Y68.501 E3.49117
G1 X148.283 Y68.539 E3.51174
G1 X148.806 Y68.653 E3.53208
G1 X149.307 Y68.84 E3.5524
G1 X149.777 Y69.096 E3.57274
G1 X150.204 Y69.416 E3.59302
G1 X150.583 Y69.795 E3.61339
G1 X150.904 Y70.223 E3.63372
G1 X151.16 Y70.693 E3.65406
G1 X151.346 Y71.191 E3.67426
G1 X151.461 Y71.717 E3.69472
G1 X151.5 Y72.399 E3.72068
G1 X151.5 Y147.741 E6.58415
G1 X151.461 Y148.283 E6.6048
G1 X151.347 Y148.806 E6.62514
G1 X151.16 Y149.307 E6.64546
G1 X150.904 Y149.777 E6.6658
G1 X150.583 Y150.205 E6.68613
G1 X150.205 Y150.583 E6.70645
G1 X149.777 Y150.904 E6.72678
G1 X149.307 Y151.16 E6.74712
G1 X148.806 Y151.347 E6.76744
G1 X148.283 Y151.461 E6.78778
G1 X147.741 Y151.5 E6.80843
G1 X72.259 Y151.5 E9.67722
G1 X71.717 Y151.461 E9.69787
G1 X71.194 Y151.347 E9.71821
G1 X70.693 Y151.16 E9.73853
G1 X70.223 Y150.904 E9.75887
G1 X69.795 Y150.583 E9.7792
G1 X69.417 Y150.205 E9.79952
G1 X69.096 Y149.777 E9.81985
G1 X68.84 Y149.307 E9.84019
G1 X68.653 Y148.806 E9.86051
G1 X68.539 Y148.284 E9.88082
G1 X68.501 Y147.741 E9.90151
G1 X68.501 Y72.259 E12.7703
G1 X68.539 Y71.717 E12.79095
G1 X68.653 Y71.194 E12.81129
G1 X68.84 Y70.692 E12.83165
G1 X69.096 Y70.223 E12.85196
G1 X69.381 Y69.843 E12.87001
;WIPE_START
G1 F14400
G1 X69.798 Y69.415 E12.76357
G1 X70.223 Y69.096 E12.66891
G1 X70.693 Y68.84 E12.57358
G1 X71.194 Y68.653 E12.47833
G1 X71.717 Y68.539 E12.38298
G1 X71.79 Y68.534 E12.37001
;WIPE_END
G92 E0
G1 Z.4 F18000
G1 X149.288 Y68.986
G1 Z.2
G1 E.5 F2700
;TYPE:Solid infill
;WIDTH:0.500842
G1 F3600
G1 X150.325 Y70.023 E.55584
G1 X150.615 Y70.409 E.57422
G1 X150.847 Y70.836 E.59272
G1 X151.037 Y71.382 E.61473
G1 X148.618 Y68.963 E.74499
G1 X148.234 Y68.879 E.75996
G1 X147.86 Y68.853 E.77423
G1 X151.147 Y72.14 E.95123
G1 X151.157 Y72.797 E.97625
G1 X147.203 Y68.843 E1.18917
G1 X146.556 Y68.843 E1.21381
G1 X151.157 Y73.445 E1.46159
G1 X151.157 Y74.092 E1.48623
G1 X145.908 Y68.843 E1.76888
G1 X145.26 Y68.843 E1.79355
G1 X151.157 Y74.74 E2.11109
G1 X151.157 Y75.387 E2.13573
G1 X144.613 Y68.843 E2.48811
G1 X143.965 Y68.843 E2.51278
G1 X151.157 Y76.035 E2.90006
G1 X151.157 Y76.683 E2.92473
G1 X143.318 Y68.843 E3.34687
G1 X142.67 Y68.843 E3.37154
G1 X151.157 Y77.33 E3.82855
G1 X151.157 Y77.978 E3.85322
G1 X142.022 Y68.843 E4.34512
G1 X141.375 Y68.843 E4.36976
G1 X151.157 Y78.625 E4.8965
G1 X151.157 Y79.273 E4.92117
G1 X140.727 Y68.843 E5.48281
G1 X140.079 Y68.843 E5.50748
G1 X151.157 Y79.921 E6.10401
G1 X151.157 Y80.568 E6.12865
G1 X139.432 Y68.843 E6.76002
G1 X138.784 Y68.843 E6.78469
G1 X151.157 Y81.216 E7.45095
G1 X151.157 Y81.863 E7.47559
G1 X138.137 Y68.843 E8.17669
G1 X137.489 Y68.843 E8.20136
G1 X151.157 Y82.511 E8.93736
G1 X151.157 Y83.159 E8.96203
G1 X136.841 Y68.843 E9.73292
G1 X136.194 Y68.843 E9.75756
G1 X151.157 Y83.806 E10.56329
G1 X151.157 Y84.454 E10.58796
G1 X135.546 Y68.843 E11.42858
G1 X134.899 Y68.843 E11.45322
G1 X151.157 Y85.101 E12.32868
G1 X151.157 Y85.749 E12.35335
G1 X134.251 Y68.843 E13.26371
G1 X133.603 Y68.843 E13.28838
G1 X151.157 Y86.397 E14.23363
G1 X151.157 Y87.044 E14.25827
G1 X132.956 Y68.843 E15.23836
G1 X132.308 Y68.843 E15.26303
G1 X151.157 Y87.692 E16.27801
G1 X151.157 Y88.339 E16.30265
G1 X131.661 Y68.843 E17.35247
G1 X131.013 Y68.843 E17.37714
G1 X151.157 Y88.987 E18.46186
G1 X151.157 Y89.635 E18.48653
G1 X130.365 Y68.843 E19.60614
G1 X129.718 Y68.843 E19.63078
G1 X151.157 Y90.282 E20.78523
G1 X151.157 Y90.93 E20.8099
G1 X129.07 Y68.843 E21.99924
G1 X128.423 Y68.843 E22.02388
G1 X151.157 Y91.577 E23.24806
G1 X151.157 Y92.225 E23.27273
G1 X127.775 Y68.843 E24.53181
G1 X127.127 Y68.843 E24.55648
G1 X151.157 Y92.873 E25.85045
G1 X151.157 Y93.52 E25.87509
G1 X126.48 Y68.843 E27.2039
G1 X125.832 Y68.843 E27.22857
G1 X151.157 Y94.168 E28.59227
G1 X151.157 Y94.815 E28.61691
G1 X125.185 Y68.843 E30.01545
G1 X124.537 Y68.843 E30.04012
G1 X151.157 Y95.463 E31.47356
G1 X151.157 Y96.111 E31.49823
G1 X123.889 Y68.843 E32.96656
G1 X123.242 Y68.843 E32.9912
G1 X151.157 Y96.758 E34.49437
G1 X151.157 Y97.406 E34.51904
G1 X122.594 Y68.843 E36.0571
G1 X121.947 Y68.843 E36.08174
G1 X151.157 Y98.053 E37.65464
G1 X151.157 Y98.701 E37.67931
G1 X121.299 Y68.843 E39.28711
G1 X120.651 Y68.843 E39.31178
G1 X151.157 Y99.349 E40.95447
G1 X151.157 Y99.996 E40.97911
G1 X120.004 Y68.843 E42.65664
G1 X119.356 Y68.843 E42.68131
G1 X151.157 Y100.644 E44.39373
G1 X151.157 Y101.291 E44.41837
G1 X118.709 Y68.843 E46.16563
G1 X118.061 Y68.843 E46.1903
G1 X151.157 Y101.939 E47.97246
G1 X151.157 Y102.587 E47.99713
G1 X117.413 Y68.843 E49.81418
G1 X116.766 Y68.843 E49.83882
G1 X151.157 Y103.234 E51.69071
G1 X151.157 Y103.882 E51.71538
G1 X116.118 Y68.843 E53.60216
G1 X115.471 Y68.843 E53.6268
G1 X151.157 Y104.529 E55.54842
G1 X151.157 Y105.177 E55.57309
G1 X114.823 Y68.843 E57.52961
G1 X114.175 Y68.843 E57.55428
G1 X151.157 Y105.825 E59.54569
G1 X151.157 Y106.472 E59.57033
G1 X113.528 Y68.843 E61.59658
G1 X112.88 Y68.843 E61.62125
G1 X151.157 Y107.12 E63.68239
G1 X151.157 Y107.767 E63.70703
G1 X112.233 Y68.843 E65.80301
G1 X111.585 Y68.843 E65.82768
G1 X151.157 Y108.415 E67.95856
G1 X151.157 Y109.063 E67.98323
G1 X110.937 Y68.843 E70.149
G1 X110.29 Y68.843 E70.17364
G1 X151.157 Y109.71 E72.37425
G1 X151.157 Y110.358 E72.39892
G1 X109.642 Y68.843 E74.63442
G1 X108.995 Y68.843 E74.65906
G1 X151.157 Y111.005 E76.9294
G1 X151.157 Y111.653 E76.95407
G1 X108.347 Y68.843 E79.25931
G1 X107.699 Y68.843 E79.28398
G1 X151.157 Y112.301 E81.62411
G1 X151.157 Y112.948 E81.64875
G1 X107.052 Y68.843 E84.02372
G1 X106.404 Y68.843 E84.04839
G1 X151.157 Y113.596 E86.45825
G1 X151.157 Y114.243 E86.48289
G1 X105.757 Y68.843 E88.92759
G1 X105.109 Y68.843 E88.95226
G1 X151.157 Y114.891 E91.43186
G1 X151.157 Y115.539 E91.45653
G1 X104.461 Y68.843 E93.97102
G1 X103.814 Y68.843 E93.99566
G1 X151.157 Y116.186 E96.54499
G1 X151.157 Y116.834 E96.56966
G1 X103.166 Y68.843 E99.15388
G1 X102.519 Y68.843 E99.17852
G1 X151.157 Y117.481 E101.79758
G1 X151.157 Y118.129 E101.82225
G1 X101.871 Y68.843 E104.47621
G1 X101.223 Y68.843 E104.50088
G1 X151.157 Y118.777 E107.18973
G1 X151.157 Y119.424 E107.21437
G1 X100.576 Y68.843 E109.93806
G1 X99.928 Y68.843 E109.96273
G1 X151.157 Y120.072 E112.72131
G1 X151.157 Y120.719 E112.74595
G1 X99.281 Y68.843 E115.53937
G1 X98.633 Y68.843 E115.56404
G1 X151.157 Y121.367 E118.39236
G1 X151.157 Y122.015 E118.41703
G1 X97.985 Y68.843 E121.28024
G1 X97.338 Y68.843 E121.30488
G1 X151.157 Y122.662 E124.20293
G1 X151.157 Y123.31 E124.2276
G1 X96.69 Y68.843 E127.16055
G1 X96.043 Y68.843 E127.18519
G1 X151.157 Y123.957 E130.15297
G1 X151.157 Y124.605 E130.17764
G1 X95.395 Y68.843 E133.18032
G1 X94.747 Y68.843 E133.20499
G1 X151.157 Y125.253 E136.24256
G1 X151.157 Y125.9 E136.2672
G1 X94.1 Y68.843 E139.33961
G1 X93.452 Y68.843 E139.36428
G1 X151.157 Y126.548 E142.47159
G1 X151.157 Y127.195 E142.49623
G1 X92.805 Y68.843 E145.63838
G1 X92.157 Y68.843 E145.66305
G1 X151.157 Y127.843 E148.84009
G1 X151.157 Y128.491 E148.86476
G1 X91.509 Y68.843 E152.07669
G1 X90.862 Y68.843 E152.10133
G1 X151.157 Y129.138 E155.3481
G1 X151.157 Y129.786 E155.37277
G1 X90.214 Y68.843 E158.65444
G1 X89.567 Y68.843 E158.67908
G1 X151.157 Y130.433 E161.99559
G1 X151.157 Y131.081 E162.02026
G1 X88.919 Y68.843 E165.37166
G1 X88.271 Y68.843 E165.39633
G1 X151.157 Y131.729 E168.78262
G1 X151.157 Y132.376 E168.80726
G1 X87.624 Y68.843 E172.22839
G1 X86.976 Y68.843 E172.25306
G1 X151.157 Y133.024 E175.70909
G1 X151.157 Y133.671 E175.73373
G1 X86.329 Y68.843 E179.2246
G1 X85.681 Y68.843 E179.24927
G1 X151.157 Y134.319 E182.77503
G1 X151.157 Y134.967 E182.7997
G1 X85.033 Y68.843 E186.36035
G1 X84.386 Y68.843 E186.38499
G1 X151.157 Y135.614 E189.98048
G1 X151.157 Y136.262 E190.00515
G1 X83.738 Y68.843 E193.63554
G1 X83.091 Y68.843 E193.66018
G1 X151.157 Y136.909 E197.32541
G1 X151.157 Y137.557 E197.35008
G1 X82.443 Y68.843 E201.0502
G1 X81.795 Y68.843 E201.07487
G1 X151.157 Y138.205 E204.80988
G1 X151.157 Y138.852 E204.83452
G1 X81.148 Y68.843 E208.60437
G1 X80.5 Y68.843 E208.62904
G1 X151.157 Y139.5 E212.43379
G1 X151.157 Y140.147 E212.45843
G1 X79.853 Y68.843 E216.29802
G1 X79.205 Y68.843 E216.32269
G1 X151.157 Y140.795 E220.19717
G1 X151.157 Y141.443 E220.22184
G1 X78.557 Y68.843 E224.13121
G1 X77.91 Y68.843 E224.15585
G1 X151.157 Y142.09 E228.10006
G1 X151.157 Y142.738 E228.12473
G1 X77.262 Y68.843 E232.10384
G1 X76.615 Y68.843 E232.12848
G1 X151.157 Y143.385 E236.14243
G1 X151.157 Y144.033 E236.1671
G1 X75.967 Y68.843 E240.21594
G1 X75.319 Y68.843 E240.24061
G1 X151.157 Y144.681 E244.32434
G1 X151.157 Y145.328 E244.34898
G1 X74.672 Y68.843 E248.46755
G1 X74.024 Y68.843 E248.49222
G1 X151.157 Y145.976 E252.64569
G1 X151.157 Y146.623 E252.67033
G1 X73.377 Y68.843 E256.85864
G1 X72.729 Y68.843 E256.88331
G1 X151.157 Y147.271 E261.10651
G1 X151.144 Y147.906 E261.13069
G1 X72.094 Y68.856 E265.38738
G1 X71.766 Y68.879 E265.3999
G1 X71.523 Y68.932 E265.40937
G1 X151.068 Y148.477 E269.69272
G1 X151.017 Y148.709 E269.70176
G1 X150.918 Y148.975 E269.71257
G1 X71.025 Y69.082 E274.01466
G1 X70.836 Y69.153 E274.02235
G1 X70.585 Y69.29 E274.03324
G1 X150.71 Y149.415 E278.34782
G1 X150.615 Y149.591 E278.35544
G1 X150.454 Y149.806 E278.36567
G1 X70.194 Y69.546 E282.68752
G1 X70.023 Y69.675 E282.69568
G1 X69.849 Y69.849 E282.70505
G1 X150.152 Y150.152 E287.02921
G1 X149.98 Y150.323 E287.03844
G1 X149.806 Y150.453 E287.04671
G1 X69.547 Y70.194 E291.36851
G1 X69.385 Y70.409 E291.37876
G1 X69.29 Y70.585 E291.38638
G1 X149.415 Y150.71 E295.70096
G1 X149.164 Y150.847 E295.71185
G1 X148.975 Y150.918 E295.71954
G1 X69.082 Y71.025 E300.02163
G1 X68.983 Y71.291 E300.03244
G1 X68.932 Y71.523 E300.04148
G1 X148.477 Y151.068 E304.32483
G1 X148.234 Y151.121 E304.3343
G1 X147.906 Y151.144 E304.34682
G1 X68.856 Y72.094 E308.60351
G1 X68.843 Y72.729 E308.62769
G1 X147.271 Y151.157 E312.85089
G1 X146.624 Y151.157 E312.87553
G1 X68.843 Y73.376 E317.06389
G1 X68.843 Y74.024 E317.08856
G1 X145.976 Y151.157 E321.24203
G1 X145.328 Y151.157 E321.2667
G1 X68.843 Y74.672 E325.38527
G1 X68.843 Y75.319 E325.40991
G1 X144.681 Y151.157 E329.49364
G1 X144.033 Y151.157 E329.51831
G1 X68.843 Y75.967 E333.56715
G1 X68.843 Y76.614 E333.59179
G1 X143.386 Y151.157 E337.60579
G1 X142.738 Y151.157 E337.63046
G1 X68.843 Y77.262 E341.60957
G1 X68.843 Y77.91 E341.63424
G1 X142.09 Y151.157 E345.57845
G1 X141.443 Y151.157 E345.60309
G1 X68.843 Y78.557 E349.51246
G1 X68.843 Y79.205 E349.53713
G1 X140.795 Y151.157 E353.41161
G1 X140.148 Y151.157 E353.43625
G1 X68.843 Y79.852 E357.27589
G1 X68.843 Y80.5 E357.30056
G1 X139.5 Y151.157 E361.10531
G1 X138.852 Y151.157 E361.12998
G1 X68.843 Y81.148 E364.89983
G1 X68.843 Y81.795 E364.92447
G1 X138.205 Y151.157 E368.65948
G1 X137.557 Y151.157 E368.68415
G1 X68.843 Y82.443 E372.38427
G1 X68.843 Y83.09 E372.40891
G1 X136.91 Y151.157 E376.07419
G1 X136.262 Y151.157 E376.09886
G1 X68.843 Y83.738 E379.72925
G1 X68.843 Y84.386 E379.75392
G1 X135.614 Y151.157 E383.34941
G1 X134.967 Y151.157 E383.37405
G1 X68.843 Y85.033 E386.9347
G1 X68.843 Y85.681 E386.95937
G1 X134.319 Y151.157 E390.48513
G1 X133.672 Y151.157 E390.50977
G1 X68.843 Y86.328 E394.00069
G1 X68.843 Y86.976 E394.02536
G1 X133.024 Y151.157 E397.48139
G1 X132.376 Y151.157 E397.50606
G1 X68.843 Y87.624 E400.92719
G1 X68.843 Y88.271 E400.95183
G1 X131.729 Y151.157 E404.33812
G1 X131.081 Y151.157 E404.36279
G1 X68.843 Y88.919 E407.71419
G1 X68.843 Y89.566 E407.73883
G1 X130.434 Y151.157 E411.05539
G1 X129.786 Y151.157 E411.08006
G1 X68.843 Y90.214 E414.36173
G1 X68.843 Y90.862 E414.3864
G1 X129.138 Y151.157 E417.63317
G1 X128.491 Y151.157 E417.65781
G1 X68.843 Y91.509 E420.86974
G1 X68.843 Y92.157 E420.89441
G1 X127.843 Y151.157 E424.07145
G1 X127.196 Y151.157 E424.09609
G1 X68.843 Y92.804 E427.23829
G1 X68.843 Y93.452 E427.26296
G1 X126.548 Y151.157 E430.37027
G1 X125.9 Y151.157 E430.39494
G1 X68.843 Y94.1 E433.46735
G1 X68.843 Y94.747 E433.49199
G1 X125.253 Y151.157 E436.52956
G1 X124.605 Y151.157 E436.55423
G1 X68.843 Y95.395 E439.55691
G1 X68.843 Y96.042 E439.58155
G1 X123.958 Y151.157 E442.54939
