; generated by PrusaSlicer 2.6.0-alpha5+win64 on 2023-03-15 at 10:18:14 UTC

; 

; external perimeters extrusion width = 0.70mm
; perimeters extrusion width = 0.70mm
; infill extrusion width = 0.70mm
; solid infill extrusion width = 0.70mm
; top infill extrusion width = 0.70mm
; first layer extrusion width = 0.70mm

M107
M190 S60 ; set bed temperature and wait for it to be reached
M104 S205 ; set temperature
;TYPE:Custom
SET_GCODE_VARIABLE MACRO=START_PRINT VARIABLE=bed_temp VALUE=60
SET_GCODE_VARIABLE MACRO=START_PRINT VARIABLE=extruder_temp VALUE=205
START_PRINT
M109 S205 ; set temperature and wait for it to be reached
G21 ; set units to millimeters
G90 ; use absolute coordinates
M82 ; use absolute distances for extrusion
G92 E0
; Filament gcode
M107
;LAYER_CHANGE
;Z:0.2
;HEIGHT:0.2
;BEFORE_LAYER_CHANGE
;0.2


G1 Z.2 F18000
;AFTER_LAYER_CHANGE
;0.2
G1 E-.5 F2700
G92 E0
G1 Z.4 F18000
G1 X85.708 Y85.593
G1 Z.2
G1 E.5 F2700
;TYPE:Skirt/Brim
;WIDTH:0.7
G1 F3600
G1 X85.944 Y85.356 E.51827
G1 X87.054 Y84.471 E.59583
G1 X87.767 Y84.023 E.64184
G1 X89.046 Y83.408 E.71938
G1 X89.838 Y83.132 E.7652
G1 X91.21 Y82.819 E.84209
G1 X92.034 Y82.726 E.8874
G1 X127.957 Y82.726 E2.8501
G1 X128.791 Y82.82 E2.89596
G1 X130.166 Y83.133 E2.97301
G1 X130.959 Y83.41 E3.0189
G1 X132.238 Y84.025 E3.09644
G1 X132.949 Y84.472 E3.14233
G1 X134.053 Y85.353 E3.2195
G1 X134.647 Y85.947 E3.2654
G1 X135.527 Y87.051 E3.34254
G1 X135.974 Y87.762 E3.38843
G1 X136.59 Y89.041 E3.46599
G1 X136.867 Y89.834 E3.51188
G1 X137.18 Y91.209 E3.58893
G1 X137.314 Y92.75 E3.67344
G1 X137.314 Y127.25 E5.5584
G1 X137.18 Y128.791 E5.64291
G1 X136.867 Y130.166 E5.71996
G1 X136.59 Y130.959 E5.76585
G1 X135.974 Y132.238 E5.84341
G1 X135.527 Y132.949 E5.8893
G1 X134.647 Y134.053 E5.96644
G1 X134.053 Y134.647 E6.01234
G1 X132.949 Y135.528 E6.08951
G1 X132.238 Y135.975 E6.1354
G1 X130.959 Y136.59 E6.21294
G1 X130.166 Y136.867 E6.25883
G1 X128.791 Y137.18 E6.33588
G1 X127.25 Y137.314 E6.42039
G1 X92.75 Y137.314 E8.30535
G1 X91.215 Y137.181 E8.38953
G1 X89.847 Y136.871 E8.46617
G1 X89.052 Y136.594 E8.51217
G1 X87.767 Y135.977 E8.59005
G1 X87.056 Y135.53 E8.63594
G1 X85.952 Y134.651 E8.71304
G1 X85.356 Y134.056 E8.75905
G1 X84.474 Y132.951 E8.8363
G1 X84.03 Y132.246 E8.88182
G1 X83.417 Y130.974 E8.95897
G1 X83.136 Y130.173 E9.00535
G1 X82.819 Y128.79 E9.08287
G1 X82.687 Y127.261 E9.16672
G1 X82.686 Y92.75 E11.05228
G1 X82.818 Y91.224 E11.13597
G1 X83.123 Y89.871 E11.21175
G1 X83.4 Y89.069 E11.25811
G1 X84.02 Y87.773 E11.3366
G1 X84.467 Y87.059 E11.38262
G1 X85.349 Y85.952 E11.45995
G1 X85.665 Y85.636 E11.48437
G1 X86.13 Y86.1 F18000
G1 F3600
G1 X86.409 Y85.821 E11.50593
G1 X87.403 Y85.027 E11.57544
G1 X88.117 Y84.579 E11.62149
G1 X89.262 Y84.028 E11.69092
G1 X90.054 Y83.752 E11.73674
G1 X91.284 Y83.472 E11.80566
G1 X92.107 Y83.379 E11.85091
G1 X127.883 Y83.379 E13.80558
G1 X128.718 Y83.473 E13.85149
G1 X129.95 Y83.753 E13.92052
G1 X130.743 Y84.03 E13.96641
G1 X131.888 Y84.582 E14.03586
G1 X132.599 Y85.029 E14.08175
G1 X133.588 Y85.818 E14.15087
G1 X134.182 Y86.412 E14.19677
G1 X134.971 Y87.401 E14.26589
G1 X135.418 Y88.112 E14.31178
G1 X135.97 Y89.258 E14.38128
G1 X136.247 Y90.051 E14.42717
G1 X136.527 Y91.282 E14.49615
G1 X136.657 Y92.75 E14.57667
G1 X136.657 Y127.25 E16.46163
G1 X136.527 Y128.718 E16.54215
G1 X136.247 Y129.949 E16.61113
G1 X135.97 Y130.742 E16.65702
G1 X135.418 Y131.888 E16.72652
G1 X134.971 Y132.599 E16.77241
G1 X134.182 Y133.588 E16.84153
G1 X133.588 Y134.182 E16.88743
G1 X132.599 Y134.971 E16.95655
G1 X131.888 Y135.418 E17.00244
G1 X130.743 Y135.97 E17.07189
G1 X129.95 Y136.247 E17.11778
G1 X128.718 Y136.527 E17.18681
G1 X127.25 Y136.657 E17.26733
G1 X92.117 Y136.622 E19.18687
G1 X91.288 Y136.528 E19.23245
G1 X90.063 Y136.25 E19.30108
G1 X89.268 Y135.973 E19.34708
G1 X88.117 Y135.421 E19.41682
G1 X87.405 Y134.974 E19.46275
G1 X86.417 Y134.186 E19.5318
G1 X85.821 Y133.591 E19.57781
G1 X85.03 Y132.601 E19.64704
G1 X84.586 Y131.896 E19.69256
G1 X84.037 Y130.756 E19.76169
G1 X83.756 Y129.955 E19.80807
G1 X83.472 Y128.716 E19.87752
G1 X83.344 Y127.261 E19.95732
G1 X83.378 Y92.117 E21.87746
G1 X83.471 Y91.298 E21.92249
G1 X83.745 Y90.085 E21.99043
G1 X84.021 Y89.283 E22.03677
G1 X84.576 Y88.122 E22.10708
G1 X85.024 Y87.408 E22.15313
G1 X85.814 Y86.417 E22.22237
G1 X86.088 Y86.142 E22.24358
;WIPE_START
G1 F14400
G1 X86.409 Y85.821 E22.16272
G1 X87.403 Y85.027 E21.93611
G1 X88.117 Y84.579 E21.78597
G1 X88.331 Y84.476 E21.74358
;WIPE_END
G92 E0
G1 Z.4 F18000
G1 X90.335 Y90.39
G1 Z.2
G1 E.5 F2700
;TYPE:External perimeter
;WIDTH:0.699999
G1 F3600
G1 X90.632 Y90.093 E.52295
G1 X91.278 Y89.687 E.56464
G1 X91.995 Y89.437 E.60613
G1 X92.77 Y89.35 E.64874
G1 X127.28 Y89.356 E2.53424
G1 X128.006 Y89.437 E2.57415
G1 X128.724 Y89.688 E2.61571
G1 X129.368 Y90.093 E2.65728
G1 X129.907 Y90.632 E2.69893
G1 X130.312 Y91.276 E2.7405
G1 X130.563 Y91.994 E2.78206
G1 X130.65 Y92.973 E2.83576
G1 X130.65 Y127.23 E4.70744
G1 X130.563 Y128.006 E4.7501
G1 X130.312 Y128.724 E4.79166
G1 X129.907 Y129.368 E4.83323
G1 X129.368 Y129.907 E4.87488
G1 X128.724 Y130.312 E4.91645
G1 X128.006 Y130.563 E4.95801
G1 X127.23 Y130.65 E5.00067
G1 X92.77 Y130.65 E6.88344
G1 X91.995 Y130.563 E6.92605
G1 X91.278 Y130.313 E6.96754
G1 X90.632 Y129.907 E7.00923
G1 X90.093 Y129.368 E7.05088
G1 X89.687 Y128.722 E7.09257
G1 X89.437 Y128.004 E7.13411
G1 X89.35 Y127.23 E7.17666
G1 X89.35 Y92.77 E9.05943
G1 X89.437 Y91.996 E9.10198
G1 X89.687 Y91.278 E9.14352
G1 X90.093 Y90.632 E9.18521
G1 X90.293 Y90.432 E9.20066
;WIPE_START
G1 F14400
G1 X90.632 Y90.093 E9.11526
G1 X91.278 Y89.687 E8.97935
G1 X91.995 Y89.437 E8.84409
G1 X92.77 Y89.35 E8.70518
G1 X92.795 Y89.35 E8.70066
;WIPE_END
G92 E0
G1 Z.4 F18000
G1 X128.341 Y89.763
G1 Z.2
G1 E.5 F2700
;TYPE:Solid infill
;WIDTH:0.700238
G1 F3600
G1 X129.519 Y90.942 E.59109
G1 X129.865 Y91.491 E.62656
G1 X130.079 Y92.105 E.6621
G1 X130.121 Y92.472 E.68229
G1 X127.528 Y89.879 E.88272
G1 X127.252 Y89.848 E.8979
G1 X126.567 Y89.848 E.93534
G1 X130.157 Y93.439 E1.21287
G1 X130.157 Y94.368 E1.26365
G1 X125.637 Y89.848 E1.61303
G1 X124.707 Y89.848 E1.66386
G1 X130.157 Y95.298 E2.08512
G1 X130.157 Y96.227 E2.1359
G1 X123.778 Y89.848 E2.62897
G1 X122.848 Y89.848 E2.6798
G1 X130.157 Y97.157 E3.24475
G1 X130.157 Y98.086 E3.29553
G1 X121.918 Y89.848 E3.93233
G1 X120.988 Y89.847 E3.98316
G1 X130.157 Y99.016 E4.69188
G1 X130.157 Y99.946 E4.74271
G1 X120.059 Y89.847 E5.52328
G1 X119.129 Y89.847 E5.57411
G1 X130.157 Y100.875 E6.42653
G1 X130.157 Y101.805 E6.47736
G1 X118.199 Y89.847 E7.40166
G1 X117.27 Y89.847 E7.45244
G1 X130.157 Y102.734 E8.44855
G1 X130.157 Y103.664 E8.49938
G1 X116.34 Y89.847 E9.56737
G1 X115.41 Y89.846 E9.6182
G1 X130.157 Y104.594 E10.75812
G1 X130.157 Y105.523 E10.8089
G1 X114.48 Y89.846 E12.02066
G1 X113.551 Y89.846 E12.07144
G1 X130.157 Y106.453 E13.35505
G1 X130.157 Y107.382 E13.40583
G1 X112.621 Y89.846 E14.76128
G1 X111.691 Y89.846 E14.81211
G1 X130.157 Y108.312 E16.23945
G1 X130.157 Y109.242 E16.29028
G1 X110.761 Y89.846 E17.7895
G1 X109.832 Y89.846 E17.84028
G1 X130.157 Y110.171 E19.41131
G1 X130.157 Y111.101 E19.46214
G1 X108.902 Y89.845 E21.1051
G1 X107.972 Y89.845 E21.15593
G1 X130.157 Y112.03 E22.87073
G1 X130.157 Y112.96 E22.92156
G1 X107.042 Y89.845 E24.70825
G1 X106.113 Y89.845 E24.75903
G1 X130.157 Y113.889 E26.61752
G1 X130.157 Y114.819 E26.66835
G1 X105.183 Y89.845 E28.59873
G1 X104.253 Y89.845 E28.64956
G1 X130.157 Y115.749 E30.65182
G1 X130.157 Y116.678 E30.7026
G1 X103.323 Y89.845 E32.77671
G1 X102.394 Y89.844 E32.82749
G1 X130.157 Y117.608 E34.97349
G1 X130.157 Y118.537 E35.02427
G1 X101.464 Y89.844 E37.24211
G1 X100.534 Y89.844 E37.29294
G1 X130.157 Y119.467 E39.58267
G1 X130.157 Y120.397 E39.6335
G1 X99.605 Y89.844 E41.99507
G1 X98.675 Y89.844 E42.0459
G1 X130.157 Y121.326 E44.47932
G1 X130.157 Y122.256 E44.53015
G1 X97.745 Y89.844 E47.03545
G1 X96.815 Y89.843 E47.08628
G1 X130.157 Y123.185 E49.66347
G1 X130.157 Y124.115 E49.7143
G1 X95.886 Y89.843 E52.36333
G1 X94.956 Y89.843 E52.41416
G1 X130.157 Y125.045 E55.13508
G1 X130.157 Y125.974 E55.18586
G1 X94.026 Y89.843 E57.97863
G1 X93.096 Y89.843 E58.02946
G1 X130.157 Y126.904 E60.89411
G1 X130.157 Y127.203 E60.91045
G1 X130.093 Y127.769 E60.94158
G1 X92.231 Y89.907 E63.86814
G1 X92.106 Y89.921 E63.87501
G1 X91.519 Y90.125 E63.90898
G1 X129.875 Y128.48 E66.87369
G1 X129.521 Y129.056 E66.91064
G1 X90.944 Y90.479 E69.89247
G1 X90.479 Y90.944 E69.92841
G1 X129.056 Y129.521 E72.91024
G1 X128.48 Y129.875 E72.94719
G1 X90.125 Y91.519 E75.9119
G1 X89.921 Y92.106 E75.94587
G1 X89.907 Y92.231 E75.95274
G1 X127.769 Y130.093 E78.8793
G1 X127.203 Y130.157 E78.91043
G1 X126.904 Y130.157 E78.92677
G1 X89.843 Y93.096 E81.79142
G1 X89.843 Y94.026 E81.84225
G1 X125.974 Y130.157 E84.63502
G1 X125.044 Y130.157 E84.68585
G1 X89.843 Y94.956 E87.40673
G1 X89.843 Y95.885 E87.45751
G1 X124.115 Y130.157 E90.10658
G1 X123.185 Y130.157 E90.15741
G1 X89.843 Y96.815 E92.7346
G1 X89.843 Y97.744 E92.78538
G1 X122.256 Y130.157 E95.29076
G1 X121.326 Y130.157 E95.34159
G1 X89.843 Y98.674 E97.77509
G1 X89.843 Y99.604 E97.82592
G1 X120.396 Y130.157 E100.18753
G1 X119.467 Y130.157 E100.23831
G1 X89.843 Y100.533 E102.52811
G1 X89.843 Y101.463 E102.57894
G1 X118.537 Y130.157 E104.79686
G1 X117.608 Y130.157 E104.84764
G1 X89.843 Y102.392 E106.99375
G1 X89.843 Y103.322 E107.04458
G1 X116.678 Y130.157 E109.11881
G1 X115.749 Y130.157 E109.16959
G1 X89.843 Y104.251 E111.17201
G1 X89.843 Y105.181 E111.22284
G1 X114.819 Y130.157 E113.15337
G1 X113.889 Y130.157 E113.2042
G1 X89.843 Y106.111 E115.06285
G1 X89.843 Y107.04 E115.11363
G1 X112.96 Y130.157 E116.90047
G1 X112.03 Y130.157 E116.9513
G1 X89.843 Y107.97 E118.66626
G1 X89.843 Y108.899 E118.71704
G1 X111.101 Y130.157 E120.36019
G1 X110.171 Y130.157 E120.41102
G1 X89.843 Y109.829 E121.98228
G1 X89.843 Y110.759 E122.03311
G1 X109.241 Y130.157 E123.53249
G1 X108.312 Y130.157 E123.58327
G1 X89.843 Y111.688 E125.01084
G1 X89.843 Y112.618 E125.06167
G1 X107.382 Y130.157 E126.41736
G1 X106.453 Y130.157 E126.46814
G1 X89.843 Y113.547 E127.75202
G1 X89.843 Y114.477 E127.80285
G1 X105.523 Y130.157 E129.01484
G1 X104.593 Y130.157 E129.06567
G1 X89.843 Y115.407 E130.20578
G1 X89.843 Y116.336 E130.25656
G1 X103.664 Y130.157 E131.32486
G1 X102.734 Y130.157 E131.37569
G1 X89.843 Y117.266 E132.37211
G1 X89.843 Y118.195 E132.42289
G1 X101.805 Y130.157 E133.3475
G1 X100.875 Y130.157 E133.39833
G1 X89.843 Y119.125 E134.25105
G1 X89.843 Y120.054 E134.30183
G1 X99.946 Y130.157 E135.08275
G1 X99.016 Y130.157 E135.13358
G1 X89.843 Y120.984 E135.84261
G1 X89.843 Y121.914 E135.89344
G1 X98.086 Y130.157 E136.53059
G1 X97.157 Y130.157 E136.58137
G1 X89.843 Y122.843 E137.14671
G1 X89.843 Y123.773 E137.19754
G1 X96.227 Y130.157 E137.69099
G1 X95.298 Y130.157 E137.74177
G1 X89.843 Y124.702 E138.16342
G1 X89.843 Y125.632 E138.21425
G1 X94.368 Y130.157 E138.56401
G1 X93.438 Y130.157 E138.61484
G1 X89.843 Y126.562 E138.89272
G1 X89.843 Y127.203 E138.92775
G1 X89.879 Y127.528 E138.94562
G1 X92.472 Y130.121 E139.14605
G1 X92.106 Y130.079 E139.16619
G1 X91.493 Y129.866 E139.20166
G1 X90.941 Y129.519 E139.2373
G1 X89.763 Y128.341 E139.32835
M106 S255
;LAYER_CHANGE
;Z:0.4
;HEIGHT:0.2
;BEFORE_LAYER_CHANGE
;0.4


G1 Z.4 F18000
;AFTER_LAYER_CHANGE
;0.4
G1 X89.577 Y128.406
;TYPE:External perimeter
;WIDTH:0.699999
G1 F7488.116
G1 X89.437 Y128.002 E139.35171
G1 F7490.877
G1 X89.35 Y127.23 E139.39416
G1 F7499.978
G1 X89.35 Y126.53 E139.43241
G1 X89.35 Y93.47 E141.23869
G1 F7500
G1 X89.35 Y92.77 E141.27694
G1 F7490.883
G1 X89.437 Y91.998 E141.31939
G1 F7485.566
G1 X89.685 Y91.283 E141.36074
G1 X90.094 Y90.631 E141.40279
G1 F7489.452
G1 X90.631 Y90.093 E141.44432
G1 F7474.232
G1 X91.283 Y89.685 E141.48634
G1 X91.998 Y89.437 E141.52769
G1 F7492.507
G1 X92.771 Y89.35 E141.57019
G1 F7499.978
G1 X93.471 Y89.35 E141.60844
G1 X126.53 Y89.35 E143.41466
G1 X127.23 Y89.35 E143.45291
G1 X128.006 Y89.437 E143.49557
G1 X128.724 Y89.688 E143.53713
G1 X129.368 Y90.093 E143.5787
G1 X129.907 Y90.632 E143.62035
G1 X130.312 Y91.276 E143.66192
G1 X130.563 Y91.994 E143.70348
G1 X130.65 Y92.973 E143.75718
G1 X130.65 Y93.673 E143.79543
G1 X130.65 Y126.53 E145.59062
G1 X130.65 Y127.23 E145.62887
G1 X130.563 Y128.006 E145.67153
G1 X130.312 Y128.724 E145.71309
G1 X129.907 Y129.368 E145.75466
G1 X129.368 Y129.907 E145.79631
G1 X128.724 Y130.312 E145.83788
G1 X128.006 Y130.563 E145.87944
G1 X127.23 Y130.65 E145.9221
G1 X126.53 Y130.65 E145.96035
G1 X93.47 Y130.65 E147.76663
G1 X92.77 Y130.65 E147.80488
G1 F7492.195
G1 X91.998 Y130.563 E147.84733
G1 F7487.642
G1 X91.283 Y130.315 E147.88868
G1 X90.631 Y129.906 E147.93073
G1 F7499.972
G1 X90.094 Y129.369 E147.97222
G1 F7471.298
G1 X89.685 Y128.717 E148.01427
G1 X89.597 Y128.463 E148.02896
G1 F7485.065
;WIPE_START
G1 F14400
G1 X89.437 Y128.002 E147.94204
G1 X89.35 Y127.23 E147.80366
G1 X89.35 Y125.688 E147.52896
;WIPE_END
G92 E0
G1 Z.6 F18000
G1 X128.341 Y130.237
G1 Z.4
G1 E.5 F2700
;TYPE:Top solid infill
;WIDTH:0.700238
G1 F7667.522
G1 X129.519 Y129.058 E.59109
G1 X129.865 Y128.509 E.62656
G1 X130.079 Y127.896 E.66205
G1 X130.121 Y127.528 E.68229
G1 X127.528 Y130.121 E.88272
G1 X127.203 Y130.157 E.90059
G1 X126.561 Y130.157 E.93568
G1 X130.157 Y126.561 E1.21363
G1 X130.157 Y125.632 E1.26441
G1 X125.632 Y130.157 E1.61417
G1 X124.702 Y130.157 E1.665
G1 X130.157 Y124.702 E2.08665
G1 X130.157 Y123.773 E2.13743
G1 X123.773 Y130.157 E2.63088
G1 X122.843 Y130.157 E2.68171
G1 X130.157 Y122.843 E3.24705
G1 X130.157 Y121.914 E3.29783
G1 X121.914 Y130.157 E3.93498
G1 X120.984 Y130.157 E3.98581
G1 X130.157 Y120.984 E4.69484
G1 X130.157 Y120.054 E4.74567
G1 X120.054 Y130.157 E5.52659
G1 X119.125 Y130.157 E5.57737
G1 X130.157 Y119.125 E6.43009
G1 X130.157 Y118.195 E6.48092
G1 X118.195 Y130.157 E7.40553
G1 X117.266 Y130.157 E7.45631
G1 X130.157 Y117.266 E8.45273
G1 X130.157 Y116.336 E8.50356
G1 X116.336 Y130.157 E9.57186
G1 X115.406 Y130.157 E9.62269
G1 X130.157 Y115.406 E10.76288
G1 X130.157 Y114.477 E10.81366
G1 X114.477 Y130.157 E12.02565
G1 X113.547 Y130.157 E12.07648
G1 X130.157 Y113.547 E13.36036
G1 X130.157 Y112.618 E13.41114
G1 X112.618 Y130.157 E14.76683
G1 X111.688 Y130.157 E14.81766
G1 X130.157 Y111.688 E16.24523
G1 X130.157 Y110.758 E16.29606
G1 X110.758 Y130.157 E17.79552
G1 X109.829 Y130.157 E17.8463
G1 X130.157 Y109.829 E19.41756
G1 X130.157 Y108.899 E19.46839
G1 X108.899 Y130.157 E21.11154
G1 X107.97 Y130.157 E21.16232
G1 X130.157 Y107.97 E22.87728
G1 X130.157 Y107.04 E22.92811
G1 X107.04 Y130.157 E24.71495
G1 X106.111 Y130.157 E24.76573
G1 X130.157 Y106.111 E26.62438
G1 X130.157 Y105.181 E26.67521
G1 X105.181 Y130.157 E28.60574
G1 X104.251 Y130.157 E28.65657
G1 X130.157 Y104.251 E30.65899
G1 X130.157 Y103.322 E30.70977
G1 X103.322 Y130.157 E32.784
G1 X102.392 Y130.157 E32.83483
G1 X130.157 Y102.392 E34.98094
G1 X130.157 Y101.463 E35.03172
G1 X101.463 Y130.157 E37.24964
G1 X100.533 Y130.157 E37.30047
G1 X130.157 Y100.533 E39.59027
G1 X130.157 Y99.603 E39.6411
G1 X99.603 Y130.157 E42.00279
G1 X98.674 Y130.157 E42.05357
G1 X130.157 Y98.674 E44.48707
G1 X130.157 Y97.744 E44.5379
G1 X97.744 Y130.157 E47.04328
G1 X96.815 Y130.157 E47.09406
G1 X130.157 Y96.815 E49.67125
G1 X130.157 Y95.885 E49.72208
G1 X95.885 Y130.157 E52.37115
G1 X94.955 Y130.157 E52.42198
G1 X130.157 Y94.955 E55.14294
G1 X130.157 Y94.026 E55.19372
G1 X94.026 Y130.157 E57.98649
G1 X93.096 Y130.157 E58.03732
G1 X130.157 Y93.096 E60.90197
G1 X130.157 Y92.797 E60.91831
G1 X130.093 Y92.231 E60.94944
G1 X92.23 Y130.094 E63.87608
G1 X92.108 Y130.08 E63.88279
G1 X91.519 Y129.875 E63.91688
G1 X129.875 Y91.52 E66.88159
G1 X129.521 Y90.944 E66.91854
G1 X90.944 Y129.521 E69.90037
G1 X90.479 Y129.056 E69.93631
G1 X129.056 Y90.479 E72.91814
G1 X128.48 Y90.125 E72.95509
G1 X90.125 Y128.481 E75.9198
G1 X89.92 Y127.892 E75.95389
G1 X89.906 Y127.77 E75.9606
G1 X127.769 Y89.907 E78.88724
G1 X127.203 Y89.843 E78.91837
G1 X126.904 Y89.843 E78.93471
G1 X89.843 Y126.904 E81.79936
G1 X89.843 Y125.974 E81.85019
G1 X125.974 Y89.843 E84.64296
