; generated by PrusaSlicer 2.6.0-alpha5+win64 on 2023-03-15 at 16:15:29 UTC

; 

; external perimeters extrusion width = 0.50mm
; perimeters extrusion width = 0.50mm
; infill extrusion width = 0.50mm
; solid infill extrusion width = 0.50mm
; top infill extrusion width = 0.50mm
; first layer extrusion width = 0.50mm

; external perimeters extrusion width = 0.50mm
; perimeters extrusion width = 0.50mm
; infill extrusion width = 0.50mm
; solid infill extrusion width = 0.50mm
; top infill extrusion width = 0.50mm
; first layer extrusion width = 0.50mm

; external perimeters extrusion width = 0.50mm
; perimeters extrusion width = 0.50mm
; infill extrusion width = 0.50mm
; solid infill extrusion width = 0.50mm
; top infill extrusion width = 0.50mm
; first layer extrusion width = 0.50mm

; external perimeters extrusion width = 0.50mm
; perimeters extrusion width = 0.50mm
; infill extrusion width = 0.50mm
; solid infill extrusion width = 0.50mm
; top infill extrusion width = 0.50mm
; first layer extrusion width = 0.50mm

M107
M190 S60 ; set bed temperature and wait for it to be reached
M104 S205 ; set temperature
;TYPE:Custom
SET_GCODE_VARIABLE MACRO=START_PRINT VARIABLE=bed_temp VALUE=60
SET_GCODE_VARIABLE MACRO=START_PRINT VARIABLE=extruder_temp VALUE=205
START_PRINT
M109 S205 ; set temperature and wait for it to be reached
G21 ; set units to millimeters
G90 ; use absolute coordinates
M82 ; use absolute distances for extrusion
G92 E0
; Filament gcode
M107
;LAYER_CHANGE
;Z:0.2
;HEIGHT:0.2
;BEFORE_LAYER_CHANGE
;0.2


G1 Z.2 F18000
;AFTER_LAYER_CHANGE
;0.2
G1 E-.5 F2700
G92 E0
G1 Z.4 F18000
G1 X42.362 Y42.569
G1 Z.2
G1 E.5 F2700
;TYPE:Skirt/Brim
;WIDTH:0.5
G1 F3600
G1 X43.505 Y41.607 E.55678
G1 X44.535 Y41.041 E.60145
G1 X45.884 Y40.618 E.65518
G1 X47.278 Y40.463 E.70849
G1 X173.175 Y40.481 E5.49337
G1 X174.337 Y40.659 E5.53805
G1 X175.772 Y41.191 E5.59622
G1 X176.995 Y41.973 E5.65139
G1 X177.824 Y42.762 E5.69489
G1 X178.41 Y43.531 E5.73164
G1 X178.959 Y44.535 E5.77513
G1 X179.382 Y45.884 E5.82886
G1 X179.537 Y47.278 E5.88217
G1 X179.537 Y172.722 E10.64984
G1 X179.437 Y173.841 E10.69254
G1 X179.056 Y175.229 E10.74724
G1 X178.548 Y176.254 E10.79072
G1 X177.638 Y177.431 E10.84726
G1 X176.495 Y178.393 E10.90404
G1 X175.465 Y178.959 E10.94871
G1 X174.116 Y179.382 E11.00244
G1 X172.722 Y179.537 E11.05575
G1 X47.278 Y179.537 E15.82342
G1 X46.159 Y179.437 E15.86612
G1 X44.771 Y179.056 E15.92082
G1 X43.746 Y178.548 E15.9643
G1 X42.569 Y177.638 E16.02084
G1 X41.607 Y176.495 E16.07762
G1 X41.041 Y175.465 E16.12229
G1 X40.618 Y174.116 E16.17602
G1 X40.463 Y172.722 E16.22933
G1 X40.463 Y47.278 E20.997
G1 X40.563 Y46.159 E21.0397
G1 X40.944 Y44.771 E21.0944
G1 X41.452 Y43.746 E21.13788
G1 X42.325 Y42.616 E21.19215
G1 X42.685 Y42.895 F18000
G1 F3600
G1 X43.753 Y41.991 E21.24533
G1 X44.722 Y41.458 E21.28736
G1 X45.969 Y41.068 E21.33702
G1 X47.278 Y40.92 E21.38709
G1 X173.14 Y40.936 E26.17064
G1 X174.233 Y41.104 E26.21267
G1 X175.573 Y41.603 E26.26702
G1 X176.704 Y42.326 E26.31804
G1 X177.483 Y43.066 E26.35888
G1 X178.026 Y43.779 E26.39294
G1 X178.542 Y44.722 E26.43379
G1 X178.932 Y45.969 E26.48345
G1 X179.08 Y47.278 E26.53352
G1 X179.08 Y172.722 E31.30119
G1 X178.985 Y173.773 E31.3413
G1 X178.632 Y175.058 E31.39195
G1 X178.155 Y176.021 E31.43279
G1 X177.303 Y177.12 E31.48564
G1 X176.247 Y178.009 E31.5381
G1 X175.278 Y178.542 E31.58013
G1 X174.031 Y178.932 E31.62979
G1 X172.722 Y179.08 E31.67986
G1 X47.278 Y179.08 E36.44753
G1 X46.227 Y178.985 E36.48764
G1 X44.942 Y178.632 E36.53829
G1 X43.979 Y178.155 E36.57913
G1 X42.88 Y177.303 E36.63198
G1 X41.991 Y176.247 E36.68444
G1 X41.458 Y175.278 E36.72647
G1 X41.068 Y174.031 E36.77613
G1 X40.92 Y172.722 E36.8262
G1 X40.92 Y47.278 E41.59387
G1 X41.015 Y46.227 E41.63398
G1 X41.368 Y44.942 E41.68463
G1 X41.845 Y43.979 E41.72547
G1 X42.648 Y42.943 E41.77529
;WIPE_START
G1 F14400
G1 X43.753 Y41.991 E41.51549
G1 X44.722 Y41.458 E41.3185
G1 X44.954 Y41.386 E41.27529
;WIPE_END
G92 E0
G1 Z.4 F18000
G1 X47.301 Y138.123
G1 Z.2
G1 E.5 F2700
;TYPE:External perimeter
;WIDTH:0.499999
G1 F3600
G1 X81.139 Y138.125 E1.78606
G1 X81.42 Y138.154 E1.7968
G1 X81.636 Y138.281 E1.80632
G1 X81.83 Y138.539 E1.81859
G1 X81.877 Y138.864 E1.83107
G1 X81.877 Y172.631 E3.11443
G1 X81.836 Y172.939 E3.12624
G1 X81.706 Y173.15 E3.13566
G1 X81.461 Y173.325 E3.1471
G1 X81.204 Y173.372 E3.15703
G1 X47.369 Y173.372 E4.44297
G1 X47.061 Y173.331 E4.45478
G1 X46.85 Y173.201 E4.4642
G1 X46.675 Y172.956 E4.47564
G1 X46.628 Y172.699 E4.48557
G1 X46.628 Y138.864 E5.77151
G1 X46.669 Y138.556 E5.78332
G1 X46.799 Y138.345 E5.79274
G1 X47.044 Y138.17 E5.80418
G1 X47.242 Y138.133 E5.81184
;WIPE_START
G1 F14400
G1 X50.049 Y138.132 E5.31184
;WIPE_END
G92 E0
G1 Z.4 F18000
G1 X80.491 Y138.262
G1 Z.2
G1 E.5 F2700
;TYPE:Solid infill
;WIDTH:0.501518
G1 F3600
G1 X81.535 Y139.306 E.5563
G1 X81.535 Y139.954 E.58101
G1 X80.048 Y138.468 E.66117
G1 X79.4 Y138.468 E.68588
G1 X81.535 Y140.603 E.80102
G1 X81.535 Y141.251 E.82573
G1 X78.751 Y138.467 E.97586
G1 X78.102 Y138.467 E1.00061
G1 X81.535 Y141.9 E1.18574
G1 X81.535 Y142.548 E1.21045
G1 X77.454 Y138.467 E1.43053
G1 X76.805 Y138.467 E1.45528
G1 X81.535 Y143.197 E1.71036
G1 X81.535 Y143.845 E1.73507
G1 X76.157 Y138.467 E2.02509
G1 X75.508 Y138.467 E2.04984
G1 X81.535 Y144.494 E2.37486
G1 X81.535 Y145.143 E2.39961
G1 X74.859 Y138.467 E2.75963
G1 X74.211 Y138.467 E2.78434
G1 X81.535 Y145.791 E3.17931
G1 X81.535 Y146.44 E3.20406
G1 X73.562 Y138.467 E3.63402
G1 X72.914 Y138.467 E3.65873
G1 X81.535 Y147.088 E4.12364
G1 X81.535 Y147.737 E4.14839
G1 X72.265 Y138.467 E4.6483
G1 X71.616 Y138.467 E4.67305
G1 X81.535 Y148.385 E5.20793
G1 X81.535 Y149.034 E5.23268
G1 X70.968 Y138.467 E5.80253
G1 X70.319 Y138.467 E5.82728
G1 X81.535 Y149.682 E6.43211
G1 X81.535 Y150.331 E6.45686
G1 X69.671 Y138.467 E7.09666
G1 X69.022 Y138.467 E7.12141
G1 X81.535 Y150.98 E7.79621
G1 X81.535 Y151.628 E7.82092
G1 X68.373 Y138.467 E8.53069
G1 X67.725 Y138.467 E8.5554
G1 X81.535 Y152.277 E9.30014
G1 X81.535 Y152.925 E9.32485
G1 X67.076 Y138.467 E10.10456
G1 X66.428 Y138.467 E10.12927
G1 X81.535 Y153.574 E10.94395
G1 X81.535 Y154.222 E10.96866
G1 X65.779 Y138.467 E11.81832
G1 X65.13 Y138.467 E11.84307
G1 X81.535 Y154.871 E12.72773
G1 X81.535 Y155.519 E12.75244
G1 X64.482 Y138.466 E13.67207
G1 X63.833 Y138.466 E13.69682
G1 X81.535 Y156.168 E14.65145
G1 X81.535 Y156.817 E14.6762
G1 X63.184 Y138.466 E15.66583
G1 X62.536 Y138.466 E15.69054
G1 X81.535 Y157.465 E16.71511
G1 X81.535 Y158.114 E16.73986
G1 X61.887 Y138.466 E17.79943
G1 X61.239 Y138.466 E17.82414
G1 X81.535 Y158.762 E18.91865
G1 X81.535 Y159.411 E18.9434
G1 X60.59 Y138.466 E20.07291
G1 X59.941 Y138.466 E20.09766
G1 X81.535 Y160.059 E21.26215
G1 X81.535 Y160.708 E21.2869
G1 X59.293 Y138.466 E22.48636
G1 X58.644 Y138.466 E22.51111
G1 X81.535 Y161.356 E23.74554
G1 X81.535 Y162.005 E23.77029
G1 X57.996 Y138.466 E25.03969
G1 X57.347 Y138.466 E25.06444
G1 X81.535 Y162.654 E26.36884
G1 X81.535 Y163.302 E26.39355
G1 X56.698 Y138.466 E27.73292
G1 X56.05 Y138.466 E27.75763
G1 X81.535 Y163.951 E29.13198
G1 X81.535 Y164.599 E29.15669
G1 X55.401 Y138.466 E30.56601
G1 X54.753 Y138.466 E30.59072
G1 X81.535 Y165.248 E32.03501
G1 X81.535 Y165.896 E32.05972
G1 X54.104 Y138.466 E33.53898
G1 X53.455 Y138.466 E33.56373
G1 X81.535 Y166.545 E35.07799
G1 X81.535 Y167.193 E35.1027
G1 X52.807 Y138.466 E36.65191
G1 X52.158 Y138.466 E36.67666
G1 X81.535 Y167.842 E38.26086
G1 X81.535 Y168.491 E38.28561
G1 X51.51 Y138.466 E39.90479
G1 X50.861 Y138.466 E39.92954
G1 X81.535 Y169.139 E41.58369
G1 X81.535 Y169.788 E41.60844
G1 X50.212 Y138.466 E43.29759
G1 X49.564 Y138.465 E43.3223
G1 X81.535 Y170.436 E45.04642
G1 X81.535 Y171.085 E45.07117
G1 X48.915 Y138.465 E46.83029
G1 X48.267 Y138.465 E46.855
G1 X81.535 Y171.733 E48.64906
G1 X81.535 Y172.382 E48.67381
G1 X47.618 Y138.465 E50.50287
G1 X47.377 Y138.465 E50.51206
G1 X47.165 Y138.497 E50.52024
G1 X47.076 Y138.551 E50.52421
G1 X47.066 Y138.562 E50.52478
G1 X81.438 Y172.934 E52.37838
G1 X81.338 Y172.999 E52.38293
G1 X81.173 Y173.03 E52.38933
G1 X80.885 Y173.03 E52.40031
G1 X46.97 Y139.115 E54.22926
G1 X46.97 Y139.763 E54.25397
G1 X80.237 Y173.03 E56.04798
G1 X79.588 Y173.03 E56.07273
G1 X46.97 Y140.412 E57.83174
G1 X46.97 Y141.06 E57.85645
G1 X78.94 Y173.03 E59.58052
G1 X78.291 Y173.03 E59.60527
G1 X46.97 Y141.709 E61.29434
G1 X46.97 Y142.357 E61.31905
G1 X77.643 Y173.03 E62.97317
G1 X76.994 Y173.03 E62.99792
G1 X46.97 Y143.006 E64.61704
G1 X46.97 Y143.655 E64.64179
G1 X76.345 Y173.03 E66.22591
G1 X75.697 Y173.03 E66.25062
G1 X46.97 Y144.303 E67.7998
G1 X46.97 Y144.952 E67.82455
G1 X75.048 Y173.03 E69.33873
G1 X74.4 Y173.03 E69.36344
G1 X46.97 Y145.6 E70.84267
G1 X46.97 Y146.249 E70.86742
G1 X73.751 Y173.03 E72.31166
G1 X73.103 Y173.03 E72.33637
G1 X46.97 Y146.897 E73.74566
G1 X46.97 Y147.546 E73.77041
G1 X72.454 Y173.03 E75.1447
G1 X71.806 Y173.03 E75.16941
G1 X46.97 Y148.194 E76.50876
G1 X46.97 Y148.843 E76.53351
G1 X71.157 Y173.03 E77.83786
G1 X70.508 Y173.03 E77.86261
G1 X46.97 Y149.492 E79.13196
G1 X46.97 Y150.14 E79.15667
G1 X69.86 Y173.03 E80.39107
G1 X69.211 Y173.03 E80.41582
G1 X46.97 Y150.789 E81.61522
G1 X46.97 Y151.437 E81.63993
G1 X68.563 Y173.03 E82.80439
G1 X67.914 Y173.03 E82.82914
G1 X46.97 Y152.086 E83.9586
G1 X46.97 Y152.734 E83.98331
G1 X67.266 Y173.03 E85.07782
G1 X66.617 Y173.03 E85.10257
G1 X46.97 Y153.383 E86.16209
G1 X46.97 Y154.031 E86.1868
G1 X65.969 Y173.03 E87.21137
G1 X65.32 Y173.03 E87.23612
G1 X46.97 Y154.68 E88.22569
G1 X46.97 Y155.329 E88.25044
G1 X64.671 Y173.03 E89.20501
G1 X64.023 Y173.03 E89.22972
G1 X46.97 Y155.977 E90.14935
G1 X46.97 Y156.626 E90.1741
G1 X63.374 Y173.03 E91.05873
G1 X62.726 Y173.03 E91.08344
G1 X46.97 Y157.274 E91.93312
G1 X46.97 Y157.923 E91.95787
G1 X62.077 Y173.03 E92.77255
G1 X61.429 Y173.03 E92.79726
G1 X46.97 Y158.571 E93.577
G1 X46.97 Y159.22 E93.60175
G1 X60.78 Y173.03 E94.34649
G1 X60.132 Y173.03 E94.3712
G1 X46.97 Y159.868 E95.081
G1 X46.97 Y160.517 E95.10575
G1 X59.483 Y173.03 E95.78055
G1 X58.834 Y173.03 E95.8053
G1 X46.97 Y161.166 E96.4451
G1 X46.97 Y161.814 E96.46981
G1 X58.186 Y173.03 E97.07466
G1 X57.537 Y173.03 E97.09941
G1 X46.97 Y162.463 E97.66926
G1 X46.97 Y163.111 E97.69397
G1 X56.889 Y173.03 E98.22888
G1 X56.24 Y173.03 E98.25363
G1 X46.97 Y163.76 E98.75354
G1 X46.97 Y164.408 E98.77825
G1 X55.592 Y173.03 E99.24321
G1 X54.943 Y173.03 E99.26796
G1 X46.97 Y165.057 E99.69792
G1 X46.97 Y165.705 E99.72263
G1 X54.295 Y173.03 E100.11765
G1 X53.646 Y173.03 E100.1424
G1 X46.97 Y166.354 E100.50242
G1 X46.97 Y167.003 E100.52717
G1 X52.997 Y173.03 E100.85219
G1 X52.349 Y173.03 E100.8769
G1 X46.97 Y167.651 E101.16698
G1 X46.97 Y168.3 E101.19173
G1 X51.7 Y173.03 E101.44681
G1 X51.052 Y173.03 E101.47152
G1 X46.97 Y168.948 E101.69165
G1 X46.97 Y169.597 E101.7164
G1 X50.403 Y173.03 E101.90153
G1 X49.755 Y173.03 E101.92624
G1 X46.97 Y170.245 E102.07643
G1 X46.97 Y170.894 E102.10118
G1 X49.106 Y173.03 E102.21637
G1 X48.458 Y173.03 E102.24108
G1 X46.97 Y171.542 E102.32132
G1 X46.97 Y172.191 E102.34607
G1 X48.015 Y173.235 E102.4024
M106 S255
;LAYER_CHANGE
;Z:0.4
;HEIGHT:0.2
;BEFORE_LAYER_CHANGE
;0.4


G1 Z.4 F18000
;AFTER_LAYER_CHANGE
;0.4
G1 X48.015 Y173.572
;TYPE:External perimeter
;WIDTH:0.499999
G1 F1259.993
G1 X47.4 Y173.572 E102.42577
G1 X47.117 Y173.535 E102.43662
G1 F1278.781
G1 X46.802 Y173.424 E102.44931
G1 F1275.35
G1 X46.528 Y173.104 E102.46532
G1 F1260
G1 X46.428 Y172.7 E102.48114
G1 X46.428 Y172 E102.50774
G1 F1259.993
G1 X46.428 Y139.595 E103.73933
G1 X46.428 Y138.895 E103.76593
G1 X46.465 Y138.612 E103.77678
G1 F1278.781
G1 X46.576 Y138.297 E103.78947
G1 F1275.35
G1 X46.896 Y138.023 E103.80548
G1 F1260.029
G1 X47.3 Y137.923 E103.8213
G1 X48 Y137.923 E103.8479
G1 F1261.07
G1 X80.434 Y137.929 E105.0806
G1 F1309.312
G1 X81.127 Y137.929 E105.10694
G1 F1264.025
G1 X81.368 Y137.942 E105.11611
G1 X81.704 Y138.073 E105.12982
G1 F1284.328
G1 X81.824 Y138.199 E105.13643
G1 F1277.869
G1 X82.018 Y138.469 E105.14907
G1 F1259.993
G1 X82.077 Y138.88 E105.16485
G1 X82.077 Y139.58 E105.19145
G1 X82.077 Y171.9 E106.41981
G1 X82.077 Y172.6 E106.44641
G1 X82.04 Y172.883 E106.45726
G1 F1278.775
G1 X81.929 Y173.198 E106.46995
G1 F1275.35
G1 X81.609 Y173.472 E106.48596
G1 F1259.993
G1 X81.205 Y173.572 E106.50178
G1 X80.505 Y173.572 E106.52838
G1 X48.775 Y173.572 E107.73432
G1 X48.075 Y173.572 E107.76092
;WIPE_START
G1 F14400
G1 X47.4 Y173.572 E107.64069
G1 X47.117 Y173.535 E107.58985
G1 X46.802 Y173.424 E107.53036
G1 X46.528 Y173.104 E107.45532
G1 X46.428 Y172.7 E107.38119
G1 X46.428 Y172.025 E107.26092
;WIPE_END
G92 E0
G1 Z.6 F18000
G1 X80.557 Y173.435
G1 Z.4
G1 E.5 F2700
;TYPE:Solid infill
;WIDTH:0.500759
G1 F11008.237
G1 X81.735 Y172.258 E.56339
G1 X81.735 Y171.611 E.58802
G1 X80.116 Y173.23 E.67518
G1 X79.468 Y173.23 E.69985
G1 X81.735 Y170.963 E.8219
G1 X81.735 Y170.316 E.84653
G1 X78.821 Y173.23 E1.00341
G1 X78.173 Y173.23 E1.02808
G1 X81.735 Y169.668 E1.21985
G1 X81.735 Y169.021 E1.24448
G1 X77.526 Y173.23 E1.47109
G1 X76.878 Y173.23 E1.49576
G1 X81.735 Y168.373 E1.75725
G1 X81.735 Y167.726 E1.78188
G1 X76.231 Y173.23 E2.07821
G1 X75.583 Y173.23 E2.10288
G1 X81.735 Y167.078 E2.43409
G1 X81.735 Y166.431 E2.45872
G1 X74.936 Y173.23 E2.82477
G1 X74.288 Y173.23 E2.84944
G1 X81.735 Y165.783 E3.25037
G1 X81.735 Y165.136 E3.275
G1 X73.641 Y173.23 E3.71077
G1 X72.993 Y173.23 E3.73544
G1 X81.735 Y164.488 E4.20609
G1 X81.735 Y163.841 E4.23072
G1 X72.346 Y173.23 E4.73621
G1 X71.698 Y173.23 E4.76088
G1 X81.735 Y163.193 E5.30126
G1 X81.735 Y162.546 E5.32589
G1 X71.051 Y173.23 E5.9011
G1 X70.403 Y173.23 E5.92577
G1 X81.735 Y161.898 E6.53587
G1 X81.735 Y161.251 E6.5605
G1 X69.756 Y173.23 E7.20543
G1 X69.108 Y173.23 E7.2301
G1 X81.735 Y160.603 E7.90992
G1 X81.735 Y159.956 E7.93455
G1 X68.461 Y173.23 E8.6492
G1 X67.813 Y173.23 E8.67387
G1 X81.735 Y159.308 E9.42341
G1 X81.735 Y158.661 E9.44804
G1 X67.166 Y173.23 E10.23241
G1 X66.518 Y173.23 E10.25708
G1 X81.735 Y158.013 E11.07634
G1 X81.735 Y157.366 E11.10097
G1 X65.871 Y173.23 E11.95506
G1 X65.224 Y173.23 E11.97969
G1 X81.735 Y156.719 E12.86862
G1 X81.735 Y156.071 E12.89329
G1 X64.576 Y173.23 E13.8171
G1 X63.929 Y173.23 E13.84173
G1 X81.735 Y155.424 E14.80038
G1 X81.735 Y154.776 E14.82505
G1 X63.281 Y173.23 E15.81858
G1 X62.634 Y173.23 E15.84321
G1 X81.735 Y154.129 E16.87158
G1 X81.735 Y153.481 E16.89625
G1 X61.986 Y173.23 E17.9595
G1 X61.339 Y173.23 E17.98413
G1 X81.735 Y152.834 E19.08222
G1 X81.735 Y152.186 E19.10689
G1 X60.691 Y173.23 E20.23986
G1 X60.044 Y173.23 E20.26449
G1 X81.735 Y151.539 E21.4323
G1 X81.735 Y150.891 E21.45697
G1 X59.396 Y173.23 E22.65967
G1 X58.749 Y173.23 E22.6843
G1 X81.735 Y150.244 E23.92183
G1 X81.735 Y149.596 E23.9465
G1 X58.101 Y173.23 E25.21892
G1 X57.454 Y173.23 E25.24355
G1 X81.735 Y148.949 E26.5508
G1 X81.735 Y148.301 E26.57547
G1 X56.806 Y173.23 E27.91761
G1 X56.159 Y173.23 E27.94224
G1 X81.735 Y147.654 E29.31921
G1 X81.735 Y147.006 E29.34388
G1 X55.511 Y173.23 E30.75574
G1 X54.864 Y173.23 E30.78037
G1 X81.735 Y146.359 E32.22706
G1 X81.735 Y145.711 E32.25173
G1 X54.216 Y173.23 E33.73331
G1 X53.569 Y173.23 E33.75794
G1 X81.735 Y145.064 E35.27435
G1 X81.735 Y144.416 E35.29902
G1 X52.921 Y173.23 E36.85032
G1 X52.274 Y173.23 E36.87495
G1 X81.735 Y143.769 E38.46108
G1 X81.735 Y143.121 E38.48575
G1 X51.626 Y173.23 E40.10677
G1 X50.979 Y173.23 E40.1314
G1 X81.735 Y142.474 E41.78725
G1 X81.735 Y141.826 E41.81192
G1 X50.331 Y173.23 E43.50266
G1 X49.684 Y173.23 E43.52729
G1 X81.735 Y141.179 E45.25286
G1 X81.735 Y140.531 E45.27753
G1 X49.036 Y173.23 E47.03799
G1 X48.389 Y173.23 E47.06262
G1 X81.735 Y139.884 E48.85791
G1 X81.735 Y139.236 E48.88258
G1 X47.741 Y173.23 E50.71276
G1 X47.336 Y173.23 E50.72818
G1 X47.135 Y173.189 E50.73599
G1 X81.698 Y138.625 E52.59683
G1 X81.659 Y138.522 E52.60102
G1 X81.499 Y138.354 E52.60985
G1 X81.38 Y138.296 E52.61489
G1 X46.807 Y172.87 E54.47627
G1 X46.77 Y172.669 E54.48405
G1 X46.77 Y172.258 E54.4997
G1 X80.757 Y138.272 E56.32948
G1 X80.109 Y138.272 E56.35415
G1 X46.77 Y171.611 E58.14907
