; generated by PrusaSlicer 2.6.0-alpha5+win64 on 2023-03-15 at 09:57:08 UTC

; 

; external perimeters extrusion width = 0.80mm
; perimeters extrusion width = 0.80mm
; infill extrusion width = 0.80mm
; solid infill extrusion width = 0.80mm
; top infill extrusion width = 0.80mm
; first layer extrusion width = 0.44mm

M107
M190 S60 ; set bed temperature and wait for it to be reached
M104 S205 ; set temperature
;TYPE:Custom
SET_GCODE_VARIABLE MACRO=START_PRINT VARIABLE=bed_temp VALUE=60
SET_GCODE_VARIABLE MACRO=START_PRINT VARIABLE=extruder_temp VALUE=205
START_PRINT
M109 S205 ; set temperature and wait for it to be reached
G21 ; set units to millimeters
G90 ; use absolute coordinates
M82 ; use absolute distances for extrusion
G92 E0
; Filament gcode
M107
;LAYER_CHANGE
;Z:0.35
;HEIGHT:0.35
;BEFORE_LAYER_CHANGE
;0.35


G1 Z.35 F18000
;AFTER_LAYER_CHANGE
;0.35
G1 E-.5 F2700
G92 E0
G1 Z.55 F18000
G1 X88.01 Y88.569
G1 Z.35
G1 E.5 F2700
;TYPE:Skirt/Brim
;WIDTH:0.4375
G1 F3600
G1 X88.823 Y87.762 E.56041
G1 X90.018 Y87.001 E.63512
G1 X91.146 Y86.562 E.69895
G1 X92.583 Y86.313 E.77586
G1 X127.122 Y86.302 E2.59718
G1 X128.292 Y86.426 E2.65922
G1 X129.385 Y86.739 E2.71917
G1 X130.409 Y87.233 E2.77912
G1 X131.517 Y88.052 E2.85178
G1 X132.288 Y88.887 E2.91171
G1 X132.927 Y89.876 E2.9738
G1 X133.369 Y90.922 E3.03368
G1 X133.66 Y92.269 E3.10635
G1 X133.698 Y127.163 E4.9464
G1 X133.574 Y128.293 E5.00635
G1 X133.275 Y129.346 E5.06407
G1 X132.789 Y130.373 E5.12398
G1 X132.135 Y131.303 E5.18393
G1 X131.113 Y132.288 E5.25878
G1 X129.87 Y133.054 E5.33577
G1 X128.53 Y133.523 E5.41063
G1 X127.122 Y133.698 E5.48545
G1 X92.832 Y133.697 E7.29364
G1 X91.672 Y133.567 E7.35519
G1 X90.592 Y133.252 E7.41451
G1 X89.543 Y132.739 E7.47609
G1 X88.79 Y132.211 E7.52459
G1 X87.762 Y131.177 E7.60148
G1 X86.982 Y129.944 E7.67842
G1 X86.497 Y128.613 E7.75312
G1 X86.303 Y127.168 E7.83
G1 X86.303 Y92.832 E9.64062
G1 X86.433 Y91.672 E9.70217
G1 X86.748 Y90.591 E9.76154
G1 X87.261 Y89.543 E9.82307
G1 X87.789 Y88.79 E9.87157
G1 X87.968 Y88.612 E9.88488
G1 X88.209 Y88.86 F18000
G1 F3600
G1 X89.05 Y88.045 E9.94664
G1 X90.178 Y87.326 E10.01718
G1 X91.377 Y86.874 E10.08475
G1 X92.592 Y86.676 E10.14967
G1 X127.114 Y86.664 E11.9701
G1 X128.224 Y86.782 E12.02896
G1 X129.257 Y87.078 E12.08562
G1 X130.225 Y87.545 E12.14229
G1 X131.272 Y88.319 E12.21095
G1 X132.001 Y89.108 E12.2676
G1 X132.607 Y90.046 E12.32649
G1 X133.092 Y91.254 E12.39513
G1 X133.304 Y92.349 E12.45394
G1 X133.335 Y127.156 E14.2894
G1 X133.218 Y128.224 E14.34606
G1 X132.922 Y129.257 E14.40272
G1 X132.455 Y130.225 E14.45939
G1 X131.831 Y131.101 E14.5161
G1 X130.859 Y132.027 E14.58689
G1 X129.714 Y132.727 E14.65766
G1 X128.446 Y133.17 E14.72849
G1 X127.114 Y133.336 E14.79927
G1 X92.84 Y133.335 E16.60662
G1 X91.785 Y133.22 E16.66258
G1 X90.741 Y132.921 E16.71985
G1 X89.747 Y132.438 E16.77813
G1 X88.838 Y131.779 E16.83734
G1 X87.936 Y130.81 E16.90715
G1 X87.24 Y129.642 E16.97885
G1 X86.789 Y128.257 E17.05566
G1 X86.663 Y127 E17.12228
G1 X86.665 Y92.84 E18.92362
G1 X86.786 Y91.758 E18.98103
G1 X87.086 Y90.723 E19.03785
G1 X87.571 Y89.731 E19.09608
G1 X88.167 Y88.903 E19.14988
;WIPE_START
G1 F14400
G1 X89.05 Y88.045 E18.93057
G1 X90.178 Y87.326 E18.6923
G1 X90.401 Y87.242 E18.64988
;WIPE_END
G92 E0
G1 Z.55 F18000
G1 X92.468 Y92.468
G1 Z.35
G1 E.5 F2700
;TYPE:External perimeter
;WIDTH:0.4375
G1 F3600
G1 X92.712 Y92.305 E.51547
G1 X93.019 Y92.244 E.53198
G1 X126.9 Y92.244 E2.3186
G1 X127.311 Y92.315 E2.34059
G1 X127.543 Y92.479 E2.35557
G1 X127.698 Y92.719 E2.37064
G1 X127.756 Y93.101 E2.39101
G1 X127.756 Y126.886 E4.17257
G1 X127.698 Y127.281 E4.19362
G1 X127.543 Y127.521 E4.20869
G1 X127.312 Y127.685 E4.22363
G1 X126.979 Y127.756 E4.24158
G1 X93.104 Y127.756 E6.02789
G1 X92.712 Y127.695 E6.04881
G1 X92.468 Y127.532 E6.06428
G1 X92.305 Y127.288 E6.07975
G1 X92.244 Y126.981 E6.09626
G1 X92.244 Y93.104 E7.88267
G1 X92.305 Y92.712 E7.90359
G1 X92.435 Y92.518 E7.9159
;WIPE_START
G1 F14400
G1 X92.712 Y92.305 E7.85366
G1 X93.019 Y92.244 E7.79791
G1 X95.164 Y92.244 E7.4159
;WIPE_END
G92 E0
G1 Z.55 F18000
G1 X127.648 Y93.484
G1 Z.35
G1 E.5 F2700
;TYPE:Solid infill
;WIDTH:0.438373
G1 F3600
G1 X126.679 Y92.516 E.5724
G1 X126.166 Y92.516 E.59952
G1 X127.484 Y93.835 E.69808
G1 X127.484 Y94.349 E.72525
G1 X125.652 Y92.516 E.86224
G1 X125.138 Y92.516 E.88941
G1 X127.484 Y94.863 E1.06482
G1 X127.484 Y95.376 E1.09194
G1 X124.624 Y92.516 E1.30574
G1 X124.111 Y92.516 E1.33286
G1 X127.484 Y95.89 E1.58504
G1 X127.484 Y96.404 E1.61221
G1 X123.597 Y92.516 E1.90282
G1 X123.083 Y92.516 E1.92999
G1 X127.484 Y96.917 E2.25898
G1 X127.484 Y97.431 E2.28615
G1 X122.569 Y92.516 E2.65357
G1 X122.056 Y92.516 E2.68069
G1 X127.484 Y97.945 E3.08649
G1 X127.484 Y98.459 E3.11366
G1 X121.542 Y92.516 E3.55789
G1 X121.028 Y92.516 E3.58506
G1 X127.484 Y98.972 E4.06767
G1 X127.484 Y99.486 E4.09484
G1 X120.514 Y92.516 E4.61588
G1 X120.001 Y92.516 E4.643
G1 X127.484 Y100 E5.20242
G1 X127.484 Y100.514 E5.22959
G1 X119.487 Y92.516 E5.82744
G1 X118.973 Y92.516 E5.85461
G1 X127.484 Y101.027 E6.49085
G1 X127.484 Y101.541 E6.51802
G1 X118.459 Y92.516 E7.19268
G1 X117.946 Y92.516 E7.2198
G1 X127.484 Y102.055 E7.93285
G1 X127.484 Y102.568 E7.95997
G1 X117.432 Y92.516 E8.7114
G1 X116.918 Y92.516 E8.73857
G1 X127.484 Y103.082 E9.52843
G1 X127.484 Y103.596 E9.5556
G1 X116.404 Y92.516 E10.38388
G1 X115.891 Y92.516 E10.411
G1 X127.484 Y104.11 E11.27767
G1 X127.484 Y104.623 E11.30479
G1 X115.377 Y92.516 E12.20984
G1 X114.863 Y92.516 E12.23701
G1 X127.484 Y105.137 E13.18049
G1 X127.484 Y105.651 E13.20766
G1 X114.35 Y92.516 E14.18952
G1 X113.836 Y92.516 E14.21669
G1 X127.484 Y106.165 E15.23698
G1 X127.484 Y106.678 E15.2641
G1 X113.322 Y92.516 E16.32277
G1 X112.808 Y92.516 E16.34994
G1 X127.484 Y107.192 E17.44704
G1 X127.484 Y107.706 E17.47421
G1 X112.295 Y92.516 E18.60969
G1 X111.781 Y92.516 E18.63686
G1 X127.484 Y108.219 E19.81073
G1 X127.484 Y108.733 E19.8379
G1 X111.267 Y92.516 E21.05019
G1 X110.753 Y92.516 E21.07736
G1 X127.484 Y109.247 E22.32808
G1 X127.484 Y109.761 E22.35525
G1 X110.24 Y92.516 E23.64435
G1 X109.726 Y92.516 E23.67152
G1 X127.484 Y110.274 E24.99901
G1 X127.484 Y110.788 E25.02618
G1 X109.212 Y92.516 E26.39209
G1 X108.698 Y92.516 E26.41926
G1 X127.484 Y111.302 E27.8236
G1 X127.484 Y111.816 E27.85077
G1 X108.185 Y92.516 E29.29349
G1 X107.671 Y92.516 E29.32066
G1 X127.484 Y112.329 E30.80177
G1 X127.484 Y112.843 E30.82894
G1 X107.157 Y92.516 E32.34847
G1 X106.643 Y92.516 E32.37564
G1 X127.484 Y113.357 E33.9336
G1 X127.484 Y113.871 E33.96077
G1 X106.13 Y92.516 E35.55711
G1 X105.616 Y92.516 E35.58428
G1 X127.484 Y114.384 E37.21901
G1 X127.484 Y114.898 E37.24618
G1 X105.102 Y92.516 E38.91933
G1 X104.588 Y92.516 E38.9465
G1 X127.484 Y115.412 E40.65808
G1 X127.484 Y115.925 E40.6852
G1 X104.075 Y92.516 E42.43513
G1 X103.561 Y92.516 E42.4623
G1 X127.484 Y116.439 E44.25065
G1 X127.484 Y116.953 E44.27782
G1 X103.047 Y92.516 E46.10459
G1 X102.534 Y92.516 E46.13171
G1 X127.484 Y117.467 E47.99687
G1 X127.484 Y117.98 E48.02399
G1 X102.02 Y92.516 E49.92754
G1 X101.506 Y92.516 E49.95471
G1 X127.484 Y118.494 E51.89668
G1 X127.484 Y119.008 E51.92385
G1 X100.992 Y92.516 E53.90424
G1 X100.479 Y92.516 E53.93136
G1 X127.484 Y119.522 E55.95014
G1 X127.484 Y120.035 E55.97726
G1 X99.965 Y92.516 E58.03443
G1 X99.451 Y92.516 E58.0616
G1 X127.484 Y120.549 E60.15719
G1 X127.484 Y121.063 E60.18436
G1 X98.937 Y92.516 E62.31838
G1 X98.424 Y92.516 E62.3455
G1 X127.484 Y121.576 E64.51786
G1 X127.484 Y122.09 E64.54503
G1 X97.91 Y92.516 E66.75582
G1 X97.396 Y92.516 E66.78299
G1 X127.484 Y122.604 E69.0322
G1 X127.484 Y123.118 E69.05937
G1 X96.882 Y92.516 E71.34701
G1 X96.369 Y92.516 E71.37413
G1 X127.484 Y123.631 E73.70011
G1 X127.484 Y124.145 E73.72728
G1 X95.855 Y92.516 E76.09169
G1 X95.341 Y92.516 E76.11886
G1 X127.484 Y124.659 E78.52169
G1 X127.484 Y125.173 E78.54886
G1 X94.827 Y92.516 E80.99012
G1 X94.314 Y92.516 E81.01724
G1 X127.484 Y125.686 E83.49684
G1 X127.484 Y126.2 E83.52401
G1 X93.8 Y92.516 E86.04204
G1 X93.286 Y92.516 E86.06921
G1 X127.484 Y126.714 E88.62566
G1 X127.484 Y126.955 E88.6384
G1 X127.439 Y127.182 E88.65063
G1 X92.819 Y92.562 E91.23863
G1 X92.664 Y92.664 E91.24844
G1 X92.561 Y92.818 E91.25823
G1 X127.179 Y127.435 E93.84604
G1 X126.95 Y127.484 E93.85842
G1 X126.714 Y127.484 E93.87089
G1 X92.516 Y93.286 E96.42734
G1 X92.516 Y93.8 E96.45451
G1 X126.2 Y127.484 E98.97254
G1 X125.687 Y127.484 E98.99966
G1 X92.516 Y94.313 E101.47934
G1 X92.516 Y94.827 E101.50651
G1 X125.173 Y127.484 E103.94777
G1 X124.659 Y127.484 E103.97494
G1 X92.516 Y95.341 E106.37777
G1 X92.516 Y95.855 E106.40494
G1 X124.145 Y127.484 E108.76935
G1 X123.632 Y127.484 E108.79647
G1 X92.516 Y96.368 E111.12253
G1 X92.516 Y96.882 E111.1497
G1 X123.118 Y127.484 E113.43734
G1 X122.604 Y127.484 E113.46451
G1 X92.516 Y97.396 E115.71372
G1 X92.516 Y97.91 E115.74089
G1 X122.09 Y127.484 E117.95168
G1 X121.577 Y127.484 E117.9788
G1 X92.516 Y98.423 E120.15124
G1 X92.516 Y98.937 E120.17841
G1 X121.063 Y127.484 E122.31243
G1 X120.549 Y127.484 E122.3396
G1 X92.516 Y99.451 E124.43519
G1 X92.516 Y99.965 E124.46236
G1 X120.035 Y127.484 E126.51953
G1 X119.522 Y127.484 E126.54665
G1 X92.516 Y100.478 E128.56547
G1 X92.516 Y100.992 E128.59264
G1 X119.008 Y127.484 E130.57303
G1 X118.494 Y127.484 E130.6002
G1 X92.516 Y101.506 E132.54217
G1 X92.516 Y102.019 E132.56929
G1 X117.981 Y127.484 E134.47291
G1 X117.467 Y127.484 E134.50008
G1 X92.516 Y102.533 E136.36528
G1 X92.516 Y103.047 E136.39245
G1 X116.953 Y127.484 E138.21922
G1 X116.439 Y127.484 E138.24639
G1 X92.516 Y103.561 E140.03474
G1 X92.516 Y104.074 E140.06186
G1 X115.926 Y127.484 E141.81186
G1 X115.412 Y127.484 E141.83903
G1 X92.516 Y104.588 E143.55061
G1 X92.516 Y105.102 E143.57778
G1 X114.898 Y127.484 E145.25093
G1 X114.384 Y127.484 E145.2781
G1 X92.516 Y105.616 E146.91283
G1 X92.516 Y106.129 E146.93995
G1 X113.871 Y127.484 E148.53633
G1 X113.357 Y127.484 E148.5635
G1 X92.516 Y106.643 E150.12146
G1 X92.516 Y107.157 E150.14863
G1 X112.843 Y127.484 E151.66816
G1 X112.33 Y127.484 E151.69528
G1 X92.516 Y107.67 E153.17646
G1 X92.516 Y108.184 E153.20363
G1 X111.816 Y127.484 E154.64639
G1 X111.302 Y127.484 E154.67356
G1 X92.516 Y108.698 E156.0779
G1 X92.516 Y109.212 E156.10507
G1 X110.788 Y127.484 E157.47098
G1 X110.275 Y127.484 E157.4981
G1 X92.516 Y109.725 E158.82566
G1 X92.516 Y110.239 E158.85283
G1 X109.761 Y127.484 E160.14197
G1 X109.247 Y127.484 E160.16914
G1 X92.516 Y110.753 E161.41986
G1 X92.516 Y111.267 E161.44703
G1 X108.733 Y127.484 E162.65932
G1 X108.22 Y127.484 E162.68644
G1 X92.516 Y111.78 E163.86038
G1 X92.516 Y112.294 E163.88755
G1 X107.706 Y127.484 E165.02307
G1 X107.192 Y127.484 E165.05024
G1 X92.516 Y112.808 E166.14734
G1 X92.516 Y113.322 E166.17451
G1 X106.679 Y127.484 E167.23322
G1 X106.165 Y127.484 E167.26039
G1 X92.516 Y113.835 E168.28071
G1 X92.516 Y114.349 E168.30788
G1 X105.651 Y127.484 E169.28978
G1 X105.137 Y127.484 E169.31695
G1 X92.516 Y114.863 E170.26043
G1 X92.516 Y115.376 E170.28755
G1 X104.624 Y127.484 E171.19268
G1 X104.11 Y127.484 E171.21985
G1 X92.516 Y115.89 E172.08655
G1 X92.516 Y116.404 E172.11372
G1 X103.596 Y127.484 E172.942
G1 X103.082 Y127.484 E172.96917
G1 X92.516 Y116.918 E173.75903
G1 X92.516 Y117.431 E173.78615
G1 X102.569 Y127.484 E174.53766
G1 X102.055 Y127.484 E174.56483
G1 X92.516 Y117.945 E175.27791
G1 X92.516 Y118.459 E175.30508
G1 X101.541 Y127.484 E175.97974
G1 X101.027 Y127.484 E176.00691
G1 X92.516 Y118.973 E176.64315
G1 X92.516 Y119.486 E176.67027
G1 X100.514 Y127.484 E177.26816
G1 X100 Y127.484 E177.29533
G1 X92.516 Y120 E177.85479
G1 X92.516 Y120.514 E177.88196
G1 X99.486 Y127.484 E178.403
G1 X98.973 Y127.484 E178.43012
G1 X92.516 Y121.027 E178.91281
G1 X92.516 Y121.541 E178.93998
G1 X98.459 Y127.484 E179.38425
G1 X97.945 Y127.484 E179.41142
G1 X92.516 Y122.055 E179.81726
G1 X92.516 Y122.569 E179.84443
G1 X97.431 Y127.484 E180.21185
G1 X96.918 Y127.484 E180.23897
G1 X92.516 Y123.082 E180.56804
G1 X92.516 Y123.596 E180.59521
G1 X96.404 Y127.484 E180.88586
G1 X95.89 Y127.484 E180.91303
G1 X92.516 Y124.11 E181.16525
G1 X92.516 Y124.624 E181.19242
G1 X95.376 Y127.484 E181.40622
G1 X94.863 Y127.484 E181.43334
G1 X92.516 Y125.137 E181.60879
G1 X92.516 Y125.651 E181.63596
G1 X94.349 Y127.484 E181.77298
G1 X93.835 Y127.484 E181.80015
G1 X92.516 Y126.165 E181.89875
G1 X92.516 Y126.678 E181.92587
G1 X93.485 Y127.648 E181.99834
M106 S255
;LAYER_CHANGE
;Z:0.7
;HEIGHT:0.35
;BEFORE_LAYER_CHANGE
;0.7


G1 Z.7 F18000
;AFTER_LAYER_CHANGE
;0.7
G1 X93.485 Y127.925
;TYPE:External perimeter
;WIDTH:0.8
G1 F1125.005
G1 X93.143 Y127.925 E182.03441
G1 X92.649 Y127.848 E182.08715
G1 F1157.669
G1 X92.351 Y127.649 E182.12495
G1 X92.152 Y127.351 E182.16275
G1 F1125
G1 X92.075 Y126.963 E182.20447
G1 X92.075 Y125.813 E182.32577
G1 X92.075 Y94.292 E185.65063
G1 X92.075 Y93.142 E185.77193
G1 X92.152 Y92.649 E185.82456
G1 F1157.693
G1 X92.351 Y92.351 E185.86236
G1 X92.649 Y92.152 E185.90016
G1 F1125
G1 X93.037 Y92.075 E185.94188
G1 X94.187 Y92.075 E186.06318
G1 X125.722 Y92.075 E189.38952
G1 F1126.069
G1 X126.871 Y92.075 E189.51072
G1 X127.342 Y92.148 E189.56099
G1 F1155.163
G1 X127.635 Y92.337 E189.59777
G1 X127.836 Y92.622 E189.63456
G1 F1130.364
G1 X127.924 Y93.11 E189.68686
G1 X127.924 Y94.258 E189.80795
G1 F1125.209
G1 X127.925 Y125.712 E193.12574
G1 X127.925 Y126.862 E193.24704
G1 X127.852 Y127.342 E193.29825
G1 F1156.099
G1 X127.664 Y127.634 E193.33488
G1 F1141.253
G1 X127.356 Y127.849 E193.3745
G1 F1125.009
G1 X126.979 Y127.925 E193.41507
G1 X125.829 Y127.925 E193.53637
G1 X94.695 Y127.925 E196.82041
G1 X93.545 Y127.925 E196.94171
;WIPE_START
G1 F14400
G1 X93.143 Y127.925 E196.8701
G1 X92.649 Y127.848 E196.78104
G1 X92.351 Y127.649 E196.71721
G1 X92.152 Y127.351 E196.65338
G1 X92.075 Y126.963 E196.58292
G1 X92.075 Y126.17 E196.44171
;WIPE_END
G92 E0
G1 Z.9 F18000
G1 X127.707 Y125.783
G1 Z.7
G1 E.5 F2700
;TYPE:Top solid infill
;WIDTH:0.803776
G1 F3952.434
G1 X126.11 Y127.381 E.73954
G1 X125.079 Y127.381 E.84886
G1 X127.381 Y125.079 E1.19404
G1 X127.381 Y124.049 E1.30325
G1 X124.049 Y127.381 E1.80288
G1 X123.018 Y127.381 E1.9122
G1 X127.381 Y123.018 E2.56643
G1 X127.381 Y121.988 E2.67564
G1 X121.988 Y127.381 E3.48432
G1 X120.957 Y127.381 E3.59364
G1 X127.381 Y120.957 E4.55692
G1 X127.381 Y119.927 E4.66613
G1 X119.927 Y127.381 E5.78385
G1 X118.896 Y127.381 E5.89317
G1 X127.381 Y118.896 E7.16549
G1 X127.381 Y117.866 E7.2747
G1 X117.866 Y127.381 E8.70147
G1 X116.835 Y127.381 E8.81079
G1 X127.381 Y116.836 E10.39208
G1 X127.381 Y115.805 E10.5014
G1 X115.805 Y127.381 E12.23722
G1 X114.774 Y127.381 E12.34654
G1 X127.381 Y114.775 E14.23688
G1 X127.381 Y113.744 E14.3462
G1 X113.744 Y127.381 E16.39106
G1 X112.713 Y127.381 E16.50038
G1 X127.381 Y112.714 E18.69976
G1 X127.381 Y111.683 E18.80908
G1 X111.683 Y127.381 E21.16299
G1 X110.652 Y127.381 E21.27231
G1 X127.381 Y110.653 E23.78074
G1 X127.381 Y109.622 E23.89006
G1 X109.622 Y127.381 E26.55301
G1 X108.591 Y127.381 E26.66233
G1 X127.381 Y108.592 E29.47981
G1 X127.381 Y107.561 E29.58913
G1 X107.561 Y127.381 E32.56113
G1 X106.53 Y127.381 E32.67045
G1 X127.381 Y106.531 E35.79697
G1 X127.381 Y105.501 E35.90618
G1 X105.5 Y127.381 E39.18715
G1 X104.469 Y127.381 E39.29647
G1 X127.381 Y104.47 E42.73204
G1 X127.381 Y103.44 E42.84125
G1 X103.439 Y127.381 E46.43127
G1 X102.408 Y127.381 E46.54059
G1 X127.38 Y102.409 E50.28513
G1 X127.38 Y101.379 E50.39434
G1 X101.378 Y127.381 E54.29333
G1 X100.347 Y127.381 E54.40265
G1 X127.38 Y100.348 E58.45623
G1 X127.38 Y99.318 E58.56544
G1 X99.317 Y127.381 E62.77347
G1 X98.286 Y127.381 E62.88279
G1 X127.38 Y98.287 E67.24542
G1 X127.38 Y97.257 E67.35463
G1 X97.256 Y127.381 E71.87171
G1 X96.225 Y127.381 E71.98103
G1 X127.38 Y96.227 E76.65263
G1 X127.38 Y95.196 E76.76195
G1 X95.195 Y127.381 E81.58807
G1 X94.164 Y127.381 E81.69739
G1 X127.38 Y94.166 E86.67804
G1 X127.38 Y93.135 E86.78736
G1 X93.134 Y127.381 E91.92253
G1 X92.861 Y127.336 E91.95187
G1 X92.743 Y127.257 E91.96693
G1 X92.664 Y127.139 E91.98199
G1 X92.619 Y126.866 E92.01133
