; generated by PrusaSlicer 2.6.0-alpha5+win64 on 2023-03-10 at 14:39:55 UTC

; 

; external perimeters extrusion width = 0.40mm
; perimeters extrusion width = 0.40mm
; infill extrusion width = 0.40mm
; solid infill extrusion width = 0.40mm
; top infill extrusion width = 0.40mm
; first layer extrusion width = 0.44mm

M107
M190 S60 ; set bed temperature and wait for it to be reached
M104 S205 ; set temperature
;TYPE:Custom
SET_GCODE_VARIABLE MACRO=START_PRINT VARIABLE=bed_temp VALUE=60
SET_GCODE_VARIABLE MACRO=START_PRINT VARIABLE=extruder_temp VALUE=205
START_PRINT
M109 S205 ; set temperature and wait for it to be reached
G21 ; set units to millimeters
G90 ; use absolute coordinates
M82 ; use absolute distances for extrusion
G92 E0
; Filament gcode
M107
;LAYER_CHANGE
;Z:0.25
;HEIGHT:0.25
;BEFORE_LAYER_CHANGE
;0.25


G1 Z.25 F18000
;AFTER_LAYER_CHANGE
;0.25
G1 E-.5 F2700
G92 E0
G1 Z.45 F18000
G1 X90.301 Y100.586
G1 Z.25
G1 E.5 F2700
;TYPE:Skirt/Brim
;WIDTH:0.4375
G1 F1800
G1 X92.018 Y99.311 E.58532
G1 X94.537 Y98.732 E.68844
G1 X152.269 Y98.732 E2.99175
G1 X154.371 Y99.129 E3.0771
G1 X156.183 Y100.264 E3.1624
G1 X157.458 Y101.981 E3.24772
G1 X158.037 Y104.5 E3.35084
G1 X158.037 Y115.5 E3.7897
G1 X157.64 Y117.602 E3.87505
G1 X156.505 Y119.414 E3.96035
G1 X154.787 Y120.689 E4.04571
G1 X152.269 Y121.268 E4.14879
G1 X94.537 Y121.268 E6.4521
G1 X92.435 Y120.871 E6.53745
G1 X90.623 Y119.736 E6.62275
G1 X89.348 Y118.019 E6.70807
G1 X88.769 Y115.5 E6.81119
G1 X88.769 Y104.5 E7.25005
G1 X89.166 Y102.398 E7.3354
G1 X90.269 Y100.637 E7.4183
G1 X90.606 Y100.857 F18000
G1 F1800
G1 X90.68 Y100.744 E7.42369
G1 X92.378 Y99.568 E7.5061
G1 X94.537 Y99.116 E7.5941
G1 X152.269 Y99.116 E9.89741
G1 X154.296 Y99.512 E9.97981
G1 X156.025 Y100.643 E10.06224
G1 X157.201 Y102.341 E10.14465
G1 X157.653 Y104.5 E10.23265
G1 X157.653 Y115.5 E10.67151
G1 X157.256 Y117.527 E10.75392
G1 X156.126 Y119.256 E10.83633
G1 X154.428 Y120.432 E10.91874
G1 X152.269 Y120.884 E11.00674
G1 X94.537 Y120.884 E13.31005
G1 X92.51 Y120.488 E13.39245
G1 X90.781 Y119.357 E13.47488
G1 X89.605 Y117.659 E13.55729
G1 X89.153 Y115.5 E13.64529
G1 X89.153 Y104.5 E14.08415
G1 X89.549 Y102.473 E14.16655
G1 X90.573 Y100.907 E14.2412
;WIPE_START
G1 F14400
G1 X90.68 Y100.744 E14.20647
G1 X92.378 Y99.568 E13.83856
G1 X92.913 Y99.456 E13.7412
;WIPE_END
G92 E0
G1 Z.45 F18000
G1 X151.282 Y114.514
G1 Z.25
G1 E.5 F2700
;TYPE:Perimeter
;WIDTH:0.437499
G1 F1800
G1 X95.523 Y114.514 E2.72459
G1 X95.523 Y105.486 E3.08478
G1 X151.282 Y105.486 E5.30937
G1 X151.282 Y114.454 E5.66716
G1 X151.666 Y114.897 F18000
G1 F1800
G1 X95.14 Y114.897 E7.92235
G1 X95.14 Y105.103 E8.3131
G1 X151.666 Y105.103 E10.56829
G1 X151.666 Y114.837 E10.95664
G1 X152.05 Y115.281 F18000
;TYPE:External perimeter
G1 F1800
G1 X94.756 Y115.281 E13.24247
G1 X94.756 Y104.719 E13.66386
G1 X152.05 Y104.719 E15.94969
G1 X152.05 Y115.221 E16.36868
G1 X151.651 Y115.257 F18000
;WIPE_START
G1 F14400
G1 X149.243 Y115.224 E15.86868
;WIPE_END
G92 E0
G1 Z.45 F18000
G1 X151.225 Y106.32
G1 Z.25
G1 E.5 F2700
;TYPE:Solid infill
;WIDTH:0.437701
G1 F1800
G1 X150.621 Y105.717 E.53407
G1 X150.078 Y105.717 E.55575
G1 X151.052 Y106.691 E.61073
G1 X151.052 Y107.234 E.63241
G1 X149.535 Y105.717 E.71805
G1 X148.992 Y105.717 E.73973
G1 X151.052 Y107.777 E.85602
G1 X151.052 Y108.32 E.8777
G1 X148.449 Y105.717 E1.02464
G1 X147.906 Y105.717 E1.04632
G1 X151.052 Y108.863 E1.22392
G1 X151.052 Y109.406 E1.2456
G1 X147.362 Y105.717 E1.45388
G1 X146.819 Y105.717 E1.47556
G1 X151.052 Y109.95 E1.71452
G1 X151.052 Y110.493 E1.7362
G1 X146.276 Y105.717 E2.00581
G1 X145.733 Y105.717 E2.02749
G1 X151.052 Y111.036 E2.32776
G1 X151.052 Y111.579 E2.34944
G1 X145.19 Y105.717 E2.68036
G1 X144.647 Y105.717 E2.70204
G1 X151.052 Y112.122 E3.06361
G1 X151.052 Y112.665 E3.08529
G1 X144.104 Y105.717 E3.47752
G1 X143.561 Y105.717 E3.4992
G1 X151.052 Y113.208 E3.92208
G1 X151.052 Y113.751 E3.94376
G1 X143.017 Y105.717 E4.39732
G1 X142.474 Y105.717 E4.419
G1 X151.041 Y114.283 E4.90259
G1 X150.498 Y114.283 E4.92427
G1 X141.931 Y105.717 E5.40786
G1 X141.388 Y105.717 E5.42954
G1 X149.955 Y114.283 E5.91313
G1 X149.411 Y114.283 E5.93485
G1 X140.845 Y105.717 E6.41842
G1 X140.302 Y105.717 E6.4401
G1 X148.868 Y114.283 E6.92367
G1 X148.325 Y114.283 E6.94535
G1 X139.759 Y105.717 E7.42892
G1 X139.216 Y105.717 E7.4506
G1 X147.782 Y114.283 E7.93417
G1 X147.239 Y114.283 E7.95585
G1 X138.672 Y105.717 E8.43944
G1 X138.129 Y105.717 E8.46112
G1 X146.696 Y114.283 E8.94471
G1 X146.153 Y114.283 E8.96639
G1 X137.586 Y105.717 E9.44998
G1 X137.043 Y105.717 E9.47166
G1 X145.609 Y114.283 E9.95523
G1 X145.066 Y114.283 E9.97691
G1 X136.5 Y105.717 E10.46048
G1 X135.957 Y105.717 E10.48216
G1 X144.523 Y114.283 E10.96573
G1 X143.98 Y114.283 E10.98741
G1 X135.414 Y105.717 E11.47098
G1 X134.87 Y105.717 E11.4927
G1 X143.437 Y114.283 E11.97629
G1 X142.894 Y114.283 E11.99797
G1 X134.327 Y105.717 E12.48156
G1 X133.784 Y105.717 E12.50324
G1 X142.351 Y114.283 E12.98683
G1 X141.808 Y114.283 E13.00851
G1 X133.241 Y105.717 E13.4921
G1 X132.698 Y105.717 E13.51378
G1 X141.264 Y114.283 E13.99735
G1 X140.721 Y114.283 E14.01903
G1 X132.155 Y105.717 E14.5026
G1 X131.612 Y105.717 E14.52428
G1 X140.178 Y114.283 E15.00785
G1 X139.635 Y114.283 E15.02953
G1 X131.069 Y105.717 E15.5131
G1 X130.525 Y105.717 E15.53482
G1 X139.092 Y114.283 E16.01841
G1 X138.549 Y114.283 E16.04009
G1 X129.982 Y105.717 E16.52368
G1 X129.439 Y105.717 E16.54536
G1 X138.006 Y114.283 E17.02895
G1 X137.463 Y114.283 E17.05063
G1 X128.896 Y105.717 E17.53422
G1 X128.353 Y105.717 E17.5559
G1 X136.919 Y114.283 E18.03947
G1 X136.376 Y114.283 E18.06115
G1 X127.81 Y105.717 E18.54472
G1 X127.267 Y105.717 E18.5664
G1 X135.833 Y114.283 E19.04997
G1 X135.29 Y114.283 E19.07165
G1 X126.724 Y105.717 E19.55522
G1 X126.18 Y105.717 E19.57694
G1 X134.747 Y114.283 E20.06053
G1 X134.204 Y114.283 E20.08221
G1 X125.637 Y105.717 E20.5658
G1 X125.094 Y105.717 E20.58748
G1 X133.661 Y114.283 E21.07107
G1 X133.117 Y114.283 E21.09279
G1 X124.551 Y105.717 E21.57636
G1 X124.008 Y105.717 E21.59804
G1 X132.574 Y114.283 E22.08161
G1 X132.031 Y114.283 E22.10329
G1 X123.465 Y105.717 E22.58686
G1 X122.922 Y105.717 E22.60854
G1 X131.488 Y114.283 E23.09211
G1 X130.945 Y114.283 E23.11379
G1 X122.378 Y105.717 E23.59738
G1 X121.835 Y105.717 E23.61906
G1 X130.402 Y114.283 E24.10265
G1 X129.859 Y114.283 E24.12433
G1 X121.292 Y105.717 E24.60792
G1 X120.749 Y105.717 E24.6296
G1 X129.316 Y114.283 E25.11319
G1 X128.772 Y114.283 E25.13491
G1 X120.206 Y105.717 E25.61848
G1 X119.663 Y105.717 E25.64016
G1 X128.229 Y114.283 E26.12373
G1 X127.686 Y114.283 E26.14541
G1 X119.12 Y105.717 E26.62898
G1 X118.577 Y105.717 E26.65066
G1 X127.143 Y114.283 E27.13423
G1 X126.6 Y114.283 E27.15591
G1 X118.033 Y105.717 E27.6395
G1 X117.49 Y105.717 E27.66118
G1 X126.057 Y114.283 E28.14477
G1 X125.514 Y114.283 E28.16645
G1 X116.947 Y105.717 E28.65004
G1 X116.404 Y105.717 E28.67172
G1 X124.971 Y114.283 E29.15531
G1 X124.427 Y114.283 E29.17703
G1 X115.861 Y105.717 E29.6606
G1 X115.318 Y105.717 E29.68228
G1 X123.884 Y114.283 E30.16585
G1 X123.341 Y114.283 E30.18753
G1 X114.775 Y105.717 E30.6711
G1 X114.232 Y105.717 E30.69278
G1 X122.798 Y114.283 E31.17635
G1 X122.255 Y114.283 E31.19803
G1 X113.688 Y105.717 E31.68162
G1 X113.145 Y105.717 E31.7033
G1 X121.712 Y114.283 E32.18689
G1 X121.169 Y114.283 E32.20857
G1 X112.602 Y105.717 E32.69216
G1 X112.059 Y105.717 E32.71384
G1 X120.625 Y114.283 E33.19741
G1 X120.082 Y114.283 E33.21909
G1 X111.516 Y105.717 E33.70266
G1 X110.973 Y105.717 E33.72434
G1 X119.539 Y114.283 E34.20791
G1 X118.996 Y114.283 E34.22959
G1 X110.43 Y105.717 E34.71316
G1 X109.886 Y105.717 E34.73488
G1 X118.453 Y114.283 E35.21847
G1 X117.91 Y114.283 E35.24015
G1 X109.343 Y105.717 E35.72374
G1 X108.8 Y105.717 E35.74542
G1 X117.367 Y114.283 E36.22901
G1 X116.824 Y114.283 E36.25069
G1 X108.257 Y105.717 E36.73428
G1 X107.714 Y105.717 E36.75596
G1 X116.28 Y114.283 E37.23953
G1 X115.737 Y114.283 E37.26121
G1 X107.171 Y105.717 E37.74478
G1 X106.628 Y105.717 E37.76646
G1 X115.194 Y114.283 E38.25003
G1 X114.651 Y114.283 E38.27171
G1 X106.085 Y105.717 E38.75528
G1 X105.541 Y105.717 E38.777
G1 X114.108 Y114.283 E39.26059
G1 X113.565 Y114.283 E39.28227
G1 X104.998 Y105.717 E39.76586
G1 X104.455 Y105.717 E39.78754
G1 X113.022 Y114.283 E40.27113
G1 X112.479 Y114.283 E40.29281
G1 X103.912 Y105.717 E40.7764
G1 X103.369 Y105.717 E40.79808
G1 X111.935 Y114.283 E41.28165
G1 X111.392 Y114.283 E41.30333
G1 X102.826 Y105.717 E41.7869
G1 X102.283 Y105.717 E41.80858
G1 X110.849 Y114.283 E42.29215
G1 X110.306 Y114.283 E42.31383
G1 X101.74 Y105.717 E42.7974
G1 X101.196 Y105.717 E42.81912
G1 X109.763 Y114.283 E43.30271
G1 X109.22 Y114.283 E43.32439
G1 X100.653 Y105.717 E43.80798
G1 X100.11 Y105.717 E43.82966
G1 X108.677 Y114.283 E44.31325
G1 X108.133 Y114.283 E44.33497
G1 X99.567 Y105.717 E44.81854
G1 X99.024 Y105.717 E44.84022
G1 X107.59 Y114.283 E45.32379
G1 X107.047 Y114.283 E45.34547
G1 X98.481 Y105.717 E45.82904
G1 X97.938 Y105.717 E45.85072
G1 X106.504 Y114.283 E46.33429
G1 X105.961 Y114.283 E46.35597
G1 X97.394 Y105.717 E46.83956
G1 X96.851 Y105.717 E46.86124
G1 X105.418 Y114.283 E47.34483
G1 X104.875 Y114.283 E47.36651
G1 X96.308 Y105.717 E47.8501
G1 X95.765 Y105.717 E47.87178
G1 X104.332 Y114.283 E48.35537
G1 X103.788 Y114.283 E48.37709
G1 X95.754 Y106.248 E48.83065
G1 X95.754 Y106.792 E48.85237
G1 X103.245 Y114.283 E49.27525
G1 X102.702 Y114.283 E49.29693
G1 X95.754 Y107.335 E49.68916
G1 X95.754 Y107.878 E49.71084
G1 X102.159 Y114.283 E50.07241
G1 X101.616 Y114.283 E50.09409
G1 X95.754 Y108.421 E50.42501
G1 X95.754 Y108.964 E50.44669
G1 X101.073 Y114.283 E50.74696
G1 X100.53 Y114.283 E50.76864
G1 X95.754 Y109.507 E51.03825
G1 X95.754 Y110.05 E51.05993
G1 X99.987 Y114.283 E51.29889
G1 X99.443 Y114.283 E51.32061
G1 X95.754 Y110.594 E51.52886
G1 X95.754 Y111.137 E51.55054
G1 X98.9 Y114.283 E51.72814
G1 X98.357 Y114.283 E51.74982
G1 X95.754 Y111.68 E51.89676
G1 X95.754 Y112.223 E51.91844
G1 X97.814 Y114.283 E52.03473
G1 X97.271 Y114.283 E52.05641
G1 X95.754 Y112.766 E52.14205
G1 X95.754 Y113.309 E52.16373
G1 X96.728 Y114.283 E52.21871
G1 X96.185 Y114.283 E52.24039
G1 X95.581 Y113.68 E52.27446
;LAYER_CHANGE
;Z:0.5
;HEIGHT:0.25
;BEFORE_LAYER_CHANGE
;0.5


G1 Z.5 F18000
;AFTER_LAYER_CHANGE
;0.5
G1 E51.77446 F2700
G92 E0
G1 Z.7 F18000
G1 X151.644 Y114.607
G1 Z.5
G1 E.5 F2700
;TYPE:Perimeter
;WIDTH:0.399999
G1 F9000
G1 X95.43 Y114.607 E2.52364
G1 X95.43 Y105.393 E2.85533
G1 X151.644 Y105.393 E4.87897
G1 X151.644 Y114.547 E5.2085
G1 X151.99 Y114.954 F18000
G1 F9000
G1 X95.083 Y114.954 E7.25708
G1 X95.083 Y105.046 E7.61376
G1 X151.99 Y105.046 E9.66234
G1 X151.99 Y114.894 E10.01686
G1 X152.337 Y115.3 F18000
;TYPE:External perimeter
G1 F996.681
M106 S89.25
G1 X152.269 Y115.3 E10.01931
G1 F1200
G1 X151.669 Y115.3 E10.04091
G1 F7499.896
G1 X95.137 Y115.3 E12.07599
G1 X94.737 Y115.3 E12.09039
G1 X94.737 Y114.9 E12.10479
G1 X94.737 Y105.1 E12.45758
G1 X94.737 Y104.7 E12.47198
G1 X95.137 Y104.7 E12.48638
G1 X151.669 Y104.7 E14.52146
G1 F1200
G1 X152.269 Y104.7 E14.54306
G1 F996.681
G1 X152.337 Y104.7 E14.54551
G1 X152.337 Y105.368 E14.56956
G1 X152.337 Y114.572 E14.90089
G1 X152.337 Y115.24 E14.92494
M107
G1 X151.937 Y115.276 F18000
G1 X151.592 Y113.854
;TYPE:Solid infill
;WIDTH:0.400772
G1 F11615.512
G1 X151.046 Y114.399 E14.95277
G1 X150.555 Y114.399 E14.97048
G1 X151.436 Y113.519 E15.01541
G1 X151.436 Y113.028 E15.03312
G1 X150.064 Y114.399 E15.1031
G1 X149.573 Y114.399 E15.12081
G1 X151.436 Y112.537 E15.21584
G1 X151.436 Y112.046 E15.23355
G1 X149.082 Y114.399 E15.35363
G1 X148.592 Y114.399 E15.37131
G1 X151.436 Y111.555 E15.51642
G1 X151.436 Y111.064 E15.53413
G1 X148.101 Y114.399 E15.70429
G1 X147.61 Y114.399 E15.722
G1 X151.436 Y110.573 E15.91722
G1 X151.436 Y110.082 E15.93493
G1 X147.119 Y114.399 E16.1552
G1 X146.628 Y114.399 E16.17291
G1 X151.436 Y109.591 E16.41823
G1 X151.436 Y109.1 E16.43594
G1 X146.137 Y114.399 E16.70631
G1 X145.646 Y114.399 E16.72402
G1 X151.436 Y108.609 E17.01945
G1 X151.436 Y108.119 E17.03713
G1 X145.155 Y114.399 E17.35758
G1 X144.664 Y114.399 E17.37529
G1 X151.436 Y107.628 E17.7208
G1 X151.436 Y107.137 E17.73851
G1 X144.173 Y114.399 E18.10907
G1 X143.683 Y114.399 E18.12675
G1 X151.436 Y106.646 E18.52234
G1 X151.436 Y106.155 E18.54005
G1 X143.192 Y114.399 E18.96069
G1 X142.701 Y114.399 E18.9784
G1 X151.436 Y105.664 E19.42409
G1 X151.436 Y105.601 E19.42636
G1 X151.009 Y105.601 E19.44177
G1 X142.21 Y114.399 E19.8907
G1 X141.719 Y114.399 E19.90841
G1 X150.518 Y105.601 E20.35734
G1 X150.027 Y105.601 E20.37505
G1 X141.228 Y114.399 E20.82398
G1 X140.737 Y114.399 E20.84169
G1 X149.536 Y105.601 E21.29062
G1 X149.045 Y105.601 E21.30833
G1 X140.246 Y114.399 E21.75726
G1 X139.755 Y114.399 E21.77497
G1 X148.554 Y105.601 E22.2239
G1 X148.063 Y105.601 E22.24161
G1 X139.264 Y114.399 E22.69054
G1 X138.773 Y114.399 E22.70825
G1 X147.572 Y105.601 E23.15718
G1 X147.082 Y105.601 E23.17486
G1 X138.283 Y114.399 E23.62379
G1 X137.792 Y114.399 E23.6415
G1 X146.591 Y105.601 E24.09043
G1 X146.1 Y105.601 E24.10814
G1 X137.301 Y114.399 E24.55707
G1 X136.81 Y114.399 E24.57478
G1 X145.609 Y105.601 E25.02371
G1 X145.118 Y105.601 E25.04142
G1 X136.319 Y114.399 E25.49035
G1 X135.828 Y114.399 E25.50806
G1 X144.627 Y105.601 E25.95699
G1 X144.136 Y105.601 E25.9747
G1 X135.337 Y114.399 E26.42363
G1 X134.846 Y114.399 E26.44134
G1 X143.645 Y105.601 E26.89027
G1 X143.154 Y105.601 E26.90798
G1 X134.355 Y114.399 E27.35691
G1 X133.864 Y114.399 E27.37462
G1 X142.663 Y105.601 E27.82355
G1 X142.173 Y105.601 E27.84123
G1 X133.374 Y114.399 E28.29016
G1 X132.883 Y114.399 E28.30787
G1 X141.682 Y105.601 E28.7568
G1 X141.191 Y105.601 E28.77451
G1 X132.392 Y114.399 E29.22344
G1 X131.901 Y114.399 E29.24115
G1 X140.7 Y105.601 E29.69008
G1 X140.209 Y105.601 E29.70779
G1 X131.41 Y114.399 E30.15672
G1 X130.919 Y114.399 E30.17443
G1 X139.718 Y105.601 E30.62336
G1 X139.227 Y105.601 E30.64107
G1 X130.428 Y114.399 E31.09
G1 X129.937 Y114.399 E31.10771
G1 X138.736 Y105.601 E31.55664
G1 X138.245 Y105.601 E31.57435
G1 X129.446 Y114.399 E32.02328
G1 X128.955 Y114.399 E32.04099
G1 X137.754 Y105.601 E32.48992
G1 X137.263 Y105.601 E32.50763
G1 X128.464 Y114.399 E32.95656
G1 X127.974 Y114.399 E32.97424
G1 X136.773 Y105.601 E33.42317
G1 X136.282 Y105.601 E33.44088
G1 X127.483 Y114.399 E33.88981
G1 X126.992 Y114.399 E33.90752
G1 X135.791 Y105.601 E34.35645
G1 X135.3 Y105.601 E34.37416
G1 X126.501 Y114.399 E34.82309
G1 X126.01 Y114.399 E34.8408
G1 X134.809 Y105.601 E35.28973
G1 X134.318 Y105.601 E35.30744
G1 X125.519 Y114.399 E35.75637
G1 X125.028 Y114.399 E35.77408
G1 X133.827 Y105.601 E36.22301
G1 X133.336 Y105.601 E36.24072
G1 X124.537 Y114.399 E36.68965
G1 X124.046 Y114.399 E36.70736
G1 X132.845 Y105.601 E37.15629
G1 X132.354 Y105.601 E37.174
G1 X123.555 Y114.399 E37.62293
G1 X123.065 Y114.399 E37.64061
G1 X131.864 Y105.601 E38.08954
G1 X131.373 Y105.601 E38.10725
G1 X122.574 Y114.399 E38.55618
G1 X122.083 Y114.399 E38.57389
G1 X130.882 Y105.601 E39.02282
G1 X130.391 Y105.601 E39.04053
G1 X121.592 Y114.399 E39.48946
G1 X121.101 Y114.399 E39.50717
G1 X129.9 Y105.601 E39.9561
G1 X129.409 Y105.601 E39.97381
G1 X120.61 Y114.399 E40.42274
G1 X120.119 Y114.399 E40.44045
G1 X128.918 Y105.601 E40.88938
G1 X128.427 Y105.601 E40.90709
G1 X119.628 Y114.399 E41.35602
G1 X119.137 Y114.399 E41.37373
G1 X127.936 Y105.601 E41.82266
G1 X127.445 Y105.601 E41.84037
G1 X118.646 Y114.399 E42.2893
G1 X118.155 Y114.399 E42.30701
G1 X126.954 Y105.601 E42.75594
G1 X126.464 Y105.601 E42.77362
G1 X117.665 Y114.399 E43.22255
G1 X117.174 Y114.399 E43.24026
G1 X125.973 Y105.601 E43.68919
G1 X125.482 Y105.601 E43.7069
G1 X116.683 Y114.399 E44.15583
G1 X116.192 Y114.399 E44.17354
G1 X124.991 Y105.601 E44.62247
G1 X124.5 Y105.601 E44.64018
G1 X115.701 Y114.399 E45.08911
G1 X115.21 Y114.399 E45.10682
G1 X124.009 Y105.601 E45.55575
G1 X123.518 Y105.601 E45.57346
G1 X114.719 Y114.399 E46.02239
G1 X114.228 Y114.399 E46.0401
G1 X123.027 Y105.601 E46.48903
G1 X122.536 Y105.601 E46.50674
