
; ### Ellis' Pressure Advance / Linear Advance Calibration Tool ###
;
; Original Marlin linear advance calibration tool by Sineos [https://github.com/Sineos]
; Heavily modified/rewritten by Andrew Ellis [https://github.com/AndrewEllis93]
;
; -------------------------------------------
; Generated: Wed Mar 08 2023 01:22:39 GMT+0800 (Taipei Standard Time)
; -------------------------------------------
;
; Advanced Mode: false
;
; Printer:
;  - Firmware: klipper
;  - Bed Shape: Rect
;  - Bed Size X: 220 mm
;  - Bed Size Y: 220 mm
;  - Origin Bed Center: false
;  - Travel Speed: 500 mm/s
;  - Nozzle Diameter: 0.4 mm
;  - Filament Diameter: 1.75 mm
;  - Extrusion Multiplier: 1
;
; Retraction / Z Hop:
;  - Retraction Distance: 0.8 mm
;  - Retract Speed: 45 mm/s
;  - Unretract Speed: 45 mm/s
;  - Z Hop Enable: true
;  - Z Hop Height: 0.2mm
;
; First Layer Settings:
;  - First Layer Height: 0.25 mm
;  - First Layer Printing Speed: 30 mm/s
;  - First Layer Fan Speed: 0%
;  - Anchor Option: no_anchor
;
; Print Settings:
;  - Layer Height: 0.25 mm
;  - Print Speed: 150 mm/s
;  - Acceleration: 5000 mm/s^2
;  - Fan Speed: 100%
;
; Pressure Advance Stepping:
;  - PA Start Value: 0.02
;  - PA End Value: 0.03
;  - PA Increment: 0.0005
;
; Start / End G-code:
;  - Hotend Temp: 205C
;  - Bed Temp: 60C
;  - Don't Add G28: false
;  - Don't Add Heating G-Codes: false
;
; Calculated Values:
;  - Print Size X: 96.47 mm
;  - Print Size Y: 56.99 mm
;  - Number of Patterns to Print: 21
;  - PA Values: 0.02, 0.0205, 0.021, 0.0215, 0.022, 0.0225, 0.023, 0.0235, 0.024, 0.0245, 0.025, 0.0255, 0.026, 0.0265, 0.027, 0.0275, 0.028, 0.0285, 0.029, 0.0295, 0.03
;
; Prepare printing
;
G28 ; Home all axes
M190 S60 ; Set & wait for bed temp
M109 S205 ; Set & wait for hotend temp
; PRINT_START ; Start macro
START_PRINT ; Start macro (alternate / official start macro name)
G21 ; Millimeter units
G90 ; Absolute XYZ
M83 ; Relative E
G92 E0 ; Reset extruder distance
;
;  Begin printing
;
M106 S0 ; Set fan speed
SET_VELOCITY_LIMIT ACCEL=5000 ; Set printing acceleration
G1 E-0.8 F2700 ; Retract
G0 Z5 F30000 ; Z raise
G0 X61.7627 Y81.5068 F30000 ; Move to start position
G0 Z0.25 F30000 ; Move to start layer height
G1 E0.8 F2700 ; Un-retract
SET_PRESSURE_ADVANCE ADVANCE=0.02 ; Set pressure advance to start value
M117 PA 0.02
G0 Z0.25 F30000 ; Move to layer height
SET_PRESSURE_ADVANCE ADVANCE=0.02 ; Set pressure advance to start value for numbering
M117 PA 0.02
G1 E-0.8 F2700 ; Retract
G1 Z0.45 F30000 ; Z hop
G0 X63.0427 Y125.3832 F30000 ; Move
G1 Z0.25 F30000 ; Z hop return
G1 E0.8 F2700 ; Un-retract
G1 X65.0427 Y125.3832 E0.08239 F1800 ; Glyph: 0
G1 X67.0427 Y125.3832 E0.08239 F1800 ; Glyph: 0
G1 X67.0427 Y127.3832 E0.08239 F1800 ; Glyph: 0
G1 X65.0427 Y127.3832 E0.08239 F1800 ; Glyph: 0
G1 X63.0427 Y127.3832 E0.08239 F1800 ; Glyph: 0
G1 X63.0427 Y125.3832 E0.08239 F1800 ; Glyph: 0
G1 E-0.8 F2700 ; Retract
G1 Z0.45 F30000 ; Z hop
G0 X67.0427 Y128.3832 F30000 ; Move
G1 Z0.25 F30000 ; Z hop return
G1 E0.8 F2700 ; Un-retract
G1 X66.2927 Y128.3832 E0.0309 F1800 ; Glyph: .
G1 E-0.8 F2700 ; Retract
G1 Z0.45 F30000 ; Z hop
G0 X63.0427 Y129.3832 F30000 ; Move
G1 Z0.25 F30000 ; Z hop return
G1 E0.8 F2700 ; Un-retract
G1 X65.0427 Y129.3832 E0.08239 F1800 ; Glyph: 0
G1 X67.0427 Y129.3832 E0.08239 F1800 ; Glyph: 0
G1 X67.0427 Y131.3832 E0.08239 F1800 ; Glyph: 0
G1 X65.0427 Y131.3832 E0.08239 F1800 ; Glyph: 0
G1 X63.0427 Y131.3832 E0.08239 F1800 ; Glyph: 0
G1 X63.0427 Y129.3832 E0.08239 F1800 ; Glyph: 0
G1 E-0.8 F2700 ; Retract
G1 Z0.45 F30000 ; Z hop
G0 X63.0427 Y132.3832 F30000 ; Move
G1 Z0.25 F30000 ; Z hop return
G1 E0.8 F2700 ; Un-retract
G1 X63.0427 Y134.3832 E0.08239 F1800 ; Glyph: 2
G1 X65.0427 Y134.3832 E0.08239 F1800 ; Glyph: 2
G1 X65.0427 Y132.3832 E0.08239 F1800 ; Glyph: 2
G1 X67.0427 Y132.3832 E0.08239 F1800 ; Glyph: 2
G1 X67.0427 Y134.3832 E0.08239 F1800 ; Glyph: 2
G1 E-0.8 F2700 ; Retract
G1 Z0.45 F30000 ; Z hop
G0 X70.1848 Y125.3832 F30000 ; Move
G1 Z0.25 F30000 ; Z hop return
G1 E0.8 F2700 ; Un-retract
G1 X72.1848 Y125.3832 E0.08239 F1800 ; Glyph: 0
G1 X74.1848 Y125.3832 E0.08239 F1800 ; Glyph: 0
G1 X74.1848 Y127.3832 E0.08239 F1800 ; Glyph: 0
G1 X72.1848 Y127.3832 E0.08239 F1800 ; Glyph: 0
G1 X70.1848 Y127.3832 E0.08239 F1800 ; Glyph: 0
G1 X70.1848 Y125.3832 E0.08239 F1800 ; Glyph: 0
G1 E-0.8 F2700 ; Retract
G1 Z0.45 F30000 ; Z hop
G0 X74.1848 Y128.3832 F30000 ; Move
G1 Z0.25 F30000 ; Z hop return
G1 E0.8 F2700 ; Un-retract
G1 X73.4348 Y128.3832 E0.0309 F1800 ; Glyph: .
G1 E-0.8 F2700 ; Retract
G1 Z0.45 F30000 ; Z hop
G0 X70.1848 Y129.3832 F30000 ; Move
G1 Z0.25 F30000 ; Z hop return
G1 E0.8 F2700 ; Un-retract
G1 X72.1848 Y129.3832 E0.08239 F1800 ; Glyph: 0
G1 X74.1848 Y129.3832 E0.08239 F1800 ; Glyph: 0
G1 X74.1848 Y131.3832 E0.08239 F1800 ; Glyph: 0
G1 X72.1848 Y131.3832 E0.08239 F1800 ; Glyph: 0
G1 X70.1848 Y131.3832 E0.08239 F1800 ; Glyph: 0
G1 X70.1848 Y129.3832 E0.08239 F1800 ; Glyph: 0
G1 E-0.8 F2700 ; Retract
G1 Z0.45 F30000 ; Z hop
G0 X70.1848 Y132.3832 F30000 ; Move
G1 Z0.25 F30000 ; Z hop return
G1 E0.8 F2700 ; Un-retract
G1 X70.1848 Y134.3832 E0.08239 F1800 ; Glyph: 2
G1 X72.1848 Y134.3832 E0.08239 F1800 ; Glyph: 2
G1 X72.1848 Y132.3832 E0.08239 F1800 ; Glyph: 2
G1 X74.1848 Y132.3832 E0.08239 F1800 ; Glyph: 2
G1 X74.1848 Y134.3832 E0.08239 F1800 ; Glyph: 2
G1 E-0.8 F2700 ; Retract
G1 Z0.45 F30000 ; Z hop
G0 X70.1848 Y135.3832 F30000 ; Move
G1 Z0.25 F30000 ; Z hop return
G1 E0.8 F2700 ; Un-retract
G1 X72.1848 Y135.3832 E0.08239 F1800 ; Glyph: 1
G1 X74.1848 Y135.3832 E0.08239 F1800 ; Glyph: 1
G1 E-0.8 F2700 ; Retract
G1 Z0.45 F30000 ; Z hop
G0 X77.3268 Y125.3832 F30000 ; Move
G1 Z0.25 F30000 ; Z hop return
G1 E0.8 F2700 ; Un-retract
G1 X79.3268 Y125.3832 E0.08239 F1800 ; Glyph: 0
G1 X81.3268 Y125.3832 E0.08239 F1800 ; Glyph: 0
G1 X81.3268 Y127.3832 E0.08239 F1800 ; Glyph: 0
G1 X79.3268 Y127.3832 E0.08239 F1800 ; Glyph: 0
G1 X77.3268 Y127.3832 E0.08239 F1800 ; Glyph: 0
G1 X77.3268 Y125.3832 E0.08239 F1800 ; Glyph: 0
G1 E-0.8 F2700 ; Retract
G1 Z0.45 F30000 ; Z hop
G0 X81.3268 Y128.3832 F30000 ; Move
G1 Z0.25 F30000 ; Z hop return
G1 E0.8 F2700 ; Un-retract
G1 X80.5768 Y128.3832 E0.0309 F1800 ; Glyph: .
G1 E-0.8 F2700 ; Retract
G1 Z0.45 F30000 ; Z hop
G0 X77.3268 Y129.3832 F30000 ; Move
G1 Z0.25 F30000 ; Z hop return
G1 E0.8 F2700 ; Un-retract
G1 X79.3268 Y129.3832 E0.08239 F1800 ; Glyph: 0
G1 X81.3268 Y129.3832 E0.08239 F1800 ; Glyph: 0
G1 X81.3268 Y131.3832 E0.08239 F1800 ; Glyph: 0
G1 X79.3268 Y131.3832 E0.08239 F1800 ; Glyph: 0
G1 X77.3268 Y131.3832 E0.08239 F1800 ; Glyph: 0
G1 X77.3268 Y129.3832 E0.08239 F1800 ; Glyph: 0
G1 E-0.8 F2700 ; Retract
G1 Z0.45 F30000 ; Z hop
G0 X77.3268 Y132.3832 F30000 ; Move
G1 Z0.25 F30000 ; Z hop return
G1 E0.8 F2700 ; Un-retract
G1 X77.3268 Y134.3832 E0.08239 F1800 ; Glyph: 2
G1 X79.3268 Y134.3832 E0.08239 F1800 ; Glyph: 2
G1 X79.3268 Y132.3832 E0.08239 F1800 ; Glyph: 2
G1 X81.3268 Y132.3832 E0.08239 F1800 ; Glyph: 2
G1 X81.3268 Y134.3832 E0.08239 F1800 ; Glyph: 2
G1 E-0.8 F2700 ; Retract
G1 Z0.45 F30000 ; Z hop
G0 X77.3268 Y135.3832 F30000 ; Move
G1 Z0.25 F30000 ; Z hop return
G1 E0.8 F2700 ; Un-retract
G1 X77.3268 Y137.3832 E0.08239 F1800 ; Glyph: 2
G1 X79.3268 Y137.3832 E0.08239 F1800 ; Glyph: 2
G1 X79.3268 Y135.3832 E0.08239 F1800 ; Glyph: 2
G1 X81.3268 Y135.3832 E0.08239 F1800 ; Glyph: 2
G1 X81.3268 Y137.3832 E0.08239 F1800 ; Glyph: 2
G1 E-0.8 F2700 ; Retract
G1 Z0.45 F30000 ; Z hop
G0 X84.4689 Y125.3832 F30000 ; Move
G1 Z0.25 F30000 ; Z hop return
G1 E0.8 F2700 ; Un-retract
G1 X86.4689 Y125.3832 E0.08239 F1800 ; Glyph: 0
G1 X88.4689 Y125.3832 E0.08239 F1800 ; Glyph: 0
G1 X88.4689 Y127.3832 E0.08239 F1800 ; Glyph: 0
G1 X86.4689 Y127.3832 E0.08239 F1800 ; Glyph: 0
G1 X84.4689 Y127.3832 E0.08239 F1800 ; Glyph: 0
G1 X84.4689 Y125.3832 E0.08239 F1800 ; Glyph: 0
G1 E-0.8 F2700 ; Retract
G1 Z0.45 F30000 ; Z hop
G0 X88.4689 Y128.3832 F30000 ; Move
G1 Z0.25 F30000 ; Z hop return
G1 E0.8 F2700 ; Un-retract
G1 X87.7189 Y128.3832 E0.0309 F1800 ; Glyph: .
G1 E-0.8 F2700 ; Retract
G1 Z0.45 F30000 ; Z hop
G0 X84.4689 Y129.3832 F30000 ; Move
G1 Z0.25 F30000 ; Z hop return
G1 E0.8 F2700 ; Un-retract
G1 X86.4689 Y129.3832 E0.08239 F1800 ; Glyph: 0
G1 X88.4689 Y129.3832 E0.08239 F1800 ; Glyph: 0
G1 X88.4689 Y131.3832 E0.08239 F1800 ; Glyph: 0
G1 X86.4689 Y131.3832 E0.08239 F1800 ; Glyph: 0
G1 X84.4689 Y131.3832 E0.08239 F1800 ; Glyph: 0
G1 X84.4689 Y129.3832 E0.08239 F1800 ; Glyph: 0
G1 E-0.8 F2700 ; Retract
G1 Z0.45 F30000 ; Z hop
G0 X84.4689 Y132.3832 F30000 ; Move
G1 Z0.25 F30000 ; Z hop return
G1 E0.8 F2700 ; Un-retract
G1 X84.4689 Y134.3832 E0.08239 F1800 ; Glyph: 2
G1 X86.4689 Y134.3832 E0.08239 F1800 ; Glyph: 2
G1 X86.4689 Y132.3832 E0.08239 F1800 ; Glyph: 2
G1 X88.4689 Y132.3832 E0.08239 F1800 ; Glyph: 2
G1 X88.4689 Y134.3832 E0.08239 F1800 ; Glyph: 2
G1 E-0.8 F2700 ; Retract
G1 Z0.45 F30000 ; Z hop
G0 X84.4689 Y135.3832 F30000 ; Move
G1 Z0.25 F30000 ; Z hop return
G1 E0.8 F2700 ; Un-retract
G1 X84.4689 Y137.3832 E0.08239 F1800 ; Glyph: 3
G1 X86.4689 Y137.3832 E0.08239 F1800 ; Glyph: 3
G1 X86.4689 Y135.3832 E0.08239 F1800 ; Glyph: 3
G0 X86.4689 Y137.3832 F30000 ; Move
G1 X88.4689 Y137.3832 E0.08239 F1800 ; Glyph: 3
G1 X88.4689 Y135.3832 E0.08239 F1800 ; Glyph: 3
G1 E-0.8 F2700 ; Retract
G1 Z0.45 F30000 ; Z hop
G0 X91.611 Y125.3832 F30000 ; Move
G1 Z0.25 F30000 ; Z hop return
G1 E0.8 F2700 ; Un-retract
G1 X93.611 Y125.3832 E0.08239 F1800 ; Glyph: 0
G1 X95.611 Y125.3832 E0.08239 F1800 ; Glyph: 0
G1 X95.611 Y127.3832 E0.08239 F1800 ; Glyph: 0
G1 X93.611 Y127.3832 E0.08239 F1800 ; Glyph: 0
G1 X91.611 Y127.3832 E0.08239 F1800 ; Glyph: 0
G1 X91.611 Y125.3832 E0.08239 F1800 ; Glyph: 0
G1 E-0.8 F2700 ; Retract
G1 Z0.45 F30000 ; Z hop
G0 X95.611 Y128.3832 F30000 ; Move
G1 Z0.25 F30000 ; Z hop return
G1 E0.8 F2700 ; Un-retract
G1 X94.861 Y128.3832 E0.0309 F1800 ; Glyph: .
G1 E-0.8 F2700 ; Retract
G1 Z0.45 F30000 ; Z hop
G0 X91.611 Y129.3832 F30000 ; Move
G1 Z0.25 F30000 ; Z hop return
G1 E0.8 F2700 ; Un-retract
G1 X93.611 Y129.3832 E0.08239 F1800 ; Glyph: 0
G1 X95.611 Y129.3832 E0.08239 F1800 ; Glyph: 0
G1 X95.611 Y131.3832 E0.08239 F1800 ; Glyph: 0
G1 X93.611 Y131.3832 E0.08239 F1800 ; Glyph: 0
G1 X91.611 Y131.3832 E0.08239 F1800 ; Glyph: 0
G1 X91.611 Y129.3832 E0.08239 F1800 ; Glyph: 0
G1 E-0.8 F2700 ; Retract
G1 Z0.45 F30000 ; Z hop
G0 X91.611 Y132.3832 F30000 ; Move
G1 Z0.25 F30000 ; Z hop return
G1 E0.8 F2700 ; Un-retract
G1 X91.611 Y134.3832 E0.08239 F1800 ; Glyph: 2
G1 X93.611 Y134.3832 E0.08239 F1800 ; Glyph: 2
G1 X93.611 Y132.3832 E0.08239 F1800 ; Glyph: 2
G1 X95.611 Y132.3832 E0.08239 F1800 ; Glyph: 2
G1 X95.611 Y134.3832 E0.08239 F1800 ; Glyph: 2
G1 E-0.8 F2700 ; Retract
G1 Z0.45 F30000 ; Z hop
G0 X91.611 Y137.3832 F30000 ; Move
G1 Z0.25 F30000 ; Z hop return
G1 E0.8 F2700 ; Un-retract
G1 X93.611 Y137.3832 E0.08239 F1800 ; Glyph: 4
G1 X95.611 Y137.3832 E0.08239 F1800 ; Glyph: 4
G0 X93.611 Y137.3832 F30000 ; Move
G1 X93.611 Y135.3832 E0.08239 F1800 ; Glyph: 4
G1 X91.611 Y135.3832 E0.08239 F1800 ; Glyph: 4
G1 E-0.8 F2700 ; Retract
G1 Z0.45 F30000 ; Z hop
G0 X98.7531 Y125.3832 F30000 ; Move
G1 Z0.25 F30000 ; Z hop return
G1 E0.8 F2700 ; Un-retract
G1 X100.7531 Y125.3832 E0.08239 F1800 ; Glyph: 0
G1 X102.7531 Y125.3832 E0.08239 F1800 ; Glyph: 0
G1 X102.7531 Y127.3832 E0.08239 F1800 ; Glyph: 0
G1 X100.7531 Y127.3832 E0.08239 F1800 ; Glyph: 0
G1 X98.7531 Y127.3832 E0.08239 F1800 ; Glyph: 0
G1 X98.7531 Y125.3832 E0.08239 F1800 ; Glyph: 0
G1 E-0.8 F2700 ; Retract
G1 Z0.45 F30000 ; Z hop
G0 X102.7531 Y128.3832 F30000 ; Move
G1 Z0.25 F30000 ; Z hop return
G1 E0.8 F2700 ; Un-retract
G1 X102.0031 Y128.3832 E0.0309 F1800 ; Glyph: .
G1 E-0.8 F2700 ; Retract
G1 Z0.45 F30000 ; Z hop
G0 X98.7531 Y129.3832 F30000 ; Move
G1 Z0.25 F30000 ; Z hop return
G1 E0.8 F2700 ; Un-retract
G1 X100.7531 Y129.3832 E0.08239 F1800 ; Glyph: 0
G1 X102.7531 Y129.3832 E0.08239 F1800 ; Glyph: 0
G1 X102.7531 Y131.3832 E0.08239 F1800 ; Glyph: 0
G1 X100.7531 Y131.3832 E0.08239 F1800 ; Glyph: 0
G1 X98.7531 Y131.3832 E0.08239 F1800 ; Glyph: 0
G1 X98.7531 Y129.3832 E0.08239 F1800 ; Glyph: 0
G1 E-0.8 F2700 ; Retract
G1 Z0.45 F30000 ; Z hop
G0 X98.7531 Y132.3832 F30000 ; Move
G1 Z0.25 F30000 ; Z hop return
G1 E0.8 F2700 ; Un-retract
G1 X98.7531 Y134.3832 E0.08239 F1800 ; Glyph: 2
G1 X100.7531 Y134.3832 E0.08239 F1800 ; Glyph: 2
G1 X100.7531 Y132.3832 E0.08239 F1800 ; Glyph: 2
G1 X102.7531 Y132.3832 E0.08239 F1800 ; Glyph: 2
G1 X102.7531 Y134.3832 E0.08239 F1800 ; Glyph: 2
G1 E-0.8 F2700 ; Retract
G1 Z0.45 F30000 ; Z hop
G0 X98.7531 Y137.3832 F30000 ; Move
G1 Z0.25 F30000 ; Z hop return
G1 E0.8 F2700 ; Un-retract
G1 X98.7531 Y135.3832 E0.08239 F1800 ; Glyph: 5
G1 X100.7531 Y135.3832 E0.08239 F1800 ; Glyph: 5
G1 X100.7531 Y137.3832 E0.08239 F1800 ; Glyph: 5
G1 X102.7531 Y137.3832 E0.08239 F1800 ; Glyph: 5
G1 X102.7531 Y135.3832 E0.08239 F1800 ; Glyph: 5
G1 E-0.8 F2700 ; Retract
G1 Z0.45 F30000 ; Z hop
G0 X105.8952 Y125.3832 F30000 ; Move
G1 Z0.25 F30000 ; Z hop return
G1 E0.8 F2700 ; Un-retract
G1 X107.8952 Y125.3832 E0.08239 F1800 ; Glyph: 0
G1 X109.8952 Y125.3832 E0.08239 F1800 ; Glyph: 0
G1 X109.8952 Y127.3832 E0.08239 F1800 ; Glyph: 0
G1 X107.8952 Y127.3832 E0.08239 F1800 ; Glyph: 0
G1 X105.8952 Y127.3832 E0.08239 F1800 ; Glyph: 0
G1 X105.8952 Y125.3832 E0.08239 F1800 ; Glyph: 0
G1 E-0.8 F2700 ; Retract
G1 Z0.45 F30000 ; Z hop
G0 X109.8952 Y128.3832 F30000 ; Move
G1 Z0.25 F30000 ; Z hop return
G1 E0.8 F2700 ; Un-retract
G1 X109.1452 Y128.3832 E0.0309 F1800 ; Glyph: .
G1 E-0.8 F2700 ; Retract
G1 Z0.45 F30000 ; Z hop
G0 X105.8952 Y129.3832 F30000 ; Move
G1 Z0.25 F30000 ; Z hop return
G1 E0.8 F2700 ; Un-retract
G1 X107.8952 Y129.3832 E0.08239 F1800 ; Glyph: 0
G1 X109.8952 Y129.3832 E0.08239 F1800 ; Glyph: 0
G1 X109.8952 Y131.3832 E0.08239 F1800 ; Glyph: 0
G1 X107.8952 Y131.3832 E0.08239 F1800 ; Glyph: 0
G1 X105.8952 Y131.3832 E0.08239 F1800 ; Glyph: 0
G1 X105.8952 Y129.3832 E0.08239 F1800 ; Glyph: 0
G1 E-0.8 F2700 ; Retract
G1 Z0.45 F30000 ; Z hop
G0 X105.8952 Y132.3832 F30000 ; Move
G1 Z0.25 F30000 ; Z hop return
G1 E0.8 F2700 ; Un-retract
G1 X105.8952 Y134.3832 E0.08239 F1800 ; Glyph: 2
G1 X107.8952 Y134.3832 E0.08239 F1800 ; Glyph: 2
G1 X107.8952 Y132.3832 E0.08239 F1800 ; Glyph: 2
G1 X109.8952 Y132.3832 E0.08239 F1800 ; Glyph: 2
G1 X109.8952 Y134.3832 E0.08239 F1800 ; Glyph: 2
G1 E-0.8 F2700 ; Retract
G1 Z0.45 F30000 ; Z hop
G0 X105.8952 Y137.3832 F30000 ; Move
G1 Z0.25 F30000 ; Z hop return
G1 E0.8 F2700 ; Un-retract
G1 X105.8952 Y135.3832 E0.08239 F1800 ; Glyph: 6
G1 X107.8952 Y135.3832 E0.08239 F1800 ; Glyph: 6
G1 X109.8952 Y135.3832 E0.08239 F1800 ; Glyph: 6
G1 X109.8952 Y137.3832 E0.08239 F1800 ; Glyph: 6
G1 X107.8952 Y137.3832 E0.08239 F1800 ; Glyph: 6
G1 X107.8952 Y135.3832 E0.08239 F1800 ; Glyph: 6
G1 E-0.8 F2700 ; Retract
G1 Z0.45 F30000 ; Z hop
G0 X113.0373 Y125.3832 F30000 ; Move
G1 Z0.25 F30000 ; Z hop return
G1 E0.8 F2700 ; Un-retract
G1 X115.0373 Y125.3832 E0.08239 F1800 ; Glyph: 0
G1 X117.0373 Y125.3832 E0.08239 F1800 ; Glyph: 0
G1 X117.0373 Y127.3832 E0.08239 F1800 ; Glyph: 0
G1 X115.0373 Y127.3832 E0.08239 F1800 ; Glyph: 0
G1 X113.0373 Y127.3832 E0.08239 F1800 ; Glyph: 0
G1 X113.0373 Y125.3832 E0.08239 F1800 ; Glyph: 0
G1 E-0.8 F2700 ; Retract
G1 Z0.45 F30000 ; Z hop
G0 X117.0373 Y128.3832 F30000 ; Move
G1 Z0.25 F30000 ; Z hop return
G1 E0.8 F2700 ; Un-retract
G1 X116.2873 Y128.3832 E0.0309 F1800 ; Glyph: .
G1 E-0.8 F2700 ; Retract
G1 Z0.45 F30000 ; Z hop
G0 X113.0373 Y129.3832 F30000 ; Move
G1 Z0.25 F30000 ; Z hop return
G1 E0.8 F2700 ; Un-retract
G1 X115.0373 Y129.3832 E0.08239 F1800 ; Glyph: 0
G1 X117.0373 Y129.3832 E0.08239 F1800 ; Glyph: 0
G1 X117.0373 Y131.3832 E0.08239 F1800 ; Glyph: 0
G1 X115.0373 Y131.3832 E0.08239 F1800 ; Glyph: 0
G1 X113.0373 Y131.3832 E0.08239 F1800 ; Glyph: 0
G1 X113.0373 Y129.3832 E0.08239 F1800 ; Glyph: 0
G1 E-0.8 F2700 ; Retract
G1 Z0.45 F30000 ; Z hop
G0 X113.0373 Y132.3832 F30000 ; Move
G1 Z0.25 F30000 ; Z hop return
G1 E0.8 F2700 ; Un-retract
G1 X113.0373 Y134.3832 E0.08239 F1800 ; Glyph: 2
G1 X115.0373 Y134.3832 E0.08239 F1800 ; Glyph: 2
G1 X115.0373 Y132.3832 E0.08239 F1800 ; Glyph: 2
G1 X117.0373 Y132.3832 E0.08239 F1800 ; Glyph: 2
G1 X117.0373 Y134.3832 E0.08239 F1800 ; Glyph: 2
G1 E-0.8 F2700 ; Retract
G1 Z0.45 F30000 ; Z hop
G0 X113.0373 Y135.3832 F30000 ; Move
G1 Z0.25 F30000 ; Z hop return
G1 E0.8 F2700 ; Un-retract
G1 X113.0373 Y137.3832 E0.08239 F1800 ; Glyph: 7
G1 X115.0373 Y137.3832 E0.08239 F1800 ; Glyph: 7
G1 X117.0373 Y137.3832 E0.08239 F1800 ; Glyph: 7
G1 E-0.8 F2700 ; Retract
G1 Z0.45 F30000 ; Z hop
G0 X120.1794 Y125.3832 F30000 ; Move
G1 Z0.25 F30000 ; Z hop return
G1 E0.8 F2700 ; Un-retract
G1 X122.1794 Y125.3832 E0.08239 F1800 ; Glyph: 0
G1 X124.1794 Y125.3832 E0.08239 F1800 ; Glyph: 0
G1 X124.1794 Y127.3832 E0.08239 F1800 ; Glyph: 0
G1 X122.1794 Y127.3832 E0.08239 F1800 ; Glyph: 0
G1 X120.1794 Y127.3832 E0.08239 F1800 ; Glyph: 0
G1 X120.1794 Y125.3832 E0.08239 F1800 ; Glyph: 0
G1 E-0.8 F2700 ; Retract
G1 Z0.45 F30000 ; Z hop
G0 X124.1794 Y128.3832 F30000 ; Move
G1 Z0.25 F30000 ; Z hop return
G1 E0.8 F2700 ; Un-retract
G1 X123.4294 Y128.3832 E0.0309 F1800 ; Glyph: .
G1 E-0.8 F2700 ; Retract
G1 Z0.45 F30000 ; Z hop
G0 X120.1794 Y129.3832 F30000 ; Move
G1 Z0.25 F30000 ; Z hop return
G1 E0.8 F2700 ; Un-retract
G1 X122.1794 Y129.3832 E0.08239 F1800 ; Glyph: 0
G1 X124.1794 Y129.3832 E0.08239 F1800 ; Glyph: 0
G1 X124.1794 Y131.3832 E0.08239 F1800 ; Glyph: 0
G1 X122.1794 Y131.3832 E0.08239 F1800 ; Glyph: 0
G1 X120.1794 Y131.3832 E0.08239 F1800 ; Glyph: 0
G1 X120.1794 Y129.3832 E0.08239 F1800 ; Glyph: 0
G1 E-0.8 F2700 ; Retract
G1 Z0.45 F30000 ; Z hop
G0 X120.1794 Y132.3832 F30000 ; Move
G1 Z0.25 F30000 ; Z hop return
G1 E0.8 F2700 ; Un-retract
G1 X120.1794 Y134.3832 E0.08239 F1800 ; Glyph: 2
G1 X122.1794 Y134.3832 E0.08239 F1800 ; Glyph: 2
G1 X122.1794 Y132.3832 E0.08239 F1800 ; Glyph: 2
G1 X124.1794 Y132.3832 E0.08239 F1800 ; Glyph: 2
G1 X124.1794 Y134.3832 E0.08239 F1800 ; Glyph: 2
G1 E-0.8 F2700 ; Retract
G1 Z0.45 F30000 ; Z hop
G0 X120.1794 Y135.3832 F30000 ; Move
G1 Z0.25 F30000 ; Z hop return
G1 E0.8 F2700 ; Un-retract
G1 X122.1794 Y135.3832 E0.08239 F1800 ; Glyph: 8
G1 X124.1794 Y135.3832 E0.08239 F1800 ; Glyph: 8
G1 X124.1794 Y137.3832 E0.08239 F1800 ; Glyph: 8
G1 X122.1794 Y137.3832 E0.08239 F1800 ; Glyph: 8
G1 X120.1794 Y137.3832 E0.08239 F1800 ; Glyph: 8
G1 X120.1794 Y135.3832 E0.08239 F1800 ; Glyph: 8
G0 X122.1794 Y135.3832 F30000 ; Move
G1 X122.1794 Y137.3832 E0.08239 F1800 ; Glyph: 8
G1 E-0.8 F2700 ; Retract
G1 Z0.45 F30000 ; Z hop
G0 X127.3215 Y125.3832 F30000 ; Move
G1 Z0.25 F30000 ; Z hop return
G1 E0.8 F2700 ; Un-retract
G1 X129.3215 Y125.3832 E0.08239 F1800 ; Glyph: 0
G1 X131.3215 Y125.3832 E0.08239 F1800 ; Glyph: 0
G1 X131.3215 Y127.3832 E0.08239 F1800 ; Glyph: 0
G1 X129.3215 Y127.3832 E0.08239 F1800 ; Glyph: 0
G1 X127.3215 Y127.3832 E0.08239 F1800 ; Glyph: 0
G1 X127.3215 Y125.3832 E0.08239 F1800 ; Glyph: 0
G1 E-0.8 F2700 ; Retract
G1 Z0.45 F30000 ; Z hop
G0 X131.3215 Y128.3832 F30000 ; Move
G1 Z0.25 F30000 ; Z hop return
G1 E0.8 F2700 ; Un-retract
G1 X130.5715 Y128.3832 E0.0309 F1800 ; Glyph: .
G1 E-0.8 F2700 ; Retract
G1 Z0.45 F30000 ; Z hop
G0 X127.3215 Y129.3832 F30000 ; Move
G1 Z0.25 F30000 ; Z hop return
G1 E0.8 F2700 ; Un-retract
G1 X129.3215 Y129.3832 E0.08239 F1800 ; Glyph: 0
G1 X131.3215 Y129.3832 E0.08239 F1800 ; Glyph: 0
G1 X131.3215 Y131.3832 E0.08239 F1800 ; Glyph: 0
G1 X129.3215 Y131.3832 E0.08239 F1800 ; Glyph: 0
G1 X127.3215 Y131.3832 E0.08239 F1800 ; Glyph: 0
G1 X127.3215 Y129.3832 E0.08239 F1800 ; Glyph: 0
G1 E-0.8 F2700 ; Retract
G1 Z0.45 F30000 ; Z hop
G0 X127.3215 Y132.3832 F30000 ; Move
G1 Z0.25 F30000 ; Z hop return
G1 E0.8 F2700 ; Un-retract
G1 X127.3215 Y134.3832 E0.08239 F1800 ; Glyph: 2
G1 X129.3215 Y134.3832 E0.08239 F1800 ; Glyph: 2
G1 X129.3215 Y132.3832 E0.08239 F1800 ; Glyph: 2
G1 X131.3215 Y132.3832 E0.08239 F1800 ; Glyph: 2
G1 X131.3215 Y134.3832 E0.08239 F1800 ; Glyph: 2
G0 X131.3215 Y135.3832 F30000 ; Move
G1 X131.3215 Y137.3832 E0.08239 F1800 ; Glyph: 9
G1 X129.3215 Y137.3832 E0.08239 F1800 ; Glyph: 9
G1 X127.3215 Y137.3832 E0.08239 F1800 ; Glyph: 9
G1 X127.3215 Y135.3832 E0.08239 F1800 ; Glyph: 9
G1 X129.3215 Y135.3832 E0.08239 F1800 ; Glyph: 9
G1 X129.3215 Y137.3832 E0.08239 F1800 ; Glyph: 9
G1 E-0.8 F2700 ; Retract
G1 Z0.45 F30000 ; Z hop
G0 X134.4636 Y125.3832 F30000 ; Move
G1 Z0.25 F30000 ; Z hop return
G1 E0.8 F2700 ; Un-retract
G1 X136.4636 Y125.3832 E0.08239 F1800 ; Glyph: 0
G1 X138.4636 Y125.3832 E0.08239 F1800 ; Glyph: 0
G1 X138.4636 Y127.3832 E0.08239 F1800 ; Glyph: 0
G1 X136.4636 Y127.3832 E0.08239 F1800 ; Glyph: 0
G1 X134.4636 Y127.3832 E0.08239 F1800 ; Glyph: 0
G1 X134.4636 Y125.3832 E0.08239 F1800 ; Glyph: 0
G1 E-0.8 F2700 ; Retract
G1 Z0.45 F30000 ; Z hop
G0 X138.4636 Y128.3832 F30000 ; Move
G1 Z0.25 F30000 ; Z hop return
G1 E0.8 F2700 ; Un-retract
G1 X137.7136 Y128.3832 E0.0309 F1800 ; Glyph: .
G1 E-0.8 F2700 ; Retract
G1 Z0.45 F30000 ; Z hop
G0 X134.4636 Y129.3832 F30000 ; Move
G1 Z0.25 F30000 ; Z hop return
G1 E0.8 F2700 ; Un-retract
G1 X136.4636 Y129.3832 E0.08239 F1800 ; Glyph: 0
G1 X138.4636 Y129.3832 E0.08239 F1800 ; Glyph: 0
G1 X138.4636 Y131.3832 E0.08239 F1800 ; Glyph: 0
G1 X136.4636 Y131.3832 E0.08239 F1800 ; Glyph: 0
G1 X134.4636 Y131.3832 E0.08239 F1800 ; Glyph: 0
G1 X134.4636 Y129.3832 E0.08239 F1800 ; Glyph: 0
G1 E-0.8 F2700 ; Retract
G1 Z0.45 F30000 ; Z hop
G0 X134.4636 Y132.3832 F30000 ; Move
G1 Z0.25 F30000 ; Z hop return
G1 E0.8 F2700 ; Un-retract
G1 X134.4636 Y134.3832 E0.08239 F1800 ; Glyph: 3
G1 X136.4636 Y134.3832 E0.08239 F1800 ; Glyph: 3
G1 X136.4636 Y132.3832 E0.08239 F1800 ; Glyph: 3
G0 X136.4636 Y134.3832 F30000 ; Move
G1 X138.4636 Y134.3832 E0.08239 F1800 ; Glyph: 3
G1 X138.4636 Y132.3832 E0.08239 F1800 ; Glyph: 3
G1 E-0.8 F2700 ; Retract
G1 Z0.45 F30000 ; Z hop
G0 X64.4821 Y81.5068 F30000 ; Move to pattern start

G1 Z0.25 F30000 ; Z hop return
G1 E0.8 F2700 ; Un-retract
SET_PRESSURE_ADVANCE ADVANCE=0.02 ; Set pressure advance
M117 PA 0.02
G1 X85.6953 Y102.72 E1.23587 F1800 ; Print pattern wall
G1 X64.4821 Y123.9332 E1.23587 F1800 ; Print pattern wall
G1 E-0.8 F2700 ; Retract
G1 Z0.45 F30000 ; Z hop
G0 X65.0427 Y81.5068 F30000 ; Move to start next pattern wall
G1 Z0.25 F30000 ; Z hop return
G1 E0.8 F2700 ; Un-retract
G1 X86.2559 Y102.72 E1.23587 F1800 ; Print pattern wall
G1 X65.0427 Y123.9332 E1.23587 F1800 ; Print pattern wall
G1 E-0.8 F2700 ; Retract
G1 Z0.45 F30000 ; Z hop
G0 X65.6032 Y81.5068 F30000 ; Move to start next pattern wall
G1 Z0.25 F30000 ; Z hop return
G1 E0.8 F2700 ; Un-retract
G1 X86.8164 Y102.72 E1.23587 F1800 ; Print pattern wall
G1 X65.6032 Y123.9332 E1.23587 F1800 ; Print pattern wall
G1 E-0.8 F2700 ; Retract
G1 Z0.45 F30000 ; Z hop
G0 X68.0532 Y81.5068 F30000 ; Move to next pattern
G1 Z0.25 F30000 ; Z hop return
G1 E0.8 F2700 ; Un-retract
SET_PRESSURE_ADVANCE ADVANCE=0.0205 ; Set pressure advance
M117 PA 0.0205
G1 X89.2664 Y102.72 E1.23587 F1800 ; Print pattern wall
G1 X68.0532 Y123.9332 E1.23587 F1800 ; Print pattern wall
G1 E-0.8 F2700 ; Retract
G1 Z0.45 F30000 ; Z hop
G0 X68.6137 Y81.5068 F30000 ; Move to start next pattern wall
G1 Z0.25 F30000 ; Z hop return
G1 E0.8 F2700 ; Un-retract
G1 X89.8269 Y102.72 E1.23587 F1800 ; Print pattern wall
G1 X68.6137 Y123.9332 E1.23587 F1800 ; Print pattern wall
G1 E-0.8 F2700 ; Retract
G1 Z0.45 F30000 ; Z hop
G0 X69.1742 Y81.5068 F30000 ; Move to start next pattern wall
G1 Z0.25 F30000 ; Z hop return
G1 E0.8 F2700 ; Un-retract
G1 X90.3874 Y102.72 E1.23587 F1800 ; Print pattern wall
G1 X69.1742 Y123.9332 E1.23587 F1800 ; Print pattern wall
G1 E-0.8 F2700 ; Retract
G1 Z0.45 F30000 ; Z hop
G0 X71.6242 Y81.5068 F30000 ; Move to next pattern
G1 Z0.25 F30000 ; Z hop return
G1 E0.8 F2700 ; Un-retract
SET_PRESSURE_ADVANCE ADVANCE=0.021 ; Set pressure advance
M117 PA 0.021
G1 X92.8374 Y102.72 E1.23587 F1800 ; Print pattern wall
G1 X71.6242 Y123.9332 E1.23587 F1800 ; Print pattern wall
G1 E-0.8 F2700 ; Retract
G1 Z0.45 F30000 ; Z hop
G0 X72.1848 Y81.5068 F30000 ; Move to start next pattern wall
G1 Z0.25 F30000 ; Z hop return
G1 E0.8 F2700 ; Un-retract
G1 X93.398 Y102.72 E1.23587 F1800 ; Print pattern wall
G1 X72.1848 Y123.9332 E1.23587 F1800 ; Print pattern wall
G1 E-0.8 F2700 ; Retract
G1 Z0.45 F30000 ; Z hop
G0 X72.7453 Y81.5068 F30000 ; Move to start next pattern wall
G1 Z0.25 F30000 ; Z hop return
G1 E0.8 F2700 ; Un-retract
G1 X93.9585 Y102.72 E1.23587 F1800 ; Print pattern wall
G1 X72.7453 Y123.9332 E1.23587 F1800 ; Print pattern wall
G1 E-0.8 F2700 ; Retract
G1 Z0.45 F30000 ; Z hop
G0 X75.1953 Y81.5068 F30000 ; Move to next pattern
G1 Z0.25 F30000 ; Z hop return
G1 E0.8 F2700 ; Un-retract
SET_PRESSURE_ADVANCE ADVANCE=0.0215 ; Set pressure advance
M117 PA 0.0215
G1 X96.4085 Y102.72 E1.23587 F1800 ; Print pattern wall
G1 X75.1953 Y123.9332 E1.23587 F1800 ; Print pattern wall
G1 E-0.8 F2700 ; Retract
G1 Z0.45 F30000 ; Z hop
G0 X75.7558 Y81.5068 F30000 ; Move to start next pattern wall
G1 Z0.25 F30000 ; Z hop return
G1 E0.8 F2700 ; Un-retract
G1 X96.969 Y102.72 E1.23587 F1800 ; Print pattern wall
G1 X75.7558 Y123.9332 E1.23587 F1800 ; Print pattern wall
G1 E-0.8 F2700 ; Retract
G1 Z0.45 F30000 ; Z hop
G0 X76.3163 Y81.5068 F30000 ; Move to start next pattern wall
G1 Z0.25 F30000 ; Z hop return
G1 E0.8 F2700 ; Un-retract
G1 X97.5295 Y102.72 E1.23587 F1800 ; Print pattern wall
G1 X76.3163 Y123.9332 E1.23587 F1800 ; Print pattern wall
G1 E-0.8 F2700 ; Retract
G1 Z0.45 F30000 ; Z hop
G0 X78.7663 Y81.5068 F30000 ; Move to next pattern
G1 Z0.25 F30000 ; Z hop return
G1 E0.8 F2700 ; Un-retract
SET_PRESSURE_ADVANCE ADVANCE=0.022 ; Set pressure advance
M117 PA 0.022
G1 X99.9795 Y102.72 E1.23587 F1800 ; Print pattern wall
G1 X78.7663 Y123.9332 E1.23587 F1800 ; Print pattern wall
G1 E-0.8 F2700 ; Retract
G1 Z0.45 F30000 ; Z hop
G0 X79.3268 Y81.5068 F30000 ; Move to start next pattern wall
G1 Z0.25 F30000 ; Z hop return
G1 E0.8 F2700 ; Un-retract
G1 X100.54 Y102.72 E1.23587 F1800 ; Print pattern wall
G1 X79.3268 Y123.9332 E1.23587 F1800 ; Print pattern wall
G1 E-0.8 F2700 ; Retract
G1 Z0.45 F30000 ; Z hop
G0 X79.8874 Y81.5068 F30000 ; Move to start next pattern wall
G1 Z0.25 F30000 ; Z hop return
G1 E0.8 F2700 ; Un-retract
G1 X101.1006 Y102.72 E1.23587 F1800 ; Print pattern wall
G1 X79.8874 Y123.9332 E1.23587 F1800 ; Print pattern wall
G1 E-0.8 F2700 ; Retract
G1 Z0.45 F30000 ; Z hop
G0 X82.3374 Y81.5068 F30000 ; Move to next pattern
G1 Z0.25 F30000 ; Z hop return
G1 E0.8 F2700 ; Un-retract
SET_PRESSURE_ADVANCE ADVANCE=0.0225 ; Set pressure advance
M117 PA 0.0225
G1 X103.5506 Y102.72 E1.23587 F1800 ; Print pattern wall
G1 X82.3374 Y123.9332 E1.23587 F1800 ; Print pattern wall
G1 E-0.8 F2700 ; Retract
G1 Z0.45 F30000 ; Z hop
G0 X82.8979 Y81.5068 F30000 ; Move to start next pattern wall
G1 Z0.25 F30000 ; Z hop return
G1 E0.8 F2700 ; Un-retract
G1 X104.1111 Y102.72 E1.23587 F1800 ; Print pattern wall
G1 X82.8979 Y123.9332 E1.23587 F1800 ; Print pattern wall
G1 E-0.8 F2700 ; Retract
G1 Z0.45 F30000 ; Z hop
G0 X83.4584 Y81.5068 F30000 ; Move to start next pattern wall
G1 Z0.25 F30000 ; Z hop return
G1 E0.8 F2700 ; Un-retract
G1 X104.6716 Y102.72 E1.23587 F1800 ; Print pattern wall
G1 X83.4584 Y123.9332 E1.23587 F1800 ; Print pattern wall
G1 E-0.8 F2700 ; Retract
G1 Z0.45 F30000 ; Z hop
G0 X85.9084 Y81.5068 F30000 ; Move to next pattern
G1 Z0.25 F30000 ; Z hop return
G1 E0.8 F2700 ; Un-retract
SET_PRESSURE_ADVANCE ADVANCE=0.023 ; Set pressure advance
M117 PA 0.023
G1 X107.1216 Y102.72 E1.23587 F1800 ; Print pattern wall
G1 X85.9084 Y123.9332 E1.23587 F1800 ; Print pattern wall
G1 E-0.8 F2700 ; Retract
G1 Z0.45 F30000 ; Z hop
G0 X86.4689 Y81.5068 F30000 ; Move to start next pattern wall
G1 Z0.25 F30000 ; Z hop return
G1 E0.8 F2700 ; Un-retract
G1 X107.6821 Y102.72 E1.23587 F1800 ; Print pattern wall
G1 X86.4689 Y123.9332 E1.23587 F1800 ; Print pattern wall
G1 E-0.8 F2700 ; Retract
G1 Z0.45 F30000 ; Z hop
G0 X87.0295 Y81.5068 F30000 ; Move to start next pattern wall
G1 Z0.25 F30000 ; Z hop return
G1 E0.8 F2700 ; Un-retract
G1 X108.2427 Y102.72 E1.23587 F1800 ; Print pattern wall
G1 X87.0295 Y123.9332 E1.23587 F1800 ; Print pattern wall
G1 E-0.8 F2700 ; Retract
G1 Z0.45 F30000 ; Z hop
G0 X89.4795 Y81.5068 F30000 ; Move to next pattern
G1 Z0.25 F30000 ; Z hop return
G1 E0.8 F2700 ; Un-retract
SET_PRESSURE_ADVANCE ADVANCE=0.0235 ; Set pressure advance
M117 PA 0.0235
G1 X110.6927 Y102.72 E1.23587 F1800 ; Print pattern wall
G1 X89.4795 Y123.9332 E1.23587 F1800 ; Print pattern wall
G1 E-0.8 F2700 ; Retract
G1 Z0.45 F30000 ; Z hop
G0 X90.04 Y81.5068 F30000 ; Move to start next pattern wall
G1 Z0.25 F30000 ; Z hop return
G1 E0.8 F2700 ; Un-retract
G1 X111.2532 Y102.72 E1.23587 F1800 ; Print pattern wall
G1 X90.04 Y123.9332 E1.23587 F1800 ; Print pattern wall
G1 E-0.8 F2700 ; Retract
G1 Z0.45 F30000 ; Z hop
G0 X90.6005 Y81.5068 F30000 ; Move to start next pattern wall
G1 Z0.25 F30000 ; Z hop return
G1 E0.8 F2700 ; Un-retract
G1 X111.8137 Y102.72 E1.23587 F1800 ; Print pattern wall
G1 X90.6005 Y123.9332 E1.23587 F1800 ; Print pattern wall
G1 E-0.8 F2700 ; Retract
G1 Z0.45 F30000 ; Z hop
G0 X93.0505 Y81.5068 F30000 ; Move to next pattern
G1 Z0.25 F30000 ; Z hop return
G1 E0.8 F2700 ; Un-retract
SET_PRESSURE_ADVANCE ADVANCE=0.024 ; Set pressure advance
M117 PA 0.024
G1 X114.2637 Y102.72 E1.23587 F1800 ; Print pattern wall
G1 X93.0505 Y123.9332 E1.23587 F1800 ; Print pattern wall
G1 E-0.8 F2700 ; Retract
G1 Z0.45 F30000 ; Z hop
G0 X93.611 Y81.5068 F30000 ; Move to start next pattern wall
G1 Z0.25 F30000 ; Z hop return
G1 E0.8 F2700 ; Un-retract
G1 X114.8242 Y102.72 E1.23587 F1800 ; Print pattern wall
G1 X93.611 Y123.9332 E1.23587 F1800 ; Print pattern wall
G1 E-0.8 F2700 ; Retract
G1 Z0.45 F30000 ; Z hop
G0 X94.1716 Y81.5068 F30000 ; Move to start next pattern wall
G1 Z0.25 F30000 ; Z hop return
G1 E0.8 F2700 ; Un-retract
G1 X115.3848 Y102.72 E1.23587 F1800 ; Print pattern wall
G1 X94.1716 Y123.9332 E1.23587 F1800 ; Print pattern wall
G1 E-0.8 F2700 ; Retract
G1 Z0.45 F30000 ; Z hop
G0 X96.6216 Y81.5068 F30000 ; Move to next pattern
G1 Z0.25 F30000 ; Z hop return
G1 E0.8 F2700 ; Un-retract
SET_PRESSURE_ADVANCE ADVANCE=0.0245 ; Set pressure advance
M117 PA 0.0245
G1 X117.8348 Y102.72 E1.23587 F1800 ; Print pattern wall
G1 X96.6216 Y123.9332 E1.23587 F1800 ; Print pattern wall
G1 E-0.8 F2700 ; Retract
G1 Z0.45 F30000 ; Z hop
G0 X97.1821 Y81.5068 F30000 ; Move to start next pattern wall
G1 Z0.25 F30000 ; Z hop return
G1 E0.8 F2700 ; Un-retract
G1 X118.3953 Y102.72 E1.23587 F1800 ; Print pattern wall
G1 X97.1821 Y123.9332 E1.23587 F1800 ; Print pattern wall
G1 E-0.8 F2700 ; Retract
G1 Z0.45 F30000 ; Z hop
G0 X97.7426 Y81.5068 F30000 ; Move to start next pattern wall
G1 Z0.25 F30000 ; Z hop return
G1 E0.8 F2700 ; Un-retract
G1 X118.9558 Y102.72 E1.23587 F1800 ; Print pattern wall
G1 X97.7426 Y123.9332 E1.23587 F1800 ; Print pattern wall
G1 E-0.8 F2700 ; Retract
G1 Z0.45 F30000 ; Z hop
G0 X100.1926 Y81.5068 F30000 ; Move to next pattern
G1 Z0.25 F30000 ; Z hop return
G1 E0.8 F2700 ; Un-retract
SET_PRESSURE_ADVANCE ADVANCE=0.025 ; Set pressure advance
M117 PA 0.025
G1 X121.4058 Y102.72 E1.23587 F1800 ; Print pattern wall
G1 X100.1926 Y123.9332 E1.23587 F1800 ; Print pattern wall
G1 E-0.8 F2700 ; Retract
G1 Z0.45 F30000 ; Z hop
G0 X100.7531 Y81.5068 F30000 ; Move to start next pattern wall
G1 Z0.25 F30000 ; Z hop return
G1 E0.8 F2700 ; Un-retract
G1 X121.9663 Y102.72 E1.23587 F1800 ; Print pattern wall
G1 X100.7531 Y123.9332 E1.23587 F1800 ; Print pattern wall
G1 E-0.8 F2700 ; Retract
G1 Z0.45 F30000 ; Z hop
G0 X101.3136 Y81.5068 F30000 ; Move to start next pattern wall
G1 Z0.25 F30000 ; Z hop return
G1 E0.8 F2700 ; Un-retract
G1 X122.5268 Y102.72 E1.23587 F1800 ; Print pattern wall
G1 X101.3136 Y123.9332 E1.23587 F1800 ; Print pattern wall
G1 E-0.8 F2700 ; Retract
G1 Z0.45 F30000 ; Z hop
G0 X103.7636 Y81.5068 F30000 ; Move to next pattern
G1 Z0.25 F30000 ; Z hop return
G1 E0.8 F2700 ; Un-retract
SET_PRESSURE_ADVANCE ADVANCE=0.0255 ; Set pressure advance
M117 PA 0.0255
G1 X124.9768 Y102.72 E1.23587 F1800 ; Print pattern wall
G1 X103.7636 Y123.9332 E1.23587 F1800 ; Print pattern wall
G1 E-0.8 F2700 ; Retract
G1 Z0.45 F30000 ; Z hop
G0 X104.3242 Y81.5068 F30000 ; Move to start next pattern wall
G1 Z0.25 F30000 ; Z hop return
G1 E0.8 F2700 ; Un-retract
G1 X125.5374 Y102.72 E1.23587 F1800 ; Print pattern wall
G1 X104.3242 Y123.9332 E1.23587 F1800 ; Print pattern wall
G1 E-0.8 F2700 ; Retract
G1 Z0.45 F30000 ; Z hop
G0 X104.8847 Y81.5068 F30000 ; Move to start next pattern wall
G1 Z0.25 F30000 ; Z hop return
G1 E0.8 F2700 ; Un-retract
G1 X126.0979 Y102.72 E1.23587 F1800 ; Print pattern wall
G1 X104.8847 Y123.9332 E1.23587 F1800 ; Print pattern wall
G1 E-0.8 F2700 ; Retract
G1 Z0.45 F30000 ; Z hop
G0 X107.3347 Y81.5068 F30000 ; Move to next pattern
G1 Z0.25 F30000 ; Z hop return
G1 E0.8 F2700 ; Un-retract
SET_PRESSURE_ADVANCE ADVANCE=0.026 ; Set pressure advance
M117 PA 0.026
G1 X128.5479 Y102.72 E1.23587 F1800 ; Print pattern wall
G1 X107.3347 Y123.9332 E1.23587 F1800 ; Print pattern wall
G1 E-0.8 F2700 ; Retract
G1 Z0.45 F30000 ; Z hop
G0 X107.8952 Y81.5068 F30000 ; Move to start next pattern wall
G1 Z0.25 F30000 ; Z hop return
G1 E0.8 F2700 ; Un-retract
G1 X129.1084 Y102.72 E1.23587 F1800 ; Print pattern wall
G1 X107.8952 Y123.9332 E1.23587 F1800 ; Print pattern wall
G1 E-0.8 F2700 ; Retract
G1 Z0.45 F30000 ; Z hop
G0 X108.4557 Y81.5068 F30000 ; Move to start next pattern wall
G1 Z0.25 F30000 ; Z hop return
G1 E0.8 F2700 ; Un-retract
G1 X129.6689 Y102.72 E1.23587 F1800 ; Print pattern wall
G1 X108.4557 Y123.9332 E1.23587 F1800 ; Print pattern wall
G1 E-0.8 F2700 ; Retract
G1 Z0.45 F30000 ; Z hop
G0 X110.9057 Y81.5068 F30000 ; Move to next pattern
G1 Z0.25 F30000 ; Z hop return
G1 E0.8 F2700 ; Un-retract
SET_PRESSURE_ADVANCE ADVANCE=0.0265 ; Set pressure advance
M117 PA 0.0265
G1 X132.1189 Y102.72 E1.23587 F1800 ; Print pattern wall
G1 X110.9057 Y123.9332 E1.23587 F1800 ; Print pattern wall
G1 E-0.8 F2700 ; Retract
G1 Z0.45 F30000 ; Z hop
G0 X111.4663 Y81.5068 F30000 ; Move to start next pattern wall
G1 Z0.25 F30000 ; Z hop return
G1 E0.8 F2700 ; Un-retract
G1 X132.6795 Y102.72 E1.23587 F1800 ; Print pattern wall
G1 X111.4663 Y123.9332 E1.23587 F1800 ; Print pattern wall
G1 E-0.8 F2700 ; Retract
G1 Z0.45 F30000 ; Z hop
G0 X112.0268 Y81.5068 F30000 ; Move to start next pattern wall
G1 Z0.25 F30000 ; Z hop return
G1 E0.8 F2700 ; Un-retract
G1 X133.24 Y102.72 E1.23587 F1800 ; Print pattern wall
G1 X112.0268 Y123.9332 E1.23587 F1800 ; Print pattern wall
G1 E-0.8 F2700 ; Retract
G1 Z0.45 F30000 ; Z hop
G0 X114.4768 Y81.5068 F30000 ; Move to next pattern
G1 Z0.25 F30000 ; Z hop return
G1 E0.8 F2700 ; Un-retract
SET_PRESSURE_ADVANCE ADVANCE=0.027 ; Set pressure advance
M117 PA 0.027
G1 X135.69 Y102.72 E1.23587 F1800 ; Print pattern wall
G1 X114.4768 Y123.9332 E1.23587 F1800 ; Print pattern wall
G1 E-0.8 F2700 ; Retract
G1 Z0.45 F30000 ; Z hop
G0 X115.0373 Y81.5068 F30000 ; Move to start next pattern wall
G1 Z0.25 F30000 ; Z hop return
G1 E0.8 F2700 ; Un-retract
G1 X136.2505 Y102.72 E1.23587 F1800 ; Print pattern wall
G1 X115.0373 Y123.9332 E1.23587 F1800 ; Print pattern wall
G1 E-0.8 F2700 ; Retract
G1 Z0.45 F30000 ; Z hop
G0 X115.5978 Y81.5068 F30000 ; Move to start next pattern wall
G1 Z0.25 F30000 ; Z hop return
G1 E0.8 F2700 ; Un-retract
G1 X136.811 Y102.72 E1.23587 F1800 ; Print pattern wall
G1 X115.5978 Y123.9332 E1.23587 F1800 ; Print pattern wall
G1 E-0.8 F2700 ; Retract
G1 Z0.45 F30000 ; Z hop
G0 X118.0478 Y81.5068 F30000 ; Move to next pattern
G1 Z0.25 F30000 ; Z hop return
G1 E0.8 F2700 ; Un-retract
SET_PRESSURE_ADVANCE ADVANCE=0.0275 ; Set pressure advance
M117 PA 0.0275
G1 X139.261 Y102.72 E1.23587 F1800 ; Print pattern wall
G1 X118.0478 Y123.9332 E1.23587 F1800 ; Print pattern wall
G1 E-0.8 F2700 ; Retract
G1 Z0.45 F30000 ; Z hop
G0 X118.6083 Y81.5068 F30000 ; Move to start next pattern wall
G1 Z0.25 F30000 ; Z hop return
G1 E0.8 F2700 ; Un-retract
G1 X139.8216 Y102.72 E1.23587 F1800 ; Print pattern wall
G1 X118.6083 Y123.9332 E1.23587 F1800 ; Print pattern wall
G1 E-0.8 F2700 ; Retract
G1 Z0.45 F30000 ; Z hop
G0 X119.1689 Y81.5068 F30000 ; Move to start next pattern wall
G1 Z0.25 F30000 ; Z hop return
G1 E0.8 F2700 ; Un-retract
G1 X140.3821 Y102.72 E1.23587 F1800 ; Print pattern wall
G1 X119.1689 Y123.9332 E1.23587 F1800 ; Print pattern wall
G1 E-0.8 F2700 ; Retract
G1 Z0.45 F30000 ; Z hop
G0 X121.6189 Y81.5068 F30000 ; Move to next pattern
G1 Z0.25 F30000 ; Z hop return
G1 E0.8 F2700 ; Un-retract
SET_PRESSURE_ADVANCE ADVANCE=0.028 ; Set pressure advance
M117 PA 0.028
G1 X142.8321 Y102.72 E1.23587 F1800 ; Print pattern wall
G1 X121.6189 Y123.9332 E1.23587 F1800 ; Print pattern wall
G1 E-0.8 F2700 ; Retract
G1 Z0.45 F30000 ; Z hop
G0 X122.1794 Y81.5068 F30000 ; Move to start next pattern wall
G1 Z0.25 F30000 ; Z hop return
G1 E0.8 F2700 ; Un-retract
G1 X143.3926 Y102.72 E1.23587 F1800 ; Print pattern wall
G1 X122.1794 Y123.9332 E1.23587 F1800 ; Print pattern wall
G1 E-0.8 F2700 ; Retract
G1 Z0.45 F30000 ; Z hop
G0 X122.7399 Y81.5068 F30000 ; Move to start next pattern wall
G1 Z0.25 F30000 ; Z hop return
G1 E0.8 F2700 ; Un-retract
G1 X143.9531 Y102.72 E1.23587 F1800 ; Print pattern wall
G1 X122.7399 Y123.9332 E1.23587 F1800 ; Print pattern wall
G1 E-0.8 F2700 ; Retract
G1 Z0.45 F30000 ; Z hop
G0 X125.1899 Y81.5068 F30000 ; Move to next pattern
G1 Z0.25 F30000 ; Z hop return
G1 E0.8 F2700 ; Un-retract
SET_PRESSURE_ADVANCE ADVANCE=0.0285 ; Set pressure advance
M117 PA 0.0285
G1 X146.4031 Y102.72 E1.23587 F1800 ; Print pattern wall
G1 X125.1899 Y123.9332 E1.23587 F1800 ; Print pattern wall
G1 E-0.8 F2700 ; Retract
G1 Z0.45 F30000 ; Z hop
G0 X125.7504 Y81.5068 F30000 ; Move to start next pattern wall
G1 Z0.25 F30000 ; Z hop return
G1 E0.8 F2700 ; Un-retract
G1 X146.9636 Y102.72 E1.23587 F1800 ; Print pattern wall
G1 X125.7504 Y123.9332 E1.23587 F1800 ; Print pattern wall
G1 E-0.8 F2700 ; Retract
G1 Z0.45 F30000 ; Z hop
G0 X126.311 Y81.5068 F30000 ; Move to start next pattern wall
G1 Z0.25 F30000 ; Z hop return
G1 E0.8 F2700 ; Un-retract
G1 X147.5242 Y102.72 E1.23587 F1800 ; Print pattern wall
G1 X126.311 Y123.9332 E1.23587 F1800 ; Print pattern wall
G1 E-0.8 F2700 ; Retract
G1 Z0.45 F30000 ; Z hop
G0 X128.761 Y81.5068 F30000 ; Move to next pattern
G1 Z0.25 F30000 ; Z hop return
G1 E0.8 F2700 ; Un-retract
SET_PRESSURE_ADVANCE ADVANCE=0.029 ; Set pressure advance
M117 PA 0.029
G1 X149.9742 Y102.72 E1.23587 F1800 ; Print pattern wall
G1 X128.761 Y123.9332 E1.23587 F1800 ; Print pattern wall
G1 E-0.8 F2700 ; Retract
G1 Z0.45 F30000 ; Z hop
G0 X129.3215 Y81.5068 F30000 ; Move to start next pattern wall
G1 Z0.25 F30000 ; Z hop return
G1 E0.8 F2700 ; Un-retract
G1 X150.5347 Y102.72 E1.23587 F1800 ; Print pattern wall
G1 X129.3215 Y123.9332 E1.23587 F1800 ; Print pattern wall
G1 E-0.8 F2700 ; Retract
G1 Z0.45 F30000 ; Z hop
G0 X129.882 Y81.5068 F30000 ; Move to start next pattern wall
G1 Z0.25 F30000 ; Z hop return
G1 E0.8 F2700 ; Un-retract
G1 X151.0952 Y102.72 E1.23587 F1800 ; Print pattern wall
G1 X129.882 Y123.9332 E1.23587 F1800 ; Print pattern wall
G1 E-0.8 F2700 ; Retract
G1 Z0.45 F30000 ; Z hop
G0 X132.332 Y81.5068 F30000 ; Move to next pattern
G1 Z0.25 F30000 ; Z hop return
G1 E0.8 F2700 ; Un-retract
SET_PRESSURE_ADVANCE ADVANCE=0.0295 ; Set pressure advance
M117 PA 0.0295
G1 X153.5452 Y102.72 E1.23587 F1800 ; Print pattern wall
G1 X132.332 Y123.9332 E1.23587 F1800 ; Print pattern wall
G1 E-0.8 F2700 ; Retract
G1 Z0.45 F30000 ; Z hop
G0 X132.8925 Y81.5068 F30000 ; Move to start next pattern wall
G1 Z0.25 F30000 ; Z hop return
G1 E0.8 F2700 ; Un-retract
G1 X154.1057 Y102.72 E1.23587 F1800 ; Print pattern wall
G1 X132.8925 Y123.9332 E1.23587 F1800 ; Print pattern wall
G1 E-0.8 F2700 ; Retract
G1 Z0.45 F30000 ; Z hop
G0 X133.4531 Y81.5068 F30000 ; Move to start next pattern wall
G1 Z0.25 F30000 ; Z hop return
G1 E0.8 F2700 ; Un-retract
G1 X154.6663 Y102.72 E1.23587 F1800 ; Print pattern wall
G1 X133.4531 Y123.9332 E1.23587 F1800 ; Print pattern wall
G1 E-0.8 F2700 ; Retract
G1 Z0.45 F30000 ; Z hop
G0 X135.9031 Y81.5068 F30000 ; Move to next pattern
G1 Z0.25 F30000 ; Z hop return
G1 E0.8 F2700 ; Un-retract
SET_PRESSURE_ADVANCE ADVANCE=0.03 ; Set pressure advance
M117 PA 0.03
G1 X157.1163 Y102.72 E1.23587 F1800 ; Print pattern wall
G1 X135.9031 Y123.9332 E1.23587 F1800 ; Print pattern wall
G1 E-0.8 F2700 ; Retract
G1 Z0.45 F30000 ; Z hop
G0 X136.4636 Y81.5068 F30000 ; Move to start next pattern wall
G1 Z0.25 F30000 ; Z hop return
G1 E0.8 F2700 ; Un-retract
G1 X157.6768 Y102.72 E1.23587 F1800 ; Print pattern wall
G1 X136.4636 Y123.9332 E1.23587 F1800 ; Print pattern wall
G1 E-0.8 F2700 ; Retract
G1 Z0.45 F30000 ; Z hop
G0 X137.0241 Y81.5068 F30000 ; Move to start next pattern wall
G1 Z0.25 F30000 ; Z hop return
G1 E0.8 F2700 ; Un-retract
G1 X158.2373 Y102.72 E1.23587 F1800 ; Print pattern wall
G1 X137.0241 Y123.9332 E1.23587 F1800 ; Print pattern wall
G1 E-0.8 F2700 ; Retract
G1 Z0.45 F30000 ; Z hop
G0 X64.4821 Y81.5068 F30000 ; Move back to start position
G1 Z0.25 F30000 ; Z hop return
G1 E0.8 F2700 ; Un-retract
M106 S255 ; Set fan speed
G0 Z0.5 F30000 ; Move to layer height
SET_PRESSURE_ADVANCE ADVANCE=0.02 ; Set pressure advance
M117 PA 0.02
G1 X85.6953 Y102.72 E1.23587 F9000 ; Print pattern wall
G1 X64.4821 Y123.9332 E1.23587 F9000 ; Print pattern wall
G1 E-0.8 F2700 ; Retract
G1 Z0.7 F30000 ; Z hop
G0 X65.0427 Y81.5068 F30000 ; Move to start next pattern wall
G1 Z0.5 F30000 ; Z hop return
G1 E0.8 F2700 ; Un-retract
G1 X86.2559 Y102.72 E1.23587 F9000 ; Print pattern wall
G1 X65.0427 Y123.9332 E1.23587 F9000 ; Print pattern wall
G1 E-0.8 F2700 ; Retract
G1 Z0.7 F30000 ; Z hop
G0 X65.6032 Y81.5068 F30000 ; Move to start next pattern wall
G1 Z0.5 F30000 ; Z hop return
G1 E0.8 F2700 ; Un-retract
G1 X86.8164 Y102.72 E1.23587 F9000 ; Print pattern wall
G1 X65.6032 Y123.9332 E1.23587 F9000 ; Print pattern wall
G1 E-0.8 F2700 ; Retract
G1 Z0.7 F30000 ; Z hop
G0 X68.0532 Y81.5068 F30000 ; Move to next pattern
G1 Z0.5 F30000 ; Z hop return
G1 E0.8 F2700 ; Un-retract
SET_PRESSURE_ADVANCE ADVANCE=0.0205 ; Set pressure advance
M117 PA 0.0205
G1 X89.2664 Y102.72 E1.23587 F9000 ; Print pattern wall
G1 X68.0532 Y123.9332 E1.23587 F9000 ; Print pattern wall
G1 E-0.8 F2700 ; Retract
G1 Z0.7 F30000 ; Z hop
G0 X68.6137 Y81.5068 F30000 ; Move to start next pattern wall
G1 Z0.5 F30000 ; Z hop return
G1 E0.8 F2700 ; Un-retract
G1 X89.8269 Y102.72 E1.23587 F9000 ; Print pattern wall
G1 X68.6137 Y123.9332 E1.23587 F9000 ; Print pattern wall
G1 E-0.8 F2700 ; Retract
G1 Z0.7 F30000 ; Z hop
G0 X69.1742 Y81.5068 F30000 ; Move to start next pattern wall
G1 Z0.5 F30000 ; Z hop return
G1 E0.8 F2700 ; Un-retract
G1 X90.3874 Y102.72 E1.23587 F9000 ; Print pattern wall
G1 X69.1742 Y123.9332 E1.23587 F9000 ; Print pattern wall
G1 E-0.8 F2700 ; Retract
G1 Z0.7 F30000 ; Z hop
G0 X71.6242 Y81.5068 F30000 ; Move to next pattern
G1 Z0.5 F30000 ; Z hop return
G1 E0.8 F2700 ; Un-retract
SET_PRESSURE_ADVANCE ADVANCE=0.021 ; Set pressure advance
M117 PA 0.021
G1 X92.8374 Y102.72 E1.23587 F9000 ; Print pattern wall
G1 X71.6242 Y123.9332 E1.23587 F9000 ; Print pattern wall
G1 E-0.8 F2700 ; Retract
G1 Z0.7 F30000 ; Z hop
G0 X72.1848 Y81.5068 F30000 ; Move to start next pattern wall
G1 Z0.5 F30000 ; Z hop return
G1 E0.8 F2700 ; Un-retract
G1 X93.398 Y102.72 E1.23587 F9000 ; Print pattern wall
G1 X72.1848 Y123.9332 E1.23587 F9000 ; Print pattern wall
G1 E-0.8 F2700 ; Retract
G1 Z0.7 F30000 ; Z hop
G0 X72.7453 Y81.5068 F30000 ; Move to start next pattern wall
G1 Z0.5 F30000 ; Z hop return
G1 E0.8 F2700 ; Un-retract
G1 X93.9585 Y102.72 E1.23587 F9000 ; Print pattern wall
G1 X72.7453 Y123.9332 E1.23587 F9000 ; Print pattern wall
G1 E-0.8 F2700 ; Retract
G1 Z0.7 F30000 ; Z hop
G0 X75.1953 Y81.5068 F30000 ; Move to next pattern
G1 Z0.5 F30000 ; Z hop return
G1 E0.8 F2700 ; Un-retract
SET_PRESSURE_ADVANCE ADVANCE=0.0215 ; Set pressure advance
M117 PA 0.0215
G1 X96.4085 Y102.72 E1.23587 F9000 ; Print pattern wall
G1 X75.1953 Y123.9332 E1.23587 F9000 ; Print pattern wall
G1 E-0.8 F2700 ; Retract
G1 Z0.7 F30000 ; Z hop
G0 X75.7558 Y81.5068 F30000 ; Move to start next pattern wall
G1 Z0.5 F30000 ; Z hop return
G1 E0.8 F2700 ; Un-retract
G1 X96.969 Y102.72 E1.23587 F9000 ; Print pattern wall
G1 X75.7558 Y123.9332 E1.23587 F9000 ; Print pattern wall
G1 E-0.8 F2700 ; Retract
G1 Z0.7 F30000 ; Z hop
G0 X76.3163 Y81.5068 F30000 ; Move to start next pattern wall
G1 Z0.5 F30000 ; Z hop return
G1 E0.8 F2700 ; Un-retract
G1 X97.5295 Y102.72 E1.23587 F9000 ; Print pattern wall
G1 X76.3163 Y123.9332 E1.23587 F9000 ; Print pattern wall
G1 E-0.8 F2700 ; Retract
G1 Z0.7 F30000 ; Z hop
G0 X78.7663 Y81.5068 F30000 ; Move to next pattern
G1 Z0.5 F30000 ; Z hop return
G1 E0.8 F2700 ; Un-retract
SET_PRESSURE_ADVANCE ADVANCE=0.022 ; Set pressure advance
M117 PA 0.022
G1 X99.9795 Y102.72 E1.23587 F9000 ; Print pattern wall
G1 X78.7663 Y123.9332 E1.23587 F9000 ; Print pattern wall
G1 E-0.8 F2700 ; Retract
G1 Z0.7 F30000 ; Z hop
G0 X79.3268 Y81.5068 F30000 ; Move to start next pattern wall
G1 Z0.5 F30000 ; Z hop return
G1 E0.8 F2700 ; Un-retract
G1 X100.54 Y102.72 E1.23587 F9000 ; Print pattern wall
G1 X79.3268 Y123.9332 E1.23587 F9000 ; Print pattern wall
G1 E-0.8 F2700 ; Retract
G1 Z0.7 F30000 ; Z hop
G0 X79.8874 Y81.5068 F30000 ; Move to start next pattern wall
G1 Z0.5 F30000 ; Z hop return
G1 E0.8 F2700 ; Un-retract
G1 X101.1006 Y102.72 E1.23587 F9000 ; Print pattern wall
G1 X79.8874 Y123.9332 E1.23587 F9000 ; Print pattern wall
G1 E-0.8 F2700 ; Retract
G1 Z0.7 F30000 ; Z hop
G0 X82.3374 Y81.5068 F30000 ; Move to next pattern
G1 Z0.5 F30000 ; Z hop return
G1 E0.8 F2700 ; Un-retract
SET_PRESSURE_ADVANCE ADVANCE=0.0225 ; Set pressure advance
M117 PA 0.0225
G1 X103.5506 Y102.72 E1.23587 F9000 ; Print pattern wall
G1 X82.3374 Y123.9332 E1.23587 F9000 ; Print pattern wall
G1 E-0.8 F2700 ; Retract
G1 Z0.7 F30000 ; Z hop
G0 X82.8979 Y81.5068 F30000 ; Move to start next pattern wall
G1 Z0.5 F30000 ; Z hop return
G1 E0.8 F2700 ; Un-retract
G1 X104.1111 Y102.72 E1.23587 F9000 ; Print pattern wall
G1 X82.8979 Y123.9332 E1.23587 F9000 ; Print pattern wall
G1 E-0.8 F2700 ; Retract
G1 Z0.7 F30000 ; Z hop
G0 X83.4584 Y81.5068 F30000 ; Move to start next pattern wall
G1 Z0.5 F30000 ; Z hop return
G1 E0.8 F2700 ; Un-retract
G1 X104.6716 Y102.72 E1.23587 F9000 ; Print pattern wall
G1 X83.4584 Y123.9332 E1.23587 F9000 ; Print pattern wall
G1 E-0.8 F2700 ; Retract
G1 Z0.7 F30000 ; Z hop
G0 X85.9084 Y81.5068 F30000 ; Move to next pattern
G1 Z0.5 F30000 ; Z hop return
G1 E0.8 F2700 ; Un-retract
SET_PRESSURE_ADVANCE ADVANCE=0.023 ; Set pressure advance
M117 PA 0.023
G1 X107.1216 Y102.72 E1.23587 F9000 ; Print pattern wall
G1 X85.9084 Y123.9332 E1.23587 F9000 ; Print pattern wall
G1 E-0.8 F2700 ; Retract
G1 Z0.7 F30000 ; Z hop
G0 X86.4689 Y81.5068 F30000 ; Move to start next pattern wall
G1 Z0.5 F30000 ; Z hop return
G1 E0.8 F2700 ; Un-retract
G1 X107.6821 Y102.72 E1.23587 F9000 ; Print pattern wall
G1 X86.4689 Y123.9332 E1.23587 F9000 ; Print pattern wall
G1 E-0.8 F2700 ; Retract
G1 Z0.7 F30000 ; Z hop
G0 X87.0295 Y81.5068 F30000 ; Move to start next pattern wall
G1 Z0.5 F30000 ; Z hop return
G1 E0.8 F2700 ; Un-retract
G1 X108.2427 Y102.72 E1.23587 F9000 ; Print pattern wall
G1 X87.0295 Y123.9332 E1.23587 F9000 ; Print pattern wall
G1 E-0.8 F2700 ; Retract
G1 Z0.7 F30000 ; Z hop
G0 X89.4795 Y81.5068 F30000 ; Move to next pattern
G1 Z0.5 F30000 ; Z hop return
G1 E0.8 F2700 ; Un-retract
SET_PRESSURE_ADVANCE ADVANCE=0.0235 ; Set pressure advance
M117 PA 0.0235
G1 X110.6927 Y102.72 E1.23587 F9000 ; Print pattern wall
G1 X89.4795 Y123.9332 E1.23587 F9000 ; Print pattern wall
G1 E-0.8 F2700 ; Retract
G1 Z0.7 F30000 ; Z hop
G0 X90.04 Y81.5068 F30000 ; Move to start next pattern wall
G1 Z0.5 F30000 ; Z hop return
G1 E0.8 F2700 ; Un-retract
G1 X111.2532 Y102.72 E1.23587 F9000 ; Print pattern wall
G1 X90.04 Y123.9332 E1.23587 F9000 ; Print pattern wall
G1 E-0.8 F2700 ; Retract
G1 Z0.7 F30000 ; Z hop
G0 X90.6005 Y81.5068 F30000 ; Move to start next pattern wall
G1 Z0.5 F30000 ; Z hop return
G1 E0.8 F2700 ; Un-retract
G1 X111.8137 Y102.72 E1.23587 F9000 ; Print pattern wall
G1 X90.6005 Y123.9332 E1.23587 F9000 ; Print pattern wall
G1 E-0.8 F2700 ; Retract
G1 Z0.7 F30000 ; Z hop
G0 X93.0505 Y81.5068 F30000 ; Move to next pattern
G1 Z0.5 F30000 ; Z hop return
G1 E0.8 F2700 ; Un-retract
SET_PRESSURE_ADVANCE ADVANCE=0.024 ; Set pressure advance
M117 PA 0.024
G1 X114.2637 Y102.72 E1.23587 F9000 ; Print pattern wall
G1 X93.0505 Y123.9332 E1.23587 F9000 ; Print pattern wall
G1 E-0.8 F2700 ; Retract
G1 Z0.7 F30000 ; Z hop
G0 X93.611 Y81.5068 F30000 ; Move to start next pattern wall
G1 Z0.5 F30000 ; Z hop return
G1 E0.8 F2700 ; Un-retract
G1 X114.8242 Y102.72 E1.23587 F9000 ; Print pattern wall
G1 X93.611 Y123.9332 E1.23587 F9000 ; Print pattern wall
G1 E-0.8 F2700 ; Retract
G1 Z0.7 F30000 ; Z hop
G0 X94.1716 Y81.5068 F30000 ; Move to start next pattern wall
G1 Z0.5 F30000 ; Z hop return
G1 E0.8 F2700 ; Un-retract
G1 X115.3848 Y102.72 E1.23587 F9000 ; Print pattern wall
G1 X94.1716 Y123.9332 E1.23587 F9000 ; Print pattern wall
G1 E-0.8 F2700 ; Retract
G1 Z0.7 F30000 ; Z hop
G0 X96.6216 Y81.5068 F30000 ; Move to next pattern
G1 Z0.5 F30000 ; Z hop return
G1 E0.8 F2700 ; Un-retract
SET_PRESSURE_ADVANCE ADVANCE=0.0245 ; Set pressure advance
M117 PA 0.0245
G1 X117.8348 Y102.72 E1.23587 F9000 ; Print pattern wall
G1 X96.6216 Y123.9332 E1.23587 F9000 ; Print pattern wall
G1 E-0.8 F2700 ; Retract
G1 Z0.7 F30000 ; Z hop
G0 X97.1821 Y81.5068 F30000 ; Move to start next pattern wall
G1 Z0.5 F30000 ; Z hop return
G1 E0.8 F2700 ; Un-retract
G1 X118.3953 Y102.72 E1.23587 F9000 ; Print pattern wall
G1 X97.1821 Y123.9332 E1.23587 F9000 ; Print pattern wall
G1 E-0.8 F2700 ; Retract
G1 Z0.7 F30000 ; Z hop
G0 X97.7426 Y81.5068 F30000 ; Move to start next pattern wall
G1 Z0.5 F30000 ; Z hop return
G1 E0.8 F2700 ; Un-retract
G1 X118.9558 Y102.72 E1.23587 F9000 ; Print pattern wall
G1 X97.7426 Y123.9332 E1.23587 F9000 ; Print pattern wall
G1 E-0.8 F2700 ; Retract
G1 Z0.7 F30000 ; Z hop
G0 X100.1926 Y81.5068 F30000 ; Move to next pattern
G1 Z0.5 F30000 ; Z hop return
G1 E0.8 F2700 ; Un-retract
SET_PRESSURE_ADVANCE ADVANCE=0.025 ; Set pressure advance
M117 PA 0.025
G1 X121.4058 Y102.72 E1.23587 F9000 ; Print pattern wall
G1 X100.1926 Y123.9332 E1.23587 F9000 ; Print pattern wall
G1 E-0.8 F2700 ; Retract
G1 Z0.7 F30000 ; Z hop
G0 X100.7531 Y81.5068 F30000 ; Move to start next pattern wall
G1 Z0.5 F30000 ; Z hop return
G1 E0.8 F2700 ; Un-retract
G1 X121.9663 Y102.72 E1.23587 F9000 ; Print pattern wall
G1 X100.7531 Y123.9332 E1.23587 F9000 ; Print pattern wall
G1 E-0.8 F2700 ; Retract
G1 Z0.7 F30000 ; Z hop
G0 X101.3136 Y81.5068 F30000 ; Move to start next pattern wall
G1 Z0.5 F30000 ; Z hop return
G1 E0.8 F2700 ; Un-retract
G1 X122.5268 Y102.72 E1.23587 F9000 ; Print pattern wall
G1 X101.3136 Y123.9332 E1.23587 F9000 ; Print pattern wall
G1 E-0.8 F2700 ; Retract
G1 Z0.7 F30000 ; Z hop
G0 X103.7636 Y81.5068 F30000 ; Move to next pattern
G1 Z0.5 F30000 ; Z hop return
G1 E0.8 F2700 ; Un-retract
SET_PRESSURE_ADVANCE ADVANCE=0.0255 ; Set pressure advance
M117 PA 0.0255
G1 X124.9768 Y102.72 E1.23587 F9000 ; Print pattern wall
G1 X103.7636 Y123.9332 E1.23587 F9000 ; Print pattern wall
G1 E-0.8 F2700 ; Retract
G1 Z0.7 F30000 ; Z hop
G0 X104.3242 Y81.5068 F30000 ; Move to start next pattern wall
G1 Z0.5 F30000 ; Z hop return
G1 E0.8 F2700 ; Un-retract
G1 X125.5374 Y102.72 E1.23587 F9000 ; Print pattern wall
G1 X104.3242 Y123.9332 E1.23587 F9000 ; Print pattern wall
G1 E-0.8 F2700 ; Retract
G1 Z0.7 F30000 ; Z hop
G0 X104.8847 Y81.5068 F30000 ; Move to start next pattern wall
G1 Z0.5 F30000 ; Z hop return
G1 E0.8 F2700 ; Un-retract
G1 X126.0979 Y102.72 E1.23587 F9000 ; Print pattern wall
G1 X104.8847 Y123.9332 E1.23587 F9000 ; Print pattern wall
G1 E-0.8 F2700 ; Retract
G1 Z0.7 F30000 ; Z hop
G0 X107.3347 Y81.5068 F30000 ; Move to next pattern
G1 Z0.5 F30000 ; Z hop return
G1 E0.8 F2700 ; Un-retract
SET_PRESSURE_ADVANCE ADVANCE=0.026 ; Set pressure advance
M117 PA 0.026
G1 X128.5479 Y102.72 E1.23587 F9000 ; Print pattern wall
G1 X107.3347 Y123.9332 E1.23587 F9000 ; Print pattern wall
G1 E-0.8 F2700 ; Retract
G1 Z0.7 F30000 ; Z hop
G0 X107.8952 Y81.5068 F30000 ; Move to start next pattern wall
G1 Z0.5 F30000 ; Z hop return
G1 E0.8 F2700 ; Un-retract
G1 X129.1084 Y102.72 E1.23587 F9000 ; Print pattern wall
G1 X107.8952 Y123.9332 E1.23587 F9000 ; Print pattern wall
G1 E-0.8 F2700 ; Retract
G1 Z0.7 F30000 ; Z hop
G0 X108.4557 Y81.5068 F30000 ; Move to start next pattern wall
G1 Z0.5 F30000 ; Z hop return
G1 E0.8 F2700 ; Un-retract
G1 X129.6689 Y102.72 E1.23587 F9000 ; Print pattern wall
G1 X108.4557 Y123.9332 E1.23587 F9000 ; Print pattern wall
G1 E-0.8 F2700 ; Retract
G1 Z0.7 F30000 ; Z hop
G0 X110.9057 Y81.5068 F30000 ; Move to next pattern
G1 Z0.5 F30000 ; Z hop return
G1 E0.8 F2700 ; Un-retract
SET_PRESSURE_ADVANCE ADVANCE=0.0265 ; Set pressure advance
M117 PA 0.0265
G1 X132.1189 Y102.72 E1.23587 F9000 ; Print pattern wall
G1 X110.9057 Y123.9332 E1.23587 F9000 ; Print pattern wall
G1 E-0.8 F2700 ; Retract
G1 Z0.7 F30000 ; Z hop
G0 X111.4663 Y81.5068 F30000 ; Move to start next pattern wall
G1 Z0.5 F30000 ; Z hop return
G1 E0.8 F2700 ; Un-retract
G1 X132.6795 Y102.72 E1.23587 F9000 ; Print pattern wall
G1 X111.4663 Y123.9332 E1.23587 F9000 ; Print pattern wall
G1 E-0.8 F2700 ; Retract
G1 Z0.7 F30000 ; Z hop
G0 X112.0268 Y81.5068 F30000 ; Move to start next pattern wall
G1 Z0.5 F30000 ; Z hop return
G1 E0.8 F2700 ; Un-retract
G1 X133.24 Y102.72 E1.23587 F9000 ; Print pattern wall
G1 X112.0268 Y123.9332 E1.23587 F9000 ; Print pattern wall
G1 E-0.8 F2700 ; Retract
G1 Z0.7 F30000 ; Z hop
G0 X114.4768 Y81.5068 F30000 ; Move to next pattern
G1 Z0.5 F30000 ; Z hop return
G1 E0.8 F2700 ; Un-retract
SET_PRESSURE_ADVANCE ADVANCE=0.027 ; Set pressure advance
M117 PA 0.027
G1 X135.69 Y102.72 E1.23587 F9000 ; Print pattern wall
G1 X114.4768 Y123.9332 E1.23587 F9000 ; Print pattern wall
G1 E-0.8 F2700 ; Retract
G1 Z0.7 F30000 ; Z hop
G0 X115.0373 Y81.5068 F30000 ; Move to start next pattern wall
G1 Z0.5 F30000 ; Z hop return
G1 E0.8 F2700 ; Un-retract
G1 X136.2505 Y102.72 E1.23587 F9000 ; Print pattern wall
G1 X115.0373 Y123.9332 E1.23587 F9000 ; Print pattern wall
G1 E-0.8 F2700 ; Retract
G1 Z0.7 F30000 ; Z hop
G0 X115.5978 Y81.5068 F30000 ; Move to start next pattern wall
G1 Z0.5 F30000 ; Z hop return
G1 E0.8 F2700 ; Un-retract
G1 X136.811 Y102.72 E1.23587 F9000 ; Print pattern wall
G1 X115.5978 Y123.9332 E1.23587 F9000 ; Print pattern wall
G1 E-0.8 F2700 ; Retract
G1 Z0.7 F30000 ; Z hop
G0 X118.0478 Y81.5068 F30000 ; Move to next pattern
G1 Z0.5 F30000 ; Z hop return
G1 E0.8 F2700 ; Un-retract
SET_PRESSURE_ADVANCE ADVANCE=0.0275 ; Set pressure advance
M117 PA 0.0275
G1 X139.261 Y102.72 E1.23587 F9000 ; Print pattern wall
G1 X118.0478 Y123.9332 E1.23587 F9000 ; Print pattern wall
G1 E-0.8 F2700 ; Retract
G1 Z0.7 F30000 ; Z hop
G0 X118.6083 Y81.5068 F30000 ; Move to start next pattern wall
G1 Z0.5 F30000 ; Z hop return
G1 E0.8 F2700 ; Un-retract
G1 X139.8216 Y102.72 E1.23587 F9000 ; Print pattern wall
G1 X118.6083 Y123.9332 E1.23587 F9000 ; Print pattern wall
G1 E-0.8 F2700 ; Retract
G1 Z0.7 F30000 ; Z hop
G0 X119.1689 Y81.5068 F30000 ; Move to start next pattern wall
G1 Z0.5 F30000 ; Z hop return
G1 E0.8 F2700 ; Un-retract
G1 X140.3821 Y102.72 E1.23587 F9000 ; Print pattern wall
G1 X119.1689 Y123.9332 E1.23587 F9000 ; Print pattern wall
G1 E-0.8 F2700 ; Retract
G1 Z0.7 F30000 ; Z hop
G0 X121.6189 Y81.5068 F30000 ; Move to next pattern
G1 Z0.5 F30000 ; Z hop return
G1 E0.8 F2700 ; Un-retract
SET_PRESSURE_ADVANCE ADVANCE=0.028 ; Set pressure advance
M117 PA 0.028
G1 X142.8321 Y102.72 E1.23587 F9000 ; Print pattern wall
G1 X121.6189 Y123.9332 E1.23587 F9000 ; Print pattern wall
G1 E-0.8 F2700 ; Retract
G1 Z0.7 F30000 ; Z hop
G0 X122.1794 Y81.5068 F30000 ; Move to start next pattern wall
G1 Z0.5 F30000 ; Z hop return
G1 E0.8 F2700 ; Un-retract
G1 X143.3926 Y102.72 E1.23587 F9000 ; Print pattern wall
G1 X122.1794 Y123.9332 E1.23587 F9000 ; Print pattern wall
G1 E-0.8 F2700 ; Retract
G1 Z0.7 F30000 ; Z hop
G0 X122.7399 Y81.5068 F30000 ; Move to start next pattern wall
G1 Z0.5 F30000 ; Z hop return
G1 E0.8 F2700 ; Un-retract
G1 X143.9531 Y102.72 E1.23587 F9000 ; Print pattern wall
G1 X122.7399 Y123.9332 E1.23587 F9000 ; Print pattern wall
G1 E-0.8 F2700 ; Retract
G1 Z0.7 F30000 ; Z hop
G0 X125.1899 Y81.5068 F30000 ; Move to next pattern
G1 Z0.5 F30000 ; Z hop return
G1 E0.8 F2700 ; Un-retract
SET_PRESSURE_ADVANCE ADVANCE=0.0285 ; Set pressure advance
M117 PA 0.0285
G1 X146.4031 Y102.72 E1.23587 F9000 ; Print pattern wall
G1 X125.1899 Y123.9332 E1.23587 F9000 ; Print pattern wall
G1 E-0.8 F2700 ; Retract
G1 Z0.7 F30000 ; Z hop
G0 X125.7504 Y81.5068 F30000 ; Move to start next pattern wall
G1 Z0.5 F30000 ; Z hop return
G1 E0.8 F2700 ; Un-retract
G1 X146.9636 Y102.72 E1.23587 F9000 ; Print pattern wall
G1 X125.7504 Y123.9332 E1.23587 F9000 ; Print pattern wall
G1 E-0.8 F2700 ; Retract
G1 Z0.7 F30000 ; Z hop
G0 X126.311 Y81.5068 F30000 ; Move to start next pattern wall
G1 Z0.5 F30000 ; Z hop return
G1 E0.8 F2700 ; Un-retract
G1 X147.5242 Y102.72 E1.23587 F9000 ; Print pattern wall
G1 X126.311 Y123.9332 E1.23587 F9000 ; Print pattern wall
G1 E-0.8 F2700 ; Retract
G1 Z0.7 F30000 ; Z hop
G0 X128.761 Y81.5068 F30000 ; Move to next pattern
G1 Z0.5 F30000 ; Z hop return
G1 E0.8 F2700 ; Un-retract
SET_PRESSURE_ADVANCE ADVANCE=0.029 ; Set pressure advance
M117 PA 0.029
G1 X149.9742 Y102.72 E1.23587 F9000 ; Print pattern wall
G1 X128.761 Y123.9332 E1.23587 F9000 ; Print pattern wall
G1 E-0.8 F2700 ; Retract
G1 Z0.7 F30000 ; Z hop
G0 X129.3215 Y81.5068 F30000 ; Move to start next pattern wall
G1 Z0.5 F30000 ; Z hop return
G1 E0.8 F2700 ; Un-retract
G1 X150.5347 Y102.72 E1.23587 F9000 ; Print pattern wall
G1 X129.3215 Y123.9332 E1.23587 F9000 ; Print pattern wall
G1 E-0.8 F2700 ; Retract
G1 Z0.7 F30000 ; Z hop
G0 X129.882 Y81.5068 F30000 ; Move to start next pattern wall
G1 Z0.5 F30000 ; Z hop return
G1 E0.8 F2700 ; Un-retract
G1 X151.0952 Y102.72 E1.23587 F9000 ; Print pattern wall
G1 X129.882 Y123.9332 E1.23587 F9000 ; Print pattern wall
G1 E-0.8 F2700 ; Retract
G1 Z0.7 F30000 ; Z hop
G0 X132.332 Y81.5068 F30000 ; Move to next pattern
G1 Z0.5 F30000 ; Z hop return
G1 E0.8 F2700 ; Un-retract
SET_PRESSURE_ADVANCE ADVANCE=0.0295 ; Set pressure advance
M117 PA 0.0295
G1 X153.5452 Y102.72 E1.23587 F9000 ; Print pattern wall
G1 X132.332 Y123.9332 E1.23587 F9000 ; Print pattern wall
G1 E-0.8 F2700 ; Retract
G1 Z0.7 F30000 ; Z hop
G0 X132.8925 Y81.5068 F30000 ; Move to start next pattern wall
G1 Z0.5 F30000 ; Z hop return
G1 E0.8 F2700 ; Un-retract
G1 X154.1057 Y102.72 E1.23587 F9000 ; Print pattern wall
G1 X132.8925 Y123.9332 E1.23587 F9000 ; Print pattern wall
G1 E-0.8 F2700 ; Retract
G1 Z0.7 F30000 ; Z hop
G0 X133.4531 Y81.5068 F30000 ; Move to start next pattern wall
G1 Z0.5 F30000 ; Z hop return
G1 E0.8 F2700 ; Un-retract
G1 X154.6663 Y102.72 E1.23587 F9000 ; Print pattern wall
G1 X133.4531 Y123.9332 E1.23587 F9000 ; Print pattern wall
G1 E-0.8 F2700 ; Retract
G1 Z0.7 F30000 ; Z hop
G0 X135.9031 Y81.5068 F30000 ; Move to next pattern
G1 Z0.5 F30000 ; Z hop return
G1 E0.8 F2700 ; Un-retract
SET_PRESSURE_ADVANCE ADVANCE=0.03 ; Set pressure advance
M117 PA 0.03
G1 X157.1163 Y102.72 E1.23587 F9000 ; Print pattern wall
G1 X135.9031 Y123.9332 E1.23587 F9000 ; Print pattern wall
G1 E-0.8 F2700 ; Retract
G1 Z0.7 F30000 ; Z hop
G0 X136.4636 Y81.5068 F30000 ; Move to start next pattern wall
G1 Z0.5 F30000 ; Z hop return
G1 E0.8 F2700 ; Un-retract
G1 X157.6768 Y102.72 E1.23587 F9000 ; Print pattern wall
G1 X136.4636 Y123.9332 E1.23587 F9000 ; Print pattern wall
G1 E-0.8 F2700 ; Retract
G1 Z0.7 F30000 ; Z hop
G0 X137.0241 Y81.5068 F30000 ; Move to start next pattern wall
G1 Z0.5 F30000 ; Z hop return
G1 E0.8 F2700 ; Un-retract
G1 X158.2373 Y102.72 E1.23587 F9000 ; Print pattern wall
G1 X137.0241 Y123.9332 E1.23587 F9000 ; Print pattern wall
G1 E-0.8 F2700 ; Retract
G1 Z0.7 F30000 ; Z hop
G0 X64.4821 Y81.5068 F30000 ; Move back to start position
G1 Z0.5 F30000 ; Z hop return
G1 E0.8 F2700 ; Un-retract
G0 Z0.75 F30000 ; Move to layer height
SET_PRESSURE_ADVANCE ADVANCE=0.02 ; Set pressure advance
M117 PA 0.02
G1 X85.6953 Y102.72 E1.23587 F9000 ; Print pattern wall
G1 X64.4821 Y123.9332 E1.23587 F9000 ; Print pattern wall
G1 E-0.8 F2700 ; Retract
G1 Z0.95 F30000 ; Z hop
G0 X65.0427 Y81.5068 F30000 ; Move to start next pattern wall
G1 Z0.75 F30000 ; Z hop return
G1 E0.8 F2700 ; Un-retract
G1 X86.2559 Y102.72 E1.23587 F9000 ; Print pattern wall
G1 X65.0427 Y123.9332 E1.23587 F9000 ; Print pattern wall
G1 E-0.8 F2700 ; Retract
G1 Z0.95 F30000 ; Z hop
G0 X65.6032 Y81.5068 F30000 ; Move to start next pattern wall
G1 Z0.75 F30000 ; Z hop return
G1 E0.8 F2700 ; Un-retract
G1 X86.8164 Y102.72 E1.23587 F9000 ; Print pattern wall
G1 X65.6032 Y123.9332 E1.23587 F9000 ; Print pattern wall
G1 E-0.8 F2700 ; Retract
G1 Z0.95 F30000 ; Z hop
G0 X68.0532 Y81.5068 F30000 ; Move to next pattern
G1 Z0.75 F30000 ; Z hop return
G1 E0.8 F2700 ; Un-retract
SET_PRESSURE_ADVANCE ADVANCE=0.0205 ; Set pressure advance
M117 PA 0.0205
G1 X89.2664 Y102.72 E1.23587 F9000 ; Print pattern wall
G1 X68.0532 Y123.9332 E1.23587 F9000 ; Print pattern wall
G1 E-0.8 F2700 ; Retract
G1 Z0.95 F30000 ; Z hop
G0 X68.6137 Y81.5068 F30000 ; Move to start next pattern wall
G1 Z0.75 F30000 ; Z hop return
G1 E0.8 F2700 ; Un-retract
G1 X89.8269 Y102.72 E1.23587 F9000 ; Print pattern wall
G1 X68.6137 Y123.9332 E1.23587 F9000 ; Print pattern wall
G1 E-0.8 F2700 ; Retract
G1 Z0.95 F30000 ; Z hop
G0 X69.1742 Y81.5068 F30000 ; Move to start next pattern wall
G1 Z0.75 F30000 ; Z hop return
G1 E0.8 F2700 ; Un-retract
G1 X90.3874 Y102.72 E1.23587 F9000 ; Print pattern wall
G1 X69.1742 Y123.9332 E1.23587 F9000 ; Print pattern wall
G1 E-0.8 F2700 ; Retract
G1 Z0.95 F30000 ; Z hop
G0 X71.6242 Y81.5068 F30000 ; Move to next pattern
G1 Z0.75 F30000 ; Z hop return
G1 E0.8 F2700 ; Un-retract
SET_PRESSURE_ADVANCE ADVANCE=0.021 ; Set pressure advance
M117 PA 0.021
G1 X92.8374 Y102.72 E1.23587 F9000 ; Print pattern wall
G1 X71.6242 Y123.9332 E1.23587 F9000 ; Print pattern wall
G1 E-0.8 F2700 ; Retract
G1 Z0.95 F30000 ; Z hop
G0 X72.1848 Y81.5068 F30000 ; Move to start next pattern wall
G1 Z0.75 F30000 ; Z hop return
G1 E0.8 F2700 ; Un-retract
G1 X93.398 Y102.72 E1.23587 F9000 ; Print pattern wall
G1 X72.1848 Y123.9332 E1.23587 F9000 ; Print pattern wall
G1 E-0.8 F2700 ; Retract
G1 Z0.95 F30000 ; Z hop
G0 X72.7453 Y81.5068 F30000 ; Move to start next pattern wall
G1 Z0.75 F30000 ; Z hop return
G1 E0.8 F2700 ; Un-retract
G1 X93.9585 Y102.72 E1.23587 F9000 ; Print pattern wall
G1 X72.7453 Y123.9332 E1.23587 F9000 ; Print pattern wall
G1 E-0.8 F2700 ; Retract
G1 Z0.95 F30000 ; Z hop
G0 X75.1953 Y81.5068 F30000 ; Move to next pattern
G1 Z0.75 F30000 ; Z hop return
G1 E0.8 F2700 ; Un-retract
SET_PRESSURE_ADVANCE ADVANCE=0.0215 ; Set pressure advance
M117 PA 0.0215
G1 X96.4085 Y102.72 E1.23587 F9000 ; Print pattern wall
G1 X75.1953 Y123.9332 E1.23587 F9000 ; Print pattern wall
G1 E-0.8 F2700 ; Retract
G1 Z0.95 F30000 ; Z hop
G0 X75.7558 Y81.5068 F30000 ; Move to start next pattern wall
G1 Z0.75 F30000 ; Z hop return
G1 E0.8 F2700 ; Un-retract
G1 X96.969 Y102.72 E1.23587 F9000 ; Print pattern wall
G1 X75.7558 Y123.9332 E1.23587 F9000 ; Print pattern wall
G1 E-0.8 F2700 ; Retract
G1 Z0.95 F30000 ; Z hop
G0 X76.3163 Y81.5068 F30000 ; Move to start next pattern wall
G1 Z0.75 F30000 ; Z hop return
G1 E0.8 F2700 ; Un-retract
G1 X97.5295 Y102.72 E1.23587 F9000 ; Print pattern wall
G1 X76.3163 Y123.9332 E1.23587 F9000 ; Print pattern wall
G1 E-0.8 F2700 ; Retract
G1 Z0.95 F30000 ; Z hop
G0 X78.7663 Y81.5068 F30000 ; Move to next pattern
G1 Z0.75 F30000 ; Z hop return
G1 E0.8 F2700 ; Un-retract
SET_PRESSURE_ADVANCE ADVANCE=0.022 ; Set pressure advance
M117 PA 0.022
G1 X99.9795 Y102.72 E1.23587 F9000 ; Print pattern wall
G1 X78.7663 Y123.9332 E1.23587 F9000 ; Print pattern wall
G1 E-0.8 F2700 ; Retract
G1 Z0.95 F30000 ; Z hop
G0 X79.3268 Y81.5068 F30000 ; Move to start next pattern wall
G1 Z0.75 F30000 ; Z hop return
G1 E0.8 F2700 ; Un-retract
G1 X100.54 Y102.72 E1.23587 F9000 ; Print pattern wall
G1 X79.3268 Y123.9332 E1.23587 F9000 ; Print pattern wall
G1 E-0.8 F2700 ; Retract
G1 Z0.95 F30000 ; Z hop
G0 X79.8874 Y81.5068 F30000 ; Move to start next pattern wall
G1 Z0.75 F30000 ; Z hop return
G1 E0.8 F2700 ; Un-retract
G1 X101.1006 Y102.72 E1.23587 F9000 ; Print pattern wall
G1 X79.8874 Y123.9332 E1.23587 F9000 ; Print pattern wall
G1 E-0.8 F2700 ; Retract
G1 Z0.95 F30000 ; Z hop
G0 X82.3374 Y81.5068 F30000 ; Move to next pattern
G1 Z0.75 F30000 ; Z hop return
G1 E0.8 F2700 ; Un-retract
SET_PRESSURE_ADVANCE ADVANCE=0.0225 ; Set pressure advance
M117 PA 0.0225
G1 X103.5506 Y102.72 E1.23587 F9000 ; Print pattern wall
G1 X82.3374 Y123.9332 E1.23587 F9000 ; Print pattern wall
G1 E-0.8 F2700 ; Retract
G1 Z0.95 F30000 ; Z hop
G0 X82.8979 Y81.5068 F30000 ; Move to start next pattern wall
G1 Z0.75 F30000 ; Z hop return
G1 E0.8 F2700 ; Un-retract
G1 X104.1111 Y102.72 E1.23587 F9000 ; Print pattern wall
G1 X82.8979 Y123.9332 E1.23587 F9000 ; Print pattern wall
G1 E-0.8 F2700 ; Retract
G1 Z0.95 F30000 ; Z hop
G0 X83.4584 Y81.5068 F30000 ; Move to start next pattern wall
G1 Z0.75 F30000 ; Z hop return
G1 E0.8 F2700 ; Un-retract
G1 X104.6716 Y102.72 E1.23587 F9000 ; Print pattern wall
G1 X83.4584 Y123.9332 E1.23587 F9000 ; Print pattern wall
G1 E-0.8 F2700 ; Retract
G1 Z0.95 F30000 ; Z hop
G0 X85.9084 Y81.5068 F30000 ; Move to next pattern
G1 Z0.75 F30000 ; Z hop return
G1 E0.8 F2700 ; Un-retract
SET_PRESSURE_ADVANCE ADVANCE=0.023 ; Set pressure advance
M117 PA 0.023
G1 X107.1216 Y102.72 E1.23587 F9000 ; Print pattern wall
G1 X85.9084 Y123.9332 E1.23587 F9000 ; Print pattern wall
G1 E-0.8 F2700 ; Retract
G1 Z0.95 F30000 ; Z hop
G0 X86.4689 Y81.5068 F30000 ; Move to start next pattern wall
G1 Z0.75 F30000 ; Z hop return
G1 E0.8 F2700 ; Un-retract
G1 X107.6821 Y102.72 E1.23587 F9000 ; Print pattern wall
G1 X86.4689 Y123.9332 E1.23587 F9000 ; Print pattern wall
G1 E-0.8 F2700 ; Retract
G1 Z0.95 F30000 ; Z hop
G0 X87.0295 Y81.5068 F30000 ; Move to start next pattern wall
G1 Z0.75 F30000 ; Z hop return
G1 E0.8 F2700 ; Un-retract
G1 X108.2427 Y102.72 E1.23587 F9000 ; Print pattern wall
G1 X87.0295 Y123.9332 E1.23587 F9000 ; Print pattern wall
G1 E-0.8 F2700 ; Retract
G1 Z0.95 F30000 ; Z hop
G0 X89.4795 Y81.5068 F30000 ; Move to next pattern
G1 Z0.75 F30000 ; Z hop return
G1 E0.8 F2700 ; Un-retract
SET_PRESSURE_ADVANCE ADVANCE=0.0235 ; Set pressure advance
M117 PA 0.0235
G1 X110.6927 Y102.72 E1.23587 F9000 ; Print pattern wall
G1 X89.4795 Y123.9332 E1.23587 F9000 ; Print pattern wall
G1 E-0.8 F2700 ; Retract
G1 Z0.95 F30000 ; Z hop
G0 X90.04 Y81.5068 F30000 ; Move to start next pattern wall
G1 Z0.75 F30000 ; Z hop return
G1 E0.8 F2700 ; Un-retract
G1 X111.2532 Y102.72 E1.23587 F9000 ; Print pattern wall
G1 X90.04 Y123.9332 E1.23587 F9000 ; Print pattern wall
G1 E-0.8 F2700 ; Retract
G1 Z0.95 F30000 ; Z hop
G0 X90.6005 Y81.5068 F30000 ; Move to start next pattern wall
G1 Z0.75 F30000 ; Z hop return
G1 E0.8 F2700 ; Un-retract
G1 X111.8137 Y102.72 E1.23587 F9000 ; Print pattern wall
G1 X90.6005 Y123.9332 E1.23587 F9000 ; Print pattern wall
G1 E-0.8 F2700 ; Retract
G1 Z0.95 F30000 ; Z hop
G0 X93.0505 Y81.5068 F30000 ; Move to next pattern
G1 Z0.75 F30000 ; Z hop return
G1 E0.8 F2700 ; Un-retract
SET_PRESSURE_ADVANCE ADVANCE=0.024 ; Set pressure advance
M117 PA 0.024
G1 X114.2637 Y102.72 E1.23587 F9000 ; Print pattern wall
G1 X93.0505 Y123.9332 E1.23587 F9000 ; Print pattern wall
G1 E-0.8 F2700 ; Retract
G1 Z0.95 F30000 ; Z hop
G0 X93.611 Y81.5068 F30000 ; Move to start next pattern wall
G1 Z0.75 F30000 ; Z hop return
G1 E0.8 F2700 ; Un-retract
G1 X114.8242 Y102.72 E1.23587 F9000 ; Print pattern wall
G1 X93.611 Y123.9332 E1.23587 F9000 ; Print pattern wall
G1 E-0.8 F2700 ; Retract
G1 Z0.95 F30000 ; Z hop
G0 X94.1716 Y81.5068 F30000 ; Move to start next pattern wall
G1 Z0.75 F30000 ; Z hop return
G1 E0.8 F2700 ; Un-retract
G1 X115.3848 Y102.72 E1.23587 F9000 ; Print pattern wall
G1 X94.1716 Y123.9332 E1.23587 F9000 ; Print pattern wall
G1 E-0.8 F2700 ; Retract
G1 Z0.95 F30000 ; Z hop
G0 X96.6216 Y81.5068 F30000 ; Move to next pattern
G1 Z0.75 F30000 ; Z hop return
G1 E0.8 F2700 ; Un-retract
SET_PRESSURE_ADVANCE ADVANCE=0.0245 ; Set pressure advance
M117 PA 0.0245
G1 X117.8348 Y102.72 E1.23587 F9000 ; Print pattern wall
G1 X96.6216 Y123.9332 E1.23587 F9000 ; Print pattern wall
G1 E-0.8 F2700 ; Retract
G1 Z0.95 F30000 ; Z hop
G0 X97.1821 Y81.5068 F30000 ; Move to start next pattern wall
G1 Z0.75 F30000 ; Z hop return
G1 E0.8 F2700 ; Un-retract
G1 X118.3953 Y102.72 E1.23587 F9000 ; Print pattern wall
G1 X97.1821 Y123.9332 E1.23587 F9000 ; Print pattern wall
G1 E-0.8 F2700 ; Retract
G1 Z0.95 F30000 ; Z hop
G0 X97.7426 Y81.5068 F30000 ; Move to start next pattern wall
G1 Z0.75 F30000 ; Z hop return
G1 E0.8 F2700 ; Un-retract
G1 X118.9558 Y102.72 E1.23587 F9000 ; Print pattern wall
G1 X97.7426 Y123.9332 E1.23587 F9000 ; Print pattern wall
G1 E-0.8 F2700 ; Retract
G1 Z0.95 F30000 ; Z hop
G0 X100.1926 Y81.5068 F30000 ; Move to next pattern
G1 Z0.75 F30000 ; Z hop return
G1 E0.8 F2700 ; Un-retract
SET_PRESSURE_ADVANCE ADVANCE=0.025 ; Set pressure advance
M117 PA 0.025
G1 X121.4058 Y102.72 E1.23587 F9000 ; Print pattern wall
G1 X100.1926 Y123.9332 E1.23587 F9000 ; Print pattern wall
G1 E-0.8 F2700 ; Retract
G1 Z0.95 F30000 ; Z hop
G0 X100.7531 Y81.5068 F30000 ; Move to start next pattern wall
G1 Z0.75 F30000 ; Z hop return
G1 E0.8 F2700 ; Un-retract
G1 X121.9663 Y102.72 E1.23587 F9000 ; Print pattern wall
G1 X100.7531 Y123.9332 E1.23587 F9000 ; Print pattern wall
G1 E-0.8 F2700 ; Retract
G1 Z0.95 F30000 ; Z hop
G0 X101.3136 Y81.5068 F30000 ; Move to start next pattern wall
G1 Z0.75 F30000 ; Z hop return
G1 E0.8 F2700 ; Un-retract
G1 X122.5268 Y102.72 E1.23587 F9000 ; Print pattern wall
G1 X101.3136 Y123.9332 E1.23587 F9000 ; Print pattern wall
G1 E-0.8 F2700 ; Retract
G1 Z0.95 F30000 ; Z hop
G0 X103.7636 Y81.5068 F30000 ; Move to next pattern
G1 Z0.75 F30000 ; Z hop return
G1 E0.8 F2700 ; Un-retract
SET_PRESSURE_ADVANCE ADVANCE=0.0255 ; Set pressure advance
M117 PA 0.0255
G1 X124.9768 Y102.72 E1.23587 F9000 ; Print pattern wall
G1 X103.7636 Y123.9332 E1.23587 F9000 ; Print pattern wall
G1 E-0.8 F2700 ; Retract
G1 Z0.95 F30000 ; Z hop
G0 X104.3242 Y81.5068 F30000 ; Move to start next pattern wall
G1 Z0.75 F30000 ; Z hop return
G1 E0.8 F2700 ; Un-retract
G1 X125.5374 Y102.72 E1.23587 F9000 ; Print pattern wall
G1 X104.3242 Y123.9332 E1.23587 F9000 ; Print pattern wall
G1 E-0.8 F2700 ; Retract
G1 Z0.95 F30000 ; Z hop
G0 X104.8847 Y81.5068 F30000 ; Move to start next pattern wall
G1 Z0.75 F30000 ; Z hop return
G1 E0.8 F2700 ; Un-retract
G1 X126.0979 Y102.72 E1.23587 F9000 ; Print pattern wall
G1 X104.8847 Y123.9332 E1.23587 F9000 ; Print pattern wall
G1 E-0.8 F2700 ; Retract
G1 Z0.95 F30000 ; Z hop
G0 X107.3347 Y81.5068 F30000 ; Move to next pattern
G1 Z0.75 F30000 ; Z hop return
G1 E0.8 F2700 ; Un-retract
SET_PRESSURE_ADVANCE ADVANCE=0.026 ; Set pressure advance
M117 PA 0.026
G1 X128.5479 Y102.72 E1.23587 F9000 ; Print pattern wall
G1 X107.3347 Y123.9332 E1.23587 F9000 ; Print pattern wall
G1 E-0.8 F2700 ; Retract
G1 Z0.95 F30000 ; Z hop
G0 X107.8952 Y81.5068 F30000 ; Move to start next pattern wall
G1 Z0.75 F30000 ; Z hop return
G1 E0.8 F2700 ; Un-retract
G1 X129.1084 Y102.72 E1.23587 F9000 ; Print pattern wall
G1 X107.8952 Y123.9332 E1.23587 F9000 ; Print pattern wall
G1 E-0.8 F2700 ; Retract
G1 Z0.95 F30000 ; Z hop
G0 X108.4557 Y81.5068 F30000 ; Move to start next pattern wall
G1 Z0.75 F30000 ; Z hop return
G1 E0.8 F2700 ; Un-retract
G1 X129.6689 Y102.72 E1.23587 F9000 ; Print pattern wall
G1 X108.4557 Y123.9332 E1.23587 F9000 ; Print pattern wall
G1 E-0.8 F2700 ; Retract
G1 Z0.95 F30000 ; Z hop
G0 X110.9057 Y81.5068 F30000 ; Move to next pattern
G1 Z0.75 F30000 ; Z hop return
G1 E0.8 F2700 ; Un-retract
SET_PRESSURE_ADVANCE ADVANCE=0.0265 ; Set pressure advance
M117 PA 0.0265
G1 X132.1189 Y102.72 E1.23587 F9000 ; Print pattern wall
G1 X110.9057 Y123.9332 E1.23587 F9000 ; Print pattern wall
G1 E-0.8 F2700 ; Retract
G1 Z0.95 F30000 ; Z hop
G0 X111.4663 Y81.5068 F30000 ; Move to start next pattern wall
G1 Z0.75 F30000 ; Z hop return
G1 E0.8 F2700 ; Un-retract
G1 X132.6795 Y102.72 E1.23587 F9000 ; Print pattern wall
G1 X111.4663 Y123.9332 E1.23587 F9000 ; Print pattern wall
G1 E-0.8 F2700 ; Retract
G1 Z0.95 F30000 ; Z hop
G0 X112.0268 Y81.5068 F30000 ; Move to start next pattern wall
G1 Z0.75 F30000 ; Z hop return
G1 E0.8 F2700 ; Un-retract
G1 X133.24 Y102.72 E1.23587 F9000 ; Print pattern wall
G1 X112.0268 Y123.9332 E1.23587 F9000 ; Print pattern wall
G1 E-0.8 F2700 ; Retract
G1 Z0.95 F30000 ; Z hop
G0 X114.4768 Y81.5068 F30000 ; Move to next pattern
G1 Z0.75 F30000 ; Z hop return
G1 E0.8 F2700 ; Un-retract
SET_PRESSURE_ADVANCE ADVANCE=0.027 ; Set pressure advance
M117 PA 0.027
G1 X135.69 Y102.72 E1.23587 F9000 ; Print pattern wall
G1 X114.4768 Y123.9332 E1.23587 F9000 ; Print pattern wall
G1 E-0.8 F2700 ; Retract
G1 Z0.95 F30000 ; Z hop
G0 X115.0373 Y81.5068 F30000 ; Move to start next pattern wall
G1 Z0.75 F30000 ; Z hop return
G1 E0.8 F2700 ; Un-retract
G1 X136.2505 Y102.72 E1.23587 F9000 ; Print pattern wall
G1 X115.0373 Y123.9332 E1.23587 F9000 ; Print pattern wall
G1 E-0.8 F2700 ; Retract
G1 Z0.95 F30000 ; Z hop
G0 X115.5978 Y81.5068 F30000 ; Move to start next pattern wall
G1 Z0.75 F30000 ; Z hop return
G1 E0.8 F2700 ; Un-retract
G1 X136.811 Y102.72 E1.23587 F9000 ; Print pattern wall
G1 X115.5978 Y123.9332 E1.23587 F9000 ; Print pattern wall
G1 E-0.8 F2700 ; Retract
G1 Z0.95 F30000 ; Z hop
G0 X118.0478 Y81.5068 F30000 ; Move to next pattern
G1 Z0.75 F30000 ; Z hop return
G1 E0.8 F2700 ; Un-retract
SET_PRESSURE_ADVANCE ADVANCE=0.0275 ; Set pressure advance
M117 PA 0.0275
G1 X139.261 Y102.72 E1.23587 F9000 ; Print pattern wall
G1 X118.0478 Y123.9332 E1.23587 F9000 ; Print pattern wall
G1 E-0.8 F2700 ; Retract
G1 Z0.95 F30000 ; Z hop
G0 X118.6083 Y81.5068 F30000 ; Move to start next pattern wall
G1 Z0.75 F30000 ; Z hop return
G1 E0.8 F2700 ; Un-retract
G1 X139.8216 Y102.72 E1.23587 F9000 ; Print pattern wall
G1 X118.6083 Y123.9332 E1.23587 F9000 ; Print pattern wall
G1 E-0.8 F2700 ; Retract
G1 Z0.95 F30000 ; Z hop
G0 X119.1689 Y81.5068 F30000 ; Move to start next pattern wall
G1 Z0.75 F30000 ; Z hop return
G1 E0.8 F2700 ; Un-retract
G1 X140.3821 Y102.72 E1.23587 F9000 ; Print pattern wall
G1 X119.1689 Y123.9332 E1.23587 F9000 ; Print pattern wall
G1 E-0.8 F2700 ; Retract
G1 Z0.95 F30000 ; Z hop
G0 X121.6189 Y81.5068 F30000 ; Move to next pattern
G1 Z0.75 F30000 ; Z hop return
G1 E0.8 F2700 ; Un-retract
SET_PRESSURE_ADVANCE ADVANCE=0.028 ; Set pressure advance
M117 PA 0.028
G1 X142.8321 Y102.72 E1.23587 F9000 ; Print pattern wall
G1 X121.6189 Y123.9332 E1.23587 F9000 ; Print pattern wall
G1 E-0.8 F2700 ; Retract
G1 Z0.95 F30000 ; Z hop
G0 X122.1794 Y81.5068 F30000 ; Move to start next pattern wall
G1 Z0.75 F30000 ; Z hop return
G1 E0.8 F2700 ; Un-retract
G1 X143.3926 Y102.72 E1.23587 F9000 ; Print pattern wall
G1 X122.1794 Y123.9332 E1.23587 F9000 ; Print pattern wall
G1 E-0.8 F2700 ; Retract
G1 Z0.95 F30000 ; Z hop
G0 X122.7399 Y81.5068 F30000 ; Move to start next pattern wall
G1 Z0.75 F30000 ; Z hop return
G1 E0.8 F2700 ; Un-retract
G1 X143.9531 Y102.72 E1.23587 F9000 ; Print pattern wall
G1 X122.7399 Y123.9332 E1.23587 F9000 ; Print pattern wall
G1 E-0.8 F2700 ; Retract
G1 Z0.95 F30000 ; Z hop
G0 X125.1899 Y81.5068 F30000 ; Move to next pattern
G1 Z0.75 F30000 ; Z hop return
G1 E0.8 F2700 ; Un-retract
SET_PRESSURE_ADVANCE ADVANCE=0.0285 ; Set pressure advance
M117 PA 0.0285
G1 X146.4031 Y102.72 E1.23587 F9000 ; Print pattern wall
G1 X125.1899 Y123.9332 E1.23587 F9000 ; Print pattern wall
G1 E-0.8 F2700 ; Retract
G1 Z0.95 F30000 ; Z hop
G0 X125.7504 Y81.5068 F30000 ; Move to start next pattern wall
G1 Z0.75 F30000 ; Z hop return
G1 E0.8 F2700 ; Un-retract
G1 X146.9636 Y102.72 E1.23587 F9000 ; Print pattern wall
G1 X125.7504 Y123.9332 E1.23587 F9000 ; Print pattern wall
G1 E-0.8 F2700 ; Retract
G1 Z0.95 F30000 ; Z hop
G0 X126.311 Y81.5068 F30000 ; Move to start next pattern wall
G1 Z0.75 F30000 ; Z hop return
G1 E0.8 F2700 ; Un-retract
G1 X147.5242 Y102.72 E1.23587 F9000 ; Print pattern wall
G1 X126.311 Y123.9332 E1.23587 F9000 ; Print pattern wall
G1 E-0.8 F2700 ; Retract
G1 Z0.95 F30000 ; Z hop
G0 X128.761 Y81.5068 F30000 ; Move to next pattern
G1 Z0.75 F30000 ; Z hop return
G1 E0.8 F2700 ; Un-retract
SET_PRESSURE_ADVANCE ADVANCE=0.029 ; Set pressure advance
M117 PA 0.029
G1 X149.9742 Y102.72 E1.23587 F9000 ; Print pattern wall
G1 X128.761 Y123.9332 E1.23587 F9000 ; Print pattern wall
G1 E-0.8 F2700 ; Retract
G1 Z0.95 F30000 ; Z hop
G0 X129.3215 Y81.5068 F30000 ; Move to start next pattern wall
G1 Z0.75 F30000 ; Z hop return
G1 E0.8 F2700 ; Un-retract
G1 X150.5347 Y102.72 E1.23587 F9000 ; Print pattern wall
G1 X129.3215 Y123.9332 E1.23587 F9000 ; Print pattern wall
G1 E-0.8 F2700 ; Retract
G1 Z0.95 F30000 ; Z hop
G0 X129.882 Y81.5068 F30000 ; Move to start next pattern wall
G1 Z0.75 F30000 ; Z hop return
G1 E0.8 F2700 ; Un-retract
G1 X151.0952 Y102.72 E1.23587 F9000 ; Print pattern wall
G1 X129.882 Y123.9332 E1.23587 F9000 ; Print pattern wall
G1 E-0.8 F2700 ; Retract
G1 Z0.95 F30000 ; Z hop
G0 X132.332 Y81.5068 F30000 ; Move to next pattern
G1 Z0.75 F30000 ; Z hop return
G1 E0.8 F2700 ; Un-retract
SET_PRESSURE_ADVANCE ADVANCE=0.0295 ; Set pressure advance
M117 PA 0.0295
G1 X153.5452 Y102.72 E1.23587 F9000 ; Print pattern wall
G1 X132.332 Y123.9332 E1.23587 F9000 ; Print pattern wall
G1 E-0.8 F2700 ; Retract
G1 Z0.95 F30000 ; Z hop
G0 X132.8925 Y81.5068 F30000 ; Move to start next pattern wall
G1 Z0.75 F30000 ; Z hop return
G1 E0.8 F2700 ; Un-retract
G1 X154.1057 Y102.72 E1.23587 F9000 ; Print pattern wall
G1 X132.8925 Y123.9332 E1.23587 F9000 ; Print pattern wall
G1 E-0.8 F2700 ; Retract
G1 Z0.95 F30000 ; Z hop
G0 X133.4531 Y81.5068 F30000 ; Move to start next pattern wall
G1 Z0.75 F30000 ; Z hop return
G1 E0.8 F2700 ; Un-retract
G1 X154.6663 Y102.72 E1.23587 F9000 ; Print pattern wall
G1 X133.4531 Y123.9332 E1.23587 F9000 ; Print pattern wall
G1 E-0.8 F2700 ; Retract
G1 Z0.95 F30000 ; Z hop
G0 X135.9031 Y81.5068 F30000 ; Move to next pattern
G1 Z0.75 F30000 ; Z hop return
G1 E0.8 F2700 ; Un-retract
SET_PRESSURE_ADVANCE ADVANCE=0.03 ; Set pressure advance
M117 PA 0.03
G1 X157.1163 Y102.72 E1.23587 F9000 ; Print pattern wall
G1 X135.9031 Y123.9332 E1.23587 F9000 ; Print pattern wall
G1 E-0.8 F2700 ; Retract
G1 Z0.95 F30000 ; Z hop
G0 X136.4636 Y81.5068 F30000 ; Move to start next pattern wall
G1 Z0.75 F30000 ; Z hop return
G1 E0.8 F2700 ; Un-retract
G1 X157.6768 Y102.72 E1.23587 F9000 ; Print pattern wall
G1 X136.4636 Y123.9332 E1.23587 F9000 ; Print pattern wall
G1 E-0.8 F2700 ; Retract
G1 Z0.95 F30000 ; Z hop
G0 X137.0241 Y81.5068 F30000 ; Move to start next pattern wall
G1 Z0.75 F30000 ; Z hop return
G1 E0.8 F2700 ; Un-retract
G1 X158.2373 Y102.72 E1.23587 F9000 ; Print pattern wall
G1 X137.0241 Y123.9332 E1.23587 F9000 ; Print pattern wall
G1 E-0.8 F2700 ; Retract
G1 Z0.95 F30000 ; Z hop
G0 X64.4821 Y81.5068 F30000 ; Move back to start position
G1 Z0.75 F30000 ; Z hop return
G1 E0.8 F2700 ; Un-retract
G0 Z1 F30000 ; Move to layer height
SET_PRESSURE_ADVANCE ADVANCE=0.02 ; Set pressure advance
M117 PA 0.02
G1 X85.6953 Y102.72 E1.23587 F9000 ; Print pattern wall
G1 X64.4821 Y123.9332 E1.23587 F9000 ; Print pattern wall
G1 E-0.8 F2700 ; Retract
G1 Z1.2 F30000 ; Z hop
G0 X65.0427 Y81.5068 F30000 ; Move to start next pattern wall
G1 Z1 F30000 ; Z hop return
G1 E0.8 F2700 ; Un-retract
G1 X86.2559 Y102.72 E1.23587 F9000 ; Print pattern wall
G1 X65.0427 Y123.9332 E1.23587 F9000 ; Print pattern wall
G1 E-0.8 F2700 ; Retract
G1 Z1.2 F30000 ; Z hop
G0 X65.6032 Y81.5068 F30000 ; Move to start next pattern wall
G1 Z1 F30000 ; Z hop return
G1 E0.8 F2700 ; Un-retract
G1 X86.8164 Y102.72 E1.23587 F9000 ; Print pattern wall
G1 X65.6032 Y123.9332 E1.23587 F9000 ; Print pattern wall
G1 E-0.8 F2700 ; Retract
G1 Z1.2 F30000 ; Z hop
G0 X68.0532 Y81.5068 F30000 ; Move to next pattern
G1 Z1 F30000 ; Z hop return
G1 E0.8 F2700 ; Un-retract
SET_PRESSURE_ADVANCE ADVANCE=0.0205 ; Set pressure advance
M117 PA 0.0205
G1 X89.2664 Y102.72 E1.23587 F9000 ; Print pattern wall
G1 X68.0532 Y123.9332 E1.23587 F9000 ; Print pattern wall
G1 E-0.8 F2700 ; Retract
G1 Z1.2 F30000 ; Z hop
G0 X68.6137 Y81.5068 F30000 ; Move to start next pattern wall
G1 Z1 F30000 ; Z hop return
G1 E0.8 F2700 ; Un-retract
G1 X89.8269 Y102.72 E1.23587 F9000 ; Print pattern wall
G1 X68.6137 Y123.9332 E1.23587 F9000 ; Print pattern wall
G1 E-0.8 F2700 ; Retract
G1 Z1.2 F30000 ; Z hop
G0 X69.1742 Y81.5068 F30000 ; Move to start next pattern wall
G1 Z1 F30000 ; Z hop return
G1 E0.8 F2700 ; Un-retract
G1 X90.3874 Y102.72 E1.23587 F9000 ; Print pattern wall
G1 X69.1742 Y123.9332 E1.23587 F9000 ; Print pattern wall
G1 E-0.8 F2700 ; Retract
G1 Z1.2 F30000 ; Z hop
G0 X71.6242 Y81.5068 F30000 ; Move to next pattern
G1 Z1 F30000 ; Z hop return
G1 E0.8 F2700 ; Un-retract
SET_PRESSURE_ADVANCE ADVANCE=0.021 ; Set pressure advance
M117 PA 0.021
G1 X92.8374 Y102.72 E1.23587 F9000 ; Print pattern wall
G1 X71.6242 Y123.9332 E1.23587 F9000 ; Print pattern wall
G1 E-0.8 F2700 ; Retract
G1 Z1.2 F30000 ; Z hop
G0 X72.1848 Y81.5068 F30000 ; Move to start next pattern wall
G1 Z1 F30000 ; Z hop return
G1 E0.8 F2700 ; Un-retract
G1 X93.398 Y102.72 E1.23587 F9000 ; Print pattern wall
G1 X72.1848 Y123.9332 E1.23587 F9000 ; Print pattern wall
G1 E-0.8 F2700 ; Retract
G1 Z1.2 F30000 ; Z hop
G0 X72.7453 Y81.5068 F30000 ; Move to start next pattern wall
G1 Z1 F30000 ; Z hop return
G1 E0.8 F2700 ; Un-retract
G1 X93.9585 Y102.72 E1.23587 F9000 ; Print pattern wall
G1 X72.7453 Y123.9332 E1.23587 F9000 ; Print pattern wall
G1 E-0.8 F2700 ; Retract
G1 Z1.2 F30000 ; Z hop
G0 X75.1953 Y81.5068 F30000 ; Move to next pattern
G1 Z1 F30000 ; Z hop return
G1 E0.8 F2700 ; Un-retract
SET_PRESSURE_ADVANCE ADVANCE=0.0215 ; Set pressure advance
M117 PA 0.0215
G1 X96.4085 Y102.72 E1.23587 F9000 ; Print pattern wall
G1 X75.1953 Y123.9332 E1.23587 F9000 ; Print pattern wall
G1 E-0.8 F2700 ; Retract
G1 Z1.2 F30000 ; Z hop
G0 X75.7558 Y81.5068 F30000 ; Move to start next pattern wall
G1 Z1 F30000 ; Z hop return
G1 E0.8 F2700 ; Un-retract
G1 X96.969 Y102.72 E1.23587 F9000 ; Print pattern wall
G1 X75.7558 Y123.9332 E1.23587 F9000 ; Print pattern wall
G1 E-0.8 F2700 ; Retract
G1 Z1.2 F30000 ; Z hop
G0 X76.3163 Y81.5068 F30000 ; Move to start next pattern wall
G1 Z1 F30000 ; Z hop return
G1 E0.8 F2700 ; Un-retract
G1 X97.5295 Y102.72 E1.23587 F9000 ; Print pattern wall
G1 X76.3163 Y123.9332 E1.23587 F9000 ; Print pattern wall
G1 E-0.8 F2700 ; Retract
G1 Z1.2 F30000 ; Z hop
G0 X78.7663 Y81.5068 F30000 ; Move to next pattern
G1 Z1 F30000 ; Z hop return
G1 E0.8 F2700 ; Un-retract
SET_PRESSURE_ADVANCE ADVANCE=0.022 ; Set pressure advance
M117 PA 0.022
G1 X99.9795 Y102.72 E1.23587 F9000 ; Print pattern wall
G1 X78.7663 Y123.9332 E1.23587 F9000 ; Print pattern wall
G1 E-0.8 F2700 ; Retract
G1 Z1.2 F30000 ; Z hop
G0 X79.3268 Y81.5068 F30000 ; Move to start next pattern wall
G1 Z1 F30000 ; Z hop return
G1 E0.8 F2700 ; Un-retract
G1 X100.54 Y102.72 E1.23587 F9000 ; Print pattern wall
G1 X79.3268 Y123.9332 E1.23587 F9000 ; Print pattern wall
G1 E-0.8 F2700 ; Retract
G1 Z1.2 F30000 ; Z hop
G0 X79.8874 Y81.5068 F30000 ; Move to start next pattern wall
G1 Z1 F30000 ; Z hop return
G1 E0.8 F2700 ; Un-retract
G1 X101.1006 Y102.72 E1.23587 F9000 ; Print pattern wall
G1 X79.8874 Y123.9332 E1.23587 F9000 ; Print pattern wall
G1 E-0.8 F2700 ; Retract
G1 Z1.2 F30000 ; Z hop
G0 X82.3374 Y81.5068 F30000 ; Move to next pattern
G1 Z1 F30000 ; Z hop return
G1 E0.8 F2700 ; Un-retract
SET_PRESSURE_ADVANCE ADVANCE=0.0225 ; Set pressure advance
M117 PA 0.0225
G1 X103.5506 Y102.72 E1.23587 F9000 ; Print pattern wall
G1 X82.3374 Y123.9332 E1.23587 F9000 ; Print pattern wall
G1 E-0.8 F2700 ; Retract
G1 Z1.2 F30000 ; Z hop
G0 X82.8979 Y81.5068 F30000 ; Move to start next pattern wall
G1 Z1 F30000 ; Z hop return
G1 E0.8 F2700 ; Un-retract
G1 X104.1111 Y102.72 E1.23587 F9000 ; Print pattern wall
G1 X82.8979 Y123.9332 E1.23587 F9000 ; Print pattern wall
G1 E-0.8 F2700 ; Retract
G1 Z1.2 F30000 ; Z hop
G0 X83.4584 Y81.5068 F30000 ; Move to start next pattern wall
G1 Z1 F30000 ; Z hop return
G1 E0.8 F2700 ; Un-retract
G1 X104.6716 Y102.72 E1.23587 F9000 ; Print pattern wall
G1 X83.4584 Y123.9332 E1.23587 F9000 ; Print pattern wall
G1 E-0.8 F2700 ; Retract
G1 Z1.2 F30000 ; Z hop
G0 X85.9084 Y81.5068 F30000 ; Move to next pattern
G1 Z1 F30000 ; Z hop return
G1 E0.8 F2700 ; Un-retract
SET_PRESSURE_ADVANCE ADVANCE=0.023 ; Set pressure advance
M117 PA 0.023
G1 X107.1216 Y102.72 E1.23587 F9000 ; Print pattern wall
G1 X85.9084 Y123.9332 E1.23587 F9000 ; Print pattern wall
G1 E-0.8 F2700 ; Retract
G1 Z1.2 F30000 ; Z hop
G0 X86.4689 Y81.5068 F30000 ; Move to start next pattern wall
G1 Z1 F30000 ; Z hop return
G1 E0.8 F2700 ; Un-retract
G1 X107.6821 Y102.72 E1.23587 F9000 ; Print pattern wall
G1 X86.4689 Y123.9332 E1.23587 F9000 ; Print pattern wall
G1 E-0.8 F2700 ; Retract
G1 Z1.2 F30000 ; Z hop
G0 X87.0295 Y81.5068 F30000 ; Move to start next pattern wall
G1 Z1 F30000 ; Z hop return
G1 E0.8 F2700 ; Un-retract
G1 X108.2427 Y102.72 E1.23587 F9000 ; Print pattern wall
G1 X87.0295 Y123.9332 E1.23587 F9000 ; Print pattern wall
G1 E-0.8 F2700 ; Retract
G1 Z1.2 F30000 ; Z hop
G0 X89.4795 Y81.5068 F30000 ; Move to next pattern
G1 Z1 F30000 ; Z hop return
G1 E0.8 F2700 ; Un-retract
SET_PRESSURE_ADVANCE ADVANCE=0.0235 ; Set pressure advance
M117 PA 0.0235
G1 X110.6927 Y102.72 E1.23587 F9000 ; Print pattern wall
G1 X89.4795 Y123.9332 E1.23587 F9000 ; Print pattern wall
G1 E-0.8 F2700 ; Retract
G1 Z1.2 F30000 ; Z hop
G0 X90.04 Y81.5068 F30000 ; Move to start next pattern wall
G1 Z1 F30000 ; Z hop return
G1 E0.8 F2700 ; Un-retract
G1 X111.2532 Y102.72 E1.23587 F9000 ; Print pattern wall
G1 X90.04 Y123.9332 E1.23587 F9000 ; Print pattern wall
G1 E-0.8 F2700 ; Retract
G1 Z1.2 F30000 ; Z hop
G0 X90.6005 Y81.5068 F30000 ; Move to start next pattern wall
G1 Z1 F30000 ; Z hop return
G1 E0.8 F2700 ; Un-retract
G1 X111.8137 Y102.72 E1.23587 F9000 ; Print pattern wall
G1 X90.6005 Y123.9332 E1.23587 F9000 ; Print pattern wall
G1 E-0.8 F2700 ; Retract
G1 Z1.2 F30000 ; Z hop
G0 X93.0505 Y81.5068 F30000 ; Move to next pattern
G1 Z1 F30000 ; Z hop return
G1 E0.8 F2700 ; Un-retract
SET_PRESSURE_ADVANCE ADVANCE=0.024 ; Set pressure advance
M117 PA 0.024
G1 X114.2637 Y102.72 E1.23587 F9000 ; Print pattern wall
G1 X93.0505 Y123.9332 E1.23587 F9000 ; Print pattern wall
G1 E-0.8 F2700 ; Retract
G1 Z1.2 F30000 ; Z hop
G0 X93.611 Y81.5068 F30000 ; Move to start next pattern wall
G1 Z1 F30000 ; Z hop return
G1 E0.8 F2700 ; Un-retract
G1 X114.8242 Y102.72 E1.23587 F9000 ; Print pattern wall
G1 X93.611 Y123.9332 E1.23587 F9000 ; Print pattern wall
G1 E-0.8 F2700 ; Retract
G1 Z1.2 F30000 ; Z hop
G0 X94.1716 Y81.5068 F30000 ; Move to start next pattern wall
G1 Z1 F30000 ; Z hop return
G1 E0.8 F2700 ; Un-retract
G1 X115.3848 Y102.72 E1.23587 F9000 ; Print pattern wall
G1 X94.1716 Y123.9332 E1.23587 F9000 ; Print pattern wall
G1 E-0.8 F2700 ; Retract
G1 Z1.2 F30000 ; Z hop
G0 X96.6216 Y81.5068 F30000 ; Move to next pattern
G1 Z1 F30000 ; Z hop return
G1 E0.8 F2700 ; Un-retract
SET_PRESSURE_ADVANCE ADVANCE=0.0245 ; Set pressure advance
M117 PA 0.0245
G1 X117.8348 Y102.72 E1.23587 F9000 ; Print pattern wall
G1 X96.6216 Y123.9332 E1.23587 F9000 ; Print pattern wall
G1 E-0.8 F2700 ; Retract
G1 Z1.2 F30000 ; Z hop
G0 X97.1821 Y81.5068 F30000 ; Move to start next pattern wall
G1 Z1 F30000 ; Z hop return
G1 E0.8 F2700 ; Un-retract
G1 X118.3953 Y102.72 E1.23587 F9000 ; Print pattern wall
G1 X97.1821 Y123.9332 E1.23587 F9000 ; Print pattern wall
G1 E-0.8 F2700 ; Retract
G1 Z1.2 F30000 ; Z hop
G0 X97.7426 Y81.5068 F30000 ; Move to start next pattern wall
G1 Z1 F30000 ; Z hop return
G1 E0.8 F2700 ; Un-retract
G1 X118.9558 Y102.72 E1.23587 F9000 ; Print pattern wall
G1 X97.7426 Y123.9332 E1.23587 F9000 ; Print pattern wall
G1 E-0.8 F2700 ; Retract
G1 Z1.2 F30000 ; Z hop
G0 X100.1926 Y81.5068 F30000 ; Move to next pattern
G1 Z1 F30000 ; Z hop return
G1 E0.8 F2700 ; Un-retract
SET_PRESSURE_ADVANCE ADVANCE=0.025 ; Set pressure advance
M117 PA 0.025
G1 X121.4058 Y102.72 E1.23587 F9000 ; Print pattern wall
G1 X100.1926 Y123.9332 E1.23587 F9000 ; Print pattern wall
G1 E-0.8 F2700 ; Retract
G1 Z1.2 F30000 ; Z hop
G0 X100.7531 Y81.5068 F30000 ; Move to start next pattern wall
G1 Z1 F30000 ; Z hop return
G1 E0.8 F2700 ; Un-retract
G1 X121.9663 Y102.72 E1.23587 F9000 ; Print pattern wall
G1 X100.7531 Y123.9332 E1.23587 F9000 ; Print pattern wall
G1 E-0.8 F2700 ; Retract
G1 Z1.2 F30000 ; Z hop
G0 X101.3136 Y81.5068 F30000 ; Move to start next pattern wall
G1 Z1 F30000 ; Z hop return
G1 E0.8 F2700 ; Un-retract
G1 X122.5268 Y102.72 E1.23587 F9000 ; Print pattern wall
G1 X101.3136 Y123.9332 E1.23587 F9000 ; Print pattern wall
G1 E-0.8 F2700 ; Retract
G1 Z1.2 F30000 ; Z hop
G0 X103.7636 Y81.5068 F30000 ; Move to next pattern
G1 Z1 F30000 ; Z hop return
G1 E0.8 F2700 ; Un-retract
SET_PRESSURE_ADVANCE ADVANCE=0.0255 ; Set pressure advance
M117 PA 0.0255
G1 X124.9768 Y102.72 E1.23587 F9000 ; Print pattern wall
G1 X103.7636 Y123.9332 E1.23587 F9000 ; Print pattern wall
G1 E-0.8 F2700 ; Retract
G1 Z1.2 F30000 ; Z hop
G0 X104.3242 Y81.5068 F30000 ; Move to start next pattern wall
G1 Z1 F30000 ; Z hop return
G1 E0.8 F2700 ; Un-retract
G1 X125.5374 Y102.72 E1.23587 F9000 ; Print pattern wall
G1 X104.3242 Y123.9332 E1.23587 F9000 ; Print pattern wall
G1 E-0.8 F2700 ; Retract
G1 Z1.2 F30000 ; Z hop
G0 X104.8847 Y81.5068 F30000 ; Move to start next pattern wall
G1 Z1 F30000 ; Z hop return
G1 E0.8 F2700 ; Un-retract
G1 X126.0979 Y102.72 E1.23587 F9000 ; Print pattern wall
G1 X104.8847 Y123.9332 E1.23587 F9000 ; Print pattern wall
G1 E-0.8 F2700 ; Retract
G1 Z1.2 F30000 ; Z hop
G0 X107.3347 Y81.5068 F30000 ; Move to next pattern
G1 Z1 F30000 ; Z hop return
G1 E0.8 F2700 ; Un-retract
SET_PRESSURE_ADVANCE ADVANCE=0.026 ; Set pressure advance
M117 PA 0.026
G1 X128.5479 Y102.72 E1.23587 F9000 ; Print pattern wall
G1 X107.3347 Y123.9332 E1.23587 F9000 ; Print pattern wall
G1 E-0.8 F2700 ; Retract
G1 Z1.2 F30000 ; Z hop
G0 X107.8952 Y81.5068 F30000 ; Move to start next pattern wall
G1 Z1 F30000 ; Z hop return
G1 E0.8 F2700 ; Un-retract
G1 X129.1084 Y102.72 E1.23587 F9000 ; Print pattern wall
G1 X107.8952 Y123.9332 E1.23587 F9000 ; Print pattern wall
G1 E-0.8 F2700 ; Retract
G1 Z1.2 F30000 ; Z hop
G0 X108.4557 Y81.5068 F30000 ; Move to start next pattern wall
G1 Z1 F30000 ; Z hop return
G1 E0.8 F2700 ; Un-retract
G1 X129.6689 Y102.72 E1.23587 F9000 ; Print pattern wall
G1 X108.4557 Y123.9332 E1.23587 F9000 ; Print pattern wall
G1 E-0.8 F2700 ; Retract
G1 Z1.2 F30000 ; Z hop
G0 X110.9057 Y81.5068 F30000 ; Move to next pattern
G1 Z1 F30000 ; Z hop return
G1 E0.8 F2700 ; Un-retract
SET_PRESSURE_ADVANCE ADVANCE=0.0265 ; Set pressure advance
M117 PA 0.0265
G1 X132.1189 Y102.72 E1.23587 F9000 ; Print pattern wall
G1 X110.9057 Y123.9332 E1.23587 F9000 ; Print pattern wall
G1 E-0.8 F2700 ; Retract
G1 Z1.2 F30000 ; Z hop
G0 X111.4663 Y81.5068 F30000 ; Move to start next pattern wall
G1 Z1 F30000 ; Z hop return
G1 E0.8 F2700 ; Un-retract
G1 X132.6795 Y102.72 E1.23587 F9000 ; Print pattern wall
G1 X111.4663 Y123.9332 E1.23587 F9000 ; Print pattern wall
G1 E-0.8 F2700 ; Retract
G1 Z1.2 F30000 ; Z hop
G0 X112.0268 Y81.5068 F30000 ; Move to start next pattern wall
G1 Z1 F30000 ; Z hop return
G1 E0.8 F2700 ; Un-retract
G1 X133.24 Y102.72 E1.23587 F9000 ; Print pattern wall
G1 X112.0268 Y123.9332 E1.23587 F9000 ; Print pattern wall
G1 E-0.8 F2700 ; Retract
G1 Z1.2 F30000 ; Z hop
G0 X114.4768 Y81.5068 F30000 ; Move to next pattern
G1 Z1 F30000 ; Z hop return
G1 E0.8 F2700 ; Un-retract
SET_PRESSURE_ADVANCE ADVANCE=0.027 ; Set pressure advance
M117 PA 0.027
G1 X135.69 Y102.72 E1.23587 F9000 ; Print pattern wall
G1 X114.4768 Y123.9332 E1.23587 F9000 ; Print pattern wall
G1 E-0.8 F2700 ; Retract
G1 Z1.2 F30000 ; Z hop
G0 X115.0373 Y81.5068 F30000 ; Move to start next pattern wall
G1 Z1 F30000 ; Z hop return
G1 E0.8 F2700 ; Un-retract
G1 X136.2505 Y102.72 E1.23587 F9000 ; Print pattern wall
G1 X115.0373 Y123.9332 E1.23587 F9000 ; Print pattern wall
G1 E-0.8 F2700 ; Retract
G1 Z1.2 F30000 ; Z hop
G0 X115.5978 Y81.5068 F30000 ; Move to start next pattern wall
G1 Z1 F30000 ; Z hop return
G1 E0.8 F2700 ; Un-retract
G1 X136.811 Y102.72 E1.23587 F9000 ; Print pattern wall
G1 X115.5978 Y123.9332 E1.23587 F9000 ; Print pattern wall
G1 E-0.8 F2700 ; Retract
G1 Z1.2 F30000 ; Z hop
G0 X118.0478 Y81.5068 F30000 ; Move to next pattern
G1 Z1 F30000 ; Z hop return
G1 E0.8 F2700 ; Un-retract
SET_PRESSURE_ADVANCE ADVANCE=0.0275 ; Set pressure advance
M117 PA 0.0275
G1 X139.261 Y102.72 E1.23587 F9000 ; Print pattern wall
G1 X118.0478 Y123.9332 E1.23587 F9000 ; Print pattern wall
G1 E-0.8 F2700 ; Retract
G1 Z1.2 F30000 ; Z hop
G0 X118.6083 Y81.5068 F30000 ; Move to start next pattern wall
G1 Z1 F30000 ; Z hop return
G1 E0.8 F2700 ; Un-retract
G1 X139.8216 Y102.72 E1.23587 F9000 ; Print pattern wall
G1 X118.6083 Y123.9332 E1.23587 F9000 ; Print pattern wall
G1 E-0.8 F2700 ; Retract
G1 Z1.2 F30000 ; Z hop
G0 X119.1689 Y81.5068 F30000 ; Move to start next pattern wall
G1 Z1 F30000 ; Z hop return
G1 E0.8 F2700 ; Un-retract
G1 X140.3821 Y102.72 E1.23587 F9000 ; Print pattern wall
G1 X119.1689 Y123.9332 E1.23587 F9000 ; Print pattern wall
G1 E-0.8 F2700 ; Retract
G1 Z1.2 F30000 ; Z hop
G0 X121.6189 Y81.5068 F30000 ; Move to next pattern
G1 Z1 F30000 ; Z hop return
G1 E0.8 F2700 ; Un-retract
SET_PRESSURE_ADVANCE ADVANCE=0.028 ; Set pressure advance
M117 PA 0.028
G1 X142.8321 Y102.72 E1.23587 F9000 ; Print pattern wall
G1 X121.6189 Y123.9332 E1.23587 F9000 ; Print pattern wall
G1 E-0.8 F2700 ; Retract
G1 Z1.2 F30000 ; Z hop
G0 X122.1794 Y81.5068 F30000 ; Move to start next pattern wall
G1 Z1 F30000 ; Z hop return
G1 E0.8 F2700 ; Un-retract
G1 X143.3926 Y102.72 E1.23587 F9000 ; Print pattern wall
G1 X122.1794 Y123.9332 E1.23587 F9000 ; Print pattern wall
G1 E-0.8 F2700 ; Retract
G1 Z1.2 F30000 ; Z hop
G0 X122.7399 Y81.5068 F30000 ; Move to start next pattern wall
G1 Z1 F30000 ; Z hop return
G1 E0.8 F2700 ; Un-retract
G1 X143.9531 Y102.72 E1.23587 F9000 ; Print pattern wall
G1 X122.7399 Y123.9332 E1.23587 F9000 ; Print pattern wall
G1 E-0.8 F2700 ; Retract
G1 Z1.2 F30000 ; Z hop
G0 X125.1899 Y81.5068 F30000 ; Move to next pattern
G1 Z1 F30000 ; Z hop return
G1 E0.8 F2700 ; Un-retract
SET_PRESSURE_ADVANCE ADVANCE=0.0285 ; Set pressure advance
M117 PA 0.0285
G1 X146.4031 Y102.72 E1.23587 F9000 ; Print pattern wall
G1 X125.1899 Y123.9332 E1.23587 F9000 ; Print pattern wall
G1 E-0.8 F2700 ; Retract
G1 Z1.2 F30000 ; Z hop
G0 X125.7504 Y81.5068 F30000 ; Move to start next pattern wall
G1 Z1 F30000 ; Z hop return
G1 E0.8 F2700 ; Un-retract
G1 X146.9636 Y102.72 E1.23587 F9000 ; Print pattern wall
G1 X125.7504 Y123.9332 E1.23587 F9000 ; Print pattern wall
G1 E-0.8 F2700 ; Retract
G1 Z1.2 F30000 ; Z hop
G0 X126.311 Y81.5068 F30000 ; Move to start next pattern wall
G1 Z1 F30000 ; Z hop return
G1 E0.8 F2700 ; Un-retract
G1 X147.5242 Y102.72 E1.23587 F9000 ; Print pattern wall
G1 X126.311 Y123.9332 E1.23587 F9000 ; Print pattern wall
G1 E-0.8 F2700 ; Retract
G1 Z1.2 F30000 ; Z hop
G0 X128.761 Y81.5068 F30000 ; Move to next pattern
G1 Z1 F30000 ; Z hop return
G1 E0.8 F2700 ; Un-retract
SET_PRESSURE_ADVANCE ADVANCE=0.029 ; Set pressure advance
M117 PA 0.029
G1 X149.9742 Y102.72 E1.23587 F9000 ; Print pattern wall
G1 X128.761 Y123.9332 E1.23587 F9000 ; Print pattern wall
G1 E-0.8 F2700 ; Retract
G1 Z1.2 F30000 ; Z hop
G0 X129.3215 Y81.5068 F30000 ; Move to start next pattern wall
G1 Z1 F30000 ; Z hop return
G1 E0.8 F2700 ; Un-retract
G1 X150.5347 Y102.72 E1.23587 F9000 ; Print pattern wall
G1 X129.3215 Y123.9332 E1.23587 F9000 ; Print pattern wall
G1 E-0.8 F2700 ; Retract
G1 Z1.2 F30000 ; Z hop
G0 X129.882 Y81.5068 F30000 ; Move to start next pattern wall
G1 Z1 F30000 ; Z hop return
G1 E0.8 F2700 ; Un-retract
G1 X151.0952 Y102.72 E1.23587 F9000 ; Print pattern wall
G1 X129.882 Y123.9332 E1.23587 F9000 ; Print pattern wall
G1 E-0.8 F2700 ; Retract
G1 Z1.2 F30000 ; Z hop
G0 X132.332 Y81.5068 F30000 ; Move to next pattern
G1 Z1 F30000 ; Z hop return
G1 E0.8 F2700 ; Un-retract
SET_PRESSURE_ADVANCE ADVANCE=0.0295 ; Set pressure advance
M117 PA 0.0295
G1 X153.5452 Y102.72 E1.23587 F9000 ; Print pattern wall
G1 X132.332 Y123.9332 E1.23587 F9000 ; Print pattern wall
G1 E-0.8 F2700 ; Retract
G1 Z1.2 F30000 ; Z hop
G0 X132.8925 Y81.5068 F30000 ; Move to start next pattern wall
G1 Z1 F30000 ; Z hop return
G1 E0.8 F2700 ; Un-retract
G1 X154.1057 Y102.72 E1.23587 F9000 ; Print pattern wall
G1 X132.8925 Y123.9332 E1.23587 F9000 ; Print pattern wall
G1 E-0.8 F2700 ; Retract
G1 Z1.2 F30000 ; Z hop
G0 X133.4531 Y81.5068 F30000 ; Move to start next pattern wall
G1 Z1 F30000 ; Z hop return
G1 E0.8 F2700 ; Un-retract
G1 X154.6663 Y102.72 E1.23587 F9000 ; Print pattern wall
G1 X133.4531 Y123.9332 E1.23587 F9000 ; Print pattern wall
G1 E-0.8 F2700 ; Retract
G1 Z1.2 F30000 ; Z hop
G0 X135.9031 Y81.5068 F30000 ; Move to next pattern
G1 Z1 F30000 ; Z hop return
G1 E0.8 F2700 ; Un-retract
SET_PRESSURE_ADVANCE ADVANCE=0.03 ; Set pressure advance
M117 PA 0.03
G1 X157.1163 Y102.72 E1.23587 F9000 ; Print pattern wall
G1 X135.9031 Y123.9332 E1.23587 F9000 ; Print pattern wall
G1 E-0.8 F2700 ; Retract
G1 Z1.2 F30000 ; Z hop
G0 X136.4636 Y81.5068 F30000 ; Move to start next pattern wall
G1 Z1 F30000 ; Z hop return
G1 E0.8 F2700 ; Un-retract
G1 X157.6768 Y102.72 E1.23587 F9000 ; Print pattern wall
G1 X136.4636 Y123.9332 E1.23587 F9000 ; Print pattern wall
G1 E-0.8 F2700 ; Retract
G1 Z1.2 F30000 ; Z hop
G0 X137.0241 Y81.5068 F30000 ; Move to start next pattern wall
G1 Z1 F30000 ; Z hop return
G1 E0.8 F2700 ; Un-retract
G1 X158.2373 Y102.72 E1.23587 F9000 ; Print pattern wall
G1 X137.0241 Y123.9332 E1.23587 F9000 ; Print pattern wall
SET_PRESSURE_ADVANCE ADVANCE=0.02 ; Set pressure advance back to start value
M117 PA 0.02
G1 E-0.8 F2700 ; Retract
G1 Z1.2 F30000 ; Z hop
G0 Z6 F30000 ; Z raise
M104 S0 ; Turn off hotend
M140 S0 ; Turn off bed
M107    ; Turn off fan
;
; End G-code
;
; PRINT_END ; End macro. Change name to match yours
END_PRINT
;
; FINISH
;
