;FLAVOR:Marlin
;TIME:403
;Filament used: 1.31152m
;Layer height: 0.35
;MINX:89.295
;MINY:89.295
;MINZ:0.35
;MAXX:130.705
;MAXY:130.705
;MAXZ:50.225
;Generated with Cura_SteamEngine 5.2.2
M82 ;absolute extrusion mode
SET_GCODE_VARIABLE MACRO=START_PRINT VARIABLE=bed_temp VALUE=60
SET_GCODE_VARIABLE MACRO=START_PRINT VARIABLE=extruder_temp VALUE=205
START_PRINT
G92 E0
G92 E0
G1 F2700 E-0.8
;LAYER_COUNT:143
;LAYER:0
M107
G1 F300 Z0.55
G0 F9000 X91.212 Y90.751 Z0.55
;TYPE:SKIRT
G1 F300 Z0.35
G1 F2700 E0
G1 F3000 X91.742 Y90.332 E0.04621
G1 X92.317 Y89.979 E0.09235
G1 X92.931 Y89.696 E0.13859
G1 X93.573 Y89.488 E0.18474
G1 X94.235 Y89.357 E0.2309
G1 X94.849 Y89.306 E0.27303
G1 X95.33 Y89.295 E0.30594
G1 X124.293 Y89.295 E2.28675
G1 X125.073 Y89.306 E2.3401
G1 X125.746 Y89.355 E2.38625
G1 X126.409 Y89.484 E2.43244
G1 X127.052 Y89.69 E2.47862
G1 X127.666 Y89.971 E2.5248
G1 X128.243 Y90.323 E2.57103
G1 X128.774 Y90.74 E2.6172
G1 X129.252 Y91.216 E2.66334
G1 X129.67 Y91.747 E2.70955
G1 X130.023 Y92.322 E2.7557
G1 X130.306 Y92.936 E2.80194
G1 X130.513 Y93.578 E2.84807
G1 X130.644 Y94.241 E2.89429
G1 X130.694 Y94.85 E2.93608
G1 X130.705 Y95.33 E2.96892
G1 X130.705 Y124.335 E4.9526
G1 X130.696 Y125.062 E5.00233
G1 X130.647 Y125.735 E5.04848
G1 X130.52 Y126.398 E5.09464
G1 X130.315 Y127.042 E5.14086
G1 X130.035 Y127.656 E5.18702
G1 X129.685 Y128.234 E5.23323
G1 X129.269 Y128.766 E5.27942
G1 X128.793 Y129.245 E5.3256
G1 X128.264 Y129.664 E5.37175
G1 X127.689 Y130.018 E5.41793
G1 X127.076 Y130.301 E5.46411
G1 X126.434 Y130.511 E5.51031
G1 X125.771 Y130.642 E5.55653
G1 X125.151 Y130.694 E5.59908
G1 X124.67 Y130.705 E5.63198
G1 X95.633 Y130.705 E7.61786
G1 X94.935 Y130.696 E7.6656
G1 X94.262 Y130.647 E7.71175
G1 X93.599 Y130.519 E7.75793
G1 X92.956 Y130.314 E7.80408
G1 X92.341 Y130.034 E7.8503
G1 X91.764 Y129.683 E7.89649
G1 X91.232 Y129.267 E7.94267
G1 X90.753 Y128.791 E7.98886
G1 X90.334 Y128.261 E8.03506
G1 X89.981 Y127.686 E8.08121
G1 X89.697 Y127.073 E8.12741
G1 X89.489 Y126.431 E8.17357
G1 X89.357 Y125.768 E8.2198
G1 X89.306 Y125.145 E8.26255
G1 X89.295 Y124.658 E8.29587
G1 X89.296 Y95.597 E10.28338
G1 X89.305 Y94.932 E10.32887
G1 X89.354 Y94.258 E10.37508
G1 X89.482 Y93.595 E10.42126
G1 X89.688 Y92.952 E10.46744
G1 X89.968 Y92.338 E10.51359
G1 X90.319 Y91.761 E10.55978
G1 X90.736 Y91.229 E10.60601
G1 X91.212 Y90.751 E10.65215
G0 F9000 X91.67 Y90.977
G1 F3000 X92.192 Y90.596 E10.69634
G1 X92.758 Y90.283 E10.74058
G1 X93.358 Y90.041 E10.78483
G1 X93.983 Y89.875 E10.82905
G1 X94.862 Y89.776 E10.88955
G1 X95.33 Y89.765 E10.92156
G1 X124.293 Y89.765 E12.90238
G1 X125.066 Y89.776 E12.95525
G1 X125.711 Y89.825 E12.99949
G1 X126.345 Y89.953 E13.04372
G1 X126.958 Y90.159 E13.08795
G1 X127.541 Y90.438 E13.13215
G1 X128.086 Y90.788 E13.17645
G1 X128.583 Y91.202 E13.22069
G1 X129.025 Y91.674 E13.26491
G1 X129.406 Y92.197 E13.30917
G1 X129.719 Y92.763 E13.3534
G1 X129.96 Y93.363 E13.39762
G1 X130.125 Y93.988 E13.44183
G1 X130.224 Y94.863 E13.50206
G1 X130.235 Y95.33 E13.534
G1 X130.235 Y124.329 E15.51728
G1 X130.226 Y125.056 E15.567
G1 X130.178 Y125.701 E15.61124
G1 X130.051 Y126.335 E15.65546
G1 X129.846 Y126.949 E15.69973
G1 X129.568 Y127.533 E15.74396
G1 X129.219 Y128.078 E15.78822
G1 X128.806 Y128.575 E15.83242
G1 X128.335 Y129.019 E15.87669
G1 X127.813 Y129.4 E15.92089
G1 X127.248 Y129.715 E15.96513
G1 X126.648 Y129.957 E16.00937
G1 X126.023 Y130.123 E16.0536
G1 X125.138 Y130.224 E16.11452
G1 X124.67 Y130.235 E16.14653
G1 X95.64 Y130.235 E18.13193
G1 X94.942 Y130.226 E18.17967
G1 X94.296 Y130.177 E18.22398
G1 X93.662 Y130.05 E18.2682
G1 X93.049 Y129.845 E18.3124
G1 X92.465 Y129.566 E18.35667
G1 X91.92 Y129.218 E18.40089
G1 X91.423 Y128.804 E18.44513
G1 X90.98 Y128.333 E18.48935
G1 X90.598 Y127.811 E18.53359
G1 X90.284 Y127.245 E18.57786
G1 X90.042 Y126.645 E18.62211
G1 X89.876 Y126.02 E18.66633
G1 X89.776 Y125.132 E18.72745
G1 X89.765 Y124.658 E18.75987
G1 X89.765 Y95.603 E20.74698
G1 X89.774 Y94.938 E20.79246
G1 X89.823 Y94.293 E20.8367
G1 X89.951 Y93.659 E20.88094
G1 X90.156 Y93.046 E20.92514
G1 X90.435 Y92.462 E20.96941
G1 X90.784 Y91.918 E21.01361
G1 X91.198 Y91.42 E21.0579
G1 X91.67 Y90.977 E21.10217
G1 F2700 E20.30217
;MESH:Cube
G0 F9000 X95.449 Y94.335
G0 X95.235 Y95.235
;TYPE:WALL-OUTER
G1 F2700 E21.10217
G1 F3000 X95.235 Y124.765 E23.12176
G1 X124.765 Y124.765 E25.14135
G1 X124.765 Y110 E26.15115
G1 X124.765 Y95.235 E27.16094
G1 X95.235 Y95.235 E29.18054
G0 F9000 X95.634 Y95.634
;TYPE:SKIN
G1 F3000 X95.634 Y124.366 E31.14555
G1 X124.366 Y124.366 E33.11056
G1 X124.366 Y110 E34.09307
G1 X124.366 Y95.634 E35.07558
G1 X95.634 Y95.634 E37.04059
G1 F2700 E36.24059
G0 F9000 X95.37 Y95.634
G0 X124.537 Y95.463
G0 X124.574 Y95.887
G0 X124.63 Y96.213
G1 F2700 E37.04059
G0 F9000 X124.13 Y96.213
G1 F3000 X123.785 Y95.868 E37.07396
G0 F9000 X123.12 Y95.868
G1 F3000 X124.13 Y96.878 E37.17165
G0 F9000 X124.13 Y97.543
G1 F3000 X122.456 Y95.868 E37.33361
G0 F9000 X121.791 Y95.868
G1 F3000 X124.13 Y98.207 E37.55983
G0 F9000 X124.13 Y98.872
G1 F3000 X121.126 Y95.868 E37.85038
G0 F9000 X120.462 Y95.868
G1 F3000 X124.13 Y99.537 E38.2052
G0 F9000 X124.13 Y100.201
G1 F3000 X119.797 Y95.868 E38.62428
G0 F9000 X119.132 Y95.868
G1 F3000 X124.13 Y100.866 E39.10769
G0 F9000 X124.13 Y101.531
G1 F3000 X118.467 Y95.868 E39.65541
G0 F9000 X117.803 Y95.868
G1 F3000 X124.13 Y102.196 E40.2674
G0 F9000 X124.13 Y102.86
G1 F3000 X117.138 Y95.868 E40.94367
G0 F9000 X116.473 Y95.868
G1 F3000 X124.13 Y103.525 E41.68425
G0 F9000 X124.13 Y104.19
G1 F3000 X115.809 Y95.868 E42.4891
G0 F9000 X115.144 Y95.868
G1 F3000 X124.13 Y104.854 E43.35823
G0 F9000 X124.13 Y105.519
G1 F3000 X114.479 Y95.868 E44.29167
G0 F9000 X113.815 Y95.868
G1 F3000 X124.13 Y106.184 E45.28938
G0 F9000 X124.13 Y106.848
G1 F3000 X113.15 Y95.868 E46.35136
G0 F9000 X112.485 Y95.868
G1 F3000 X124.13 Y107.513 E47.47766
G0 F9000 X124.13 Y108.178
G1 F3000 X111.821 Y95.868 E48.66824
G0 F9000 X111.156 Y95.868
G1 F3000 X124.13 Y108.842 E49.92308
G0 F9000 X124.13 Y109.507
G1 F3000 X110.491 Y95.868 E51.24224
G0 F9000 X109.827 Y95.868
G1 F3000 X124.13 Y110.172 E52.62567
G0 F9000 X124.13 Y110.836
G1 F3000 X109.162 Y95.868 E54.07337
G0 F9000 X108.497 Y95.868
G1 F3000 X124.13 Y111.501 E55.58539
G0 F9000 X124.13 Y112.166
G1 F3000 X107.833 Y95.868 E57.16168
G0 F9000 X107.168 Y95.868
G1 F3000 X124.13 Y112.83 E58.80223
G0 F9000 X124.13 Y113.495
G1 F3000 X106.503 Y95.868 E60.50711
G0 F9000 X105.839 Y95.868
G1 F3000 X124.13 Y114.16 E62.27626
G0 F9000 X124.13 Y114.824
G1 F3000 X105.174 Y95.868 E64.10968
G0 F9000 X104.509 Y95.868
G1 F3000 X124.13 Y115.489 E66.00742
G0 F9000 X124.13 Y116.154
G1 F3000 X103.844 Y95.868 E67.96947
G0 F9000 X103.18 Y95.868
G1 F3000 X124.13 Y116.818 E69.99575
G0 F9000 X124.13 Y117.483
G1 F3000 X102.515 Y95.868 E72.08635
G0 F9000 X101.85 Y95.868
G1 F3000 X124.13 Y118.148 E74.24126
G0 F9000 X124.13 Y118.813
G1 F3000 X101.186 Y95.868 E76.46045
G0 F9000 X100.521 Y95.868
G1 F3000 X124.13 Y119.477 E78.7439
G0 F9000 X124.13 Y120.142
G1 F3000 X99.856 Y95.868 E81.09168
G0 F9000 X99.192 Y95.868
G1 F3000 X124.13 Y120.807 E83.50372
G0 F9000 X124.13 Y121.471
G1 F3000 X98.527 Y95.868 E85.98003
G0 F9000 X97.862 Y95.868
G1 F3000 X124.13 Y122.136 E88.52067
G0 F9000 X124.13 Y122.801
G1 F3000 X97.198 Y95.868 E91.12557
G0 F9000 X96.533 Y95.868
G1 F3000 X124.13 Y123.465 E93.79474
G0 F9000 X124.13 Y124.13
G1 F3000 X95.868 Y95.868 E96.52824
G0 F9000 X95.868 Y96.533
G1 F3000 X123.465 Y124.13 E99.19741
G0 F9000 X122.801 Y124.13
G1 F3000 X95.868 Y97.198 E101.80231
G0 F9000 X95.868 Y97.862
G1 F3000 X122.136 Y124.13 E104.34295
G0 F9000 X121.471 Y124.13
G1 F3000 X95.868 Y98.527 E106.81926
G0 F9000 X95.868 Y99.192
G1 F3000 X120.807 Y124.13 E109.2313
G0 F9000 X120.142 Y124.13
G1 F3000 X95.868 Y99.856 E111.57908
G0 F9000 X95.868 Y100.521
G1 F3000 X119.477 Y124.13 E113.86253
G0 F9000 X118.813 Y124.13
G1 F3000 X95.868 Y101.186 E116.08172
G0 F9000 X95.868 Y101.85
G1 F3000 X118.148 Y124.13 E118.23663
G0 F9000 X117.483 Y124.13
G1 F3000 X95.868 Y102.515 E120.32723
G0 F9000 X95.868 Y103.18
G1 F3000 X116.818 Y124.13 E122.35351
G0 F9000 X116.154 Y124.13
G1 F3000 X95.868 Y103.844 E124.31556
G0 F9000 X95.868 Y104.509
G1 F3000 X115.489 Y124.13 E126.2133
G0 F9000 X114.824 Y124.13
G1 F3000 X95.868 Y105.174 E128.04672
G0 F9000 X95.868 Y105.839
G1 F3000 X114.16 Y124.13 E129.81587
G0 F9000 X113.495 Y124.13
G1 F3000 X95.868 Y106.503 E131.52074
G0 F9000 X95.868 Y107.168
G1 F3000 X112.83 Y124.13 E133.1613
G0 F9000 X112.166 Y124.13
G1 F3000 X95.868 Y107.833 E134.73759
G0 F9000 X95.868 Y108.497
G1 F3000 X111.501 Y124.13 E136.24961
G0 F9000 X110.836 Y124.13
G1 F3000 X95.868 Y109.162 E137.69731
G0 F9000 X95.868 Y109.827
G1 F3000 X110.172 Y124.13 E139.08074
G0 F9000 X109.507 Y124.13
G1 F3000 X95.868 Y110.491 E140.3999
G0 F9000 X95.868 Y111.156
G1 F3000 X108.842 Y124.13 E141.65474
G0 F9000 X108.178 Y124.13
G1 F3000 X95.868 Y111.821 E142.84532
G0 F9000 X95.868 Y112.485
G1 F3000 X107.513 Y124.13 E143.97162
G0 F9000 X106.848 Y124.13
G1 F3000 X95.868 Y113.15 E145.0336
G0 F9000 X95.868 Y113.815
G1 F3000 X106.184 Y124.13 E146.03131
G0 F9000 X105.519 Y124.13
G1 F3000 X95.868 Y114.479 E146.96475
G0 F9000 X95.868 Y115.144
G1 F3000 X104.854 Y124.13 E147.83388
G0 F9000 X104.19 Y124.13
G1 F3000 X95.868 Y115.809 E148.63873
G0 F9000 X95.868 Y116.473
G1 F3000 X103.525 Y124.13 E149.37931
G0 F9000 X102.86 Y124.13
G1 F3000 X95.868 Y117.138 E150.05558
G0 F9000 X95.868 Y117.803
G1 F3000 X102.196 Y124.13 E150.66757
G0 F9000 X101.531 Y124.13
G1 F3000 X95.868 Y118.467 E151.21529
G0 F9000 X95.868 Y119.132
G1 F3000 X100.866 Y124.13 E151.6987
G0 F9000 X100.201 Y124.13
G1 F3000 X95.868 Y119.797 E152.11778
G0 F9000 X95.868 Y120.462
G1 F3000 X99.537 Y124.13 E152.4726
G0 F9000 X98.872 Y124.13
G1 F3000 X95.868 Y121.126 E152.76315
G0 F9000 X95.868 Y121.791
G1 F3000 X98.207 Y124.13 E152.98937
G0 F9000 X97.543 Y124.13
G1 F3000 X95.868 Y122.456 E153.15133
G0 F9000 X95.868 Y123.12
G1 F3000 X96.878 Y124.13 E153.24902
G0 F9000 X96.213 Y124.13
M104 S205
G1 F3000 X95.868 Y123.785 E153.28239
G1 F2700 E152.48239
;MESH:NONMESH
G0 F300 X95.868 Y123.785 Z0.7
G0 F9000 X95.37 Y123.785
G0 X95.505 Y124.495
G0 X95.235 Y124.765
;TIME_ELAPSED:61.868914
;LAYER:1
M106 S255
;TYPE:WALL-OUTER
;MESH:Cube
G1 F2700 E153.28239
G1 F6000 X95.235 Y95.235 E155.30198
G1 X124.765 Y95.235 E157.32157
G1 X124.765 Y124.765 E159.34116
G1 X95.235 Y124.765 E161.36075
G1 X95.235 Y95.235 Z0.788 E163.38035
G1 X124.765 Y95.235 Z0.875 E165.39995
G1 X124.765 Y124.765 Z0.963 E167.41955
G1 X95.235 Y124.765 Z1.05 E169.43915
;TIME_ELAPSED:65.681376
;LAYER:2
;TYPE:WALL-OUTER
;MESH:Cube
G1 F3543.6 X95.235 Y95.235 Z1.138 E171.45875
G1 X124.765 Y95.235 Z1.225 E173.47835
G1 X124.765 Y124.765 Z1.313 E175.49795
G1 X95.235 Y124.765 Z1.4 E177.51755
;TIME_ELAPSED:68.069097
;LAYER:3
;TYPE:WALL-OUTER
;MESH:Cube
G1 X95.235 Y95.235 Z1.488 E179.53715
G1 X124.765 Y95.235 Z1.575 E181.55674
G1 X124.765 Y124.765 Z1.663 E183.57634
G1 X95.235 Y124.765 Z1.75 E185.59594
;TIME_ELAPSED:70.456818
;LAYER:4
;TYPE:WALL-OUTER
;MESH:Cube
G1 X95.235 Y95.235 Z1.838 E187.61554
G1 X124.765 Y95.235 Z1.925 E189.63514
G1 X124.765 Y124.765 Z2.013 E191.65474
G1 X95.235 Y124.765 Z2.1 E193.67434
;TIME_ELAPSED:72.844539
;LAYER:5
;TYPE:WALL-OUTER
;MESH:Cube
G1 X95.235 Y95.235 Z2.188 E195.69394
G1 X124.765 Y95.235 Z2.275 E197.71354
G1 X124.765 Y124.765 Z2.363 E199.73314
G1 X95.235 Y124.765 Z2.45 E201.75274
;TIME_ELAPSED:75.232260
;LAYER:6
;TYPE:WALL-OUTER
;MESH:Cube
G1 X95.235 Y95.235 Z2.538 E203.77234
G1 X124.765 Y95.235 Z2.625 E205.79194
G1 X124.765 Y124.765 Z2.713 E207.81154
G1 X95.235 Y124.765 Z2.8 E209.83114
;TIME_ELAPSED:77.619981
;LAYER:7
;TYPE:WALL-OUTER
;MESH:Cube
G1 X95.235 Y95.235 Z2.888 E211.85074
G1 X124.765 Y95.235 Z2.975 E213.87034
G1 X124.765 Y124.765 Z3.063 E215.88994
G1 X95.235 Y124.765 Z3.15 E217.90954
;TIME_ELAPSED:80.007702
;LAYER:8
;TYPE:WALL-OUTER
;MESH:Cube
G1 X95.235 Y95.235 Z3.238 E219.92914
G1 X124.765 Y95.235 Z3.325 E221.94874
G1 X124.765 Y124.765 Z3.413 E223.96834
G1 X95.235 Y124.765 Z3.5 E225.98794
;TIME_ELAPSED:82.395423
;LAYER:9
;TYPE:WALL-OUTER
;MESH:Cube
G1 X95.235 Y95.235 Z3.588 E228.00754
G1 X124.765 Y95.235 Z3.675 E230.02714
G1 X124.765 Y124.765 Z3.763 E232.04674
G1 X95.235 Y124.765 Z3.85 E234.06633
;TIME_ELAPSED:84.783144
;LAYER:10
;TYPE:WALL-OUTER
;MESH:Cube
G1 X95.235 Y95.235 Z3.938 E236.08593
G1 X124.765 Y95.235 Z4.025 E238.10553
G1 X124.765 Y124.765 Z4.113 E240.12513
G1 X95.235 Y124.765 Z4.2 E242.14473
;TIME_ELAPSED:87.170866
;LAYER:11
;TYPE:WALL-OUTER
;MESH:Cube
G1 X95.235 Y95.235 Z4.288 E244.16433
G1 X124.765 Y95.235 Z4.375 E246.18393
G1 X124.765 Y124.765 Z4.463 E248.20353
G1 X95.235 Y124.765 Z4.55 E250.22313
;TIME_ELAPSED:89.558587
;LAYER:12
;TYPE:WALL-OUTER
;MESH:Cube
G1 X95.235 Y95.235 Z4.638 E252.24273
G1 X124.765 Y95.235 Z4.725 E254.26233
G1 X124.765 Y124.765 Z4.813 E256.28193
G1 X95.235 Y124.765 Z4.9 E258.30153
;TIME_ELAPSED:91.946308
;LAYER:13
;TYPE:WALL-OUTER
;MESH:Cube
G1 X95.235 Y95.235 Z4.988 E260.32113
G1 X124.765 Y95.235 Z5.075 E262.34073
G1 X124.765 Y124.765 Z5.163 E264.36033
G1 X95.235 Y124.765 Z5.25 E266.37993
;TIME_ELAPSED:94.334029
;LAYER:14
;TYPE:WALL-OUTER
;MESH:Cube
G1 X95.235 Y95.235 Z5.338 E268.39953
G1 X124.765 Y95.235 Z5.425 E270.41913
G1 X124.765 Y124.765 Z5.513 E272.43873
G1 X95.235 Y124.765 Z5.6 E274.45833
;TIME_ELAPSED:96.721750
;LAYER:15
;TYPE:WALL-OUTER
;MESH:Cube
G1 X95.235 Y95.235 Z5.688 E276.47793
G1 X124.765 Y95.235 Z5.775 E278.49753
G1 X124.765 Y124.765 Z5.863 E280.51713
G1 X95.235 Y124.765 Z5.95 E282.53673
;TIME_ELAPSED:99.109471
;LAYER:16
;TYPE:WALL-OUTER
;MESH:Cube
G1 X95.235 Y95.235 Z6.038 E284.55632
G1 X124.765 Y95.235 Z6.125 E286.57592
G1 X124.765 Y124.765 Z6.213 E288.59552
G1 X95.235 Y124.765 Z6.3 E290.61512
;TIME_ELAPSED:101.497192
;LAYER:17
;TYPE:WALL-OUTER
;MESH:Cube
G1 X95.235 Y95.235 Z6.388 E292.63472
G1 X124.765 Y95.235 Z6.475 E294.65432
G1 X124.765 Y124.765 Z6.563 E296.67392
G1 X95.235 Y124.765 Z6.65 E298.69352
;TIME_ELAPSED:103.884913
;LAYER:18
;TYPE:WALL-OUTER
;MESH:Cube
G1 X95.235 Y95.235 Z6.738 E300.71312
G1 X124.765 Y95.235 Z6.825 E302.73272
G1 X124.765 Y124.765 Z6.913 E304.75232
G1 X95.235 Y124.765 Z7 E306.77192
;TIME_ELAPSED:106.272634
;LAYER:19
;TYPE:WALL-OUTER
;MESH:Cube
G1 X95.235 Y95.235 Z7.088 E308.79152
G1 X124.765 Y95.235 Z7.175 E310.81112
G1 X124.765 Y124.765 Z7.263 E312.83072
G1 X95.235 Y124.765 Z7.35 E314.85032
;TIME_ELAPSED:108.660355
;LAYER:20
;TYPE:WALL-OUTER
;MESH:Cube
G1 X95.235 Y95.235 Z7.438 E316.86992
G1 X124.765 Y95.235 Z7.525 E318.88952
G1 X124.765 Y124.765 Z7.613 E320.90912
G1 X95.235 Y124.765 Z7.7 E322.92872
;TIME_ELAPSED:111.048076
;LAYER:21
;TYPE:WALL-OUTER
;MESH:Cube
G1 X95.235 Y95.235 Z7.788 E324.94832
G1 X124.765 Y95.235 Z7.875 E326.96792
G1 X124.765 Y124.765 Z7.963 E328.98752
G1 X95.235 Y124.765 Z8.05 E331.00712
;TIME_ELAPSED:113.435797
;LAYER:22
;TYPE:WALL-OUTER
;MESH:Cube
G1 X95.235 Y95.235 Z8.138 E333.02672
G1 X124.765 Y95.235 Z8.225 E335.04631
G1 X124.765 Y124.765 Z8.313 E337.06591
G1 X95.235 Y124.765 Z8.4 E339.08551
;TIME_ELAPSED:115.823518
;LAYER:23
;TYPE:WALL-OUTER
;MESH:Cube
G1 X95.235 Y95.235 Z8.488 E341.10511
G1 X124.765 Y95.235 Z8.575 E343.12471
G1 X124.765 Y124.765 Z8.663 E345.14431
G1 X95.235 Y124.765 Z8.75 E347.16391
;TIME_ELAPSED:118.211239
;LAYER:24
;TYPE:WALL-OUTER
;MESH:Cube
G1 X95.235 Y95.235 Z8.838 E349.18351
G1 X124.765 Y95.235 Z8.925 E351.20311
G1 X124.765 Y124.765 Z9.013 E353.22271
G1 X95.235 Y124.765 Z9.1 E355.24231
;TIME_ELAPSED:120.598961
;LAYER:25
