; generated by PrusaSlicer 2.6.0-alpha4+win64 on 2023-03-09 at 18:34:43 UTC

; 

; external perimeters extrusion width = 0.40mm
; perimeters extrusion width = 0.40mm
; infill extrusion width = 0.40mm
; solid infill extrusion width = 0.40mm
; top infill extrusion width = 0.40mm
; support material extrusion width = 0.40mm
; first layer extrusion width = 0.44mm

M107
M190 S60 ; set bed temperature and wait for it to be reached
M104 S205 ; set temperature
;TYPE:Custom
SET_GCODE_VARIABLE MACRO=START_PRINT VARIABLE=bed_temp VALUE=60
SET_GCODE_VARIABLE MACRO=START_PRINT VARIABLE=extruder_temp VALUE=205
START_PRINT
M109 S205 ; set temperature and wait for it to be reached
G21 ; set units to millimeters
G90 ; use absolute coordinates
M82 ; use absolute distances for extrusion
G92 E0
; Filament gcode
M107
;LAYER_CHANGE
;Z:0.25
;HEIGHT:0.25
;BEFORE_LAYER_CHANGE
;0.25


G1 Z.25 F18000
;AFTER_LAYER_CHANGE
;0.25
G1 E-.5 F2700
G92 E0
G1 Z.45 F18000
G1 X97.14 Y97.05
G1 Z.25
G1 E.5 F2700
;TYPE:Skirt/Brim
;WIDTH:0.4375
G1 F1800
G1 X97.623 Y96.567 E.52725
G1 X99.404 Y95.122 E.61875
G1 X101.035 Y94.086 E.69584
G1 X102.38 Y93.4 E.75608
G1 X104.181 Y92.686 E.83337
G1 X105.625 Y92.266 E.89337
G1 X107.525 Y91.903 E.97054
G1 X109.026 Y91.76 E1.0307
G1 X110.966 Y91.76 E1.1081
G1 X112.469 Y91.902 E1.16833
G1 X114.71 Y92.352 E1.25952
G1 X116.55 Y92.949 E1.3367
G1 X117.941 Y93.551 E1.39717
G1 X119.632 Y94.48 E1.47415
G1 X120.875 Y95.325 E1.53412
G1 X122.369 Y96.56 E1.61145
G1 X123.439 Y97.629 E1.67179
G1 X124.67 Y99.118 E1.74887
G1 X125.519 Y100.366 E1.80909
G1 X126.449 Y102.059 E1.88615
G1 X127.049 Y103.445 E1.94641
G1 X127.736 Y105.633 E2.03791
G1 X128.098 Y107.531 E2.115
G1 X128.24 Y109.026 E2.17491
G1 X128.24 Y110.966 E2.25231
G1 X128.098 Y112.469 E2.31254
G1 X127.736 Y114.367 E2.38963
G1 X127.315 Y115.816 E2.44983
G1 X126.604 Y117.613 E2.52693
G1 X125.52 Y119.632 E2.61836
G1 X124.67 Y120.882 E2.67867
G1 X123.44 Y122.369 E2.75566
G1 X122.371 Y123.439 E2.816
G1 X120.884 Y124.668 E2.89297
G1 X119.634 Y125.519 E2.9533
G1 X117.941 Y126.449 E3.03036
G1 X116.555 Y127.049 E3.09062
G1 X114.718 Y127.646 E3.16768
G1 X112.469 Y128.098 E3.2592
G1 X110.974 Y128.24 E3.31911
G1 X109.034 Y128.24 E3.39651
G1 X107.531 Y128.098 E3.45674
G1 X105.633 Y127.736 E3.53383
G1 X104.184 Y127.315 E3.59403
G1 X102.059 Y126.449 E3.68558
G1 X100.368 Y125.52 E3.76256
G1 X99.118 Y124.67 E3.82287
G1 X97.631 Y123.44 E3.89986
G1 X96.561 Y122.371 E3.9602
G1 X95.335 Y120.889 E4.03694
G1 X94.481 Y119.634 E4.0975
G1 X93.4 Y117.62 E4.18869
G1 X92.686 Y115.819 E4.26598
G1 X92.266 Y114.375 E4.32598
G1 X91.903 Y112.475 E4.40315
G1 X91.76 Y110.966 E4.46362
G1 X91.76 Y109.034 E4.5407
G1 X91.902 Y107.531 E4.60093
G1 X92.352 Y105.29 E4.69212
G1 X92.949 Y103.45 E4.7693
G1 X93.551 Y102.059 E4.82977
G1 X94.48 Y100.368 E4.90675
G1 X95.325 Y99.125 E4.96672
G1 X96.556 Y97.635 E5.04383
G1 X97.098 Y97.093 E5.07441
G1 X97.369 Y97.364 F18000
G1 F1800
G1 X97.877 Y96.855 E5.1031
G1 X99.62 Y95.439 E5.1927
G1 X101.23 Y94.416 E5.2688
G1 X102.532 Y93.752 E5.32711
G1 X104.311 Y93.047 E5.40346
G1 X105.709 Y92.641 E5.46154
G1 X107.585 Y92.282 E5.53774
G1 X109.038 Y92.144 E5.59597
G1 X110.954 Y92.143 E5.67241
G1 X112.409 Y92.281 E5.73072
G1 X114.603 Y92.721 E5.82
G1 X116.42 Y93.31 E5.89621
G1 X117.766 Y93.893 E5.95473
G1 X119.436 Y94.811 E6.03076
G1 X120.64 Y95.628 E6.08881
G1 X122.115 Y96.848 E6.16518
G1 X123.151 Y97.883 E6.22361
G1 X124.367 Y99.353 E6.29972
G1 X125.188 Y100.562 E6.35803
G1 X126.107 Y102.234 E6.43415
G1 X126.688 Y103.575 E6.49246
G1 X127.277 Y105.389 E6.56855
G1 X127.719 Y107.591 E6.65815
G1 X127.856 Y109.038 E6.71614
G1 X127.857 Y110.954 E6.79258
G1 X127.719 Y112.409 E6.85089
G1 X127.361 Y114.283 E6.92701
G1 X126.688 Y116.425 E7.01659
G1 X126.107 Y117.766 E7.0749
G1 X125.189 Y119.436 E7.15093
G1 X124.367 Y120.647 E7.20932
G1 X123.152 Y122.115 E7.28535
G1 X122.117 Y123.151 E7.34378
G1 X120.649 Y124.365 E7.41978
G1 X119.438 Y125.188 E7.4782
G1 X117.766 Y126.107 E7.55432
G1 X116.425 Y126.688 E7.61263
G1 X114.611 Y127.277 E7.68872
G1 X112.409 Y127.719 E7.77832
G1 X110.962 Y127.856 E7.83631
G1 X109.046 Y127.857 E7.91275
G1 X107.591 Y127.719 E7.97106
G1 X105.389 Y127.277 E8.06066
G1 X103.58 Y126.69 E8.13654
G1 X102.234 Y126.107 E8.19506
G1 X100.564 Y125.189 E8.27109
G1 X99.353 Y124.367 E8.32948
G1 X97.885 Y123.152 E8.40551
G1 X96.849 Y122.117 E8.46394
G1 X95.638 Y120.654 E8.53971
G1 X94.812 Y119.438 E8.59836
G1 X93.752 Y117.468 E8.68761
G1 X93.047 Y115.689 E8.76396
G1 X92.641 Y114.291 E8.82204
G1 X92.282 Y112.415 E8.89824
G1 X92.143 Y110.954 E8.95679
G1 X92.143 Y109.046 E9.03291
G1 X92.281 Y107.591 E9.09122
G1 X92.721 Y105.397 E9.1805
G1 X93.31 Y103.58 E9.25671
G1 X93.893 Y102.234 E9.31523
G1 X94.811 Y100.564 E9.39126
G1 X95.628 Y99.36 E9.44931
G1 X96.844 Y97.889 E9.52545
G1 X97.326 Y97.406 E9.55267
;WIPE_START
G1 F14400
G1 X97.877 Y96.855 E9.41387
G1 X99.451 Y95.576 E9.05267
;WIPE_END
G92 E0
G1 Z.45 F18000
G1 X116.21 Y119.681
G1 Z.25
G1 E.5 F2700
;TYPE:Perimeter
;WIDTH:0.437499
G1 F1800
G1 X115.858 Y119.905 E.51665
G1 X115.224 Y120.253 E.5455
G1 X114.57 Y120.561 E.57434
G1 X113.898 Y120.827 E.60317
G1 X113.21 Y121.05 E.63202
G1 X112.51 Y121.23 E.66086
G1 X111.8 Y121.366 E.6897
G1 X111.083 Y121.456 E.71853
G1 X110.361 Y121.502 E.74739
G1 X109.639 Y121.502 E.7762
G1 X108.917 Y121.456 E.80506
G1 X108.2 Y121.366 E.83389
G1 X107.49 Y121.23 E.86273
G1 X106.79 Y121.05 E.89157
G1 X106.102 Y120.827 E.92042
G1 X105.43 Y120.561 E.94925
G1 X104.776 Y120.253 E.97809
G1 X104.142 Y119.905 E1.00694
G1 X103.532 Y119.518 E1.03576
G1 X102.947 Y119.093 E1.06461
G1 X102.39 Y118.632 E1.09346
G1 X101.863 Y118.137 E1.12231
G1 X101.368 Y117.61 E1.15116
G1 X100.907 Y117.053 E1.18001
G1 X100.482 Y116.467 E1.20889
G1 X100.096 Y115.859 E1.23762
G1 X99.747 Y115.225 E1.26649
G1 X99.438 Y114.569 E1.29542
G1 X99.173 Y113.898 E1.3242
G1 X98.949 Y113.21 E1.35307
G1 X98.77 Y112.51 E1.3819
G1 X98.634 Y111.8 E1.41074
G1 X98.544 Y111.083 E1.43957
G1 X98.498 Y110.361 E1.46843
G1 X98.498 Y109.638 E1.49728
G1 X98.544 Y108.917 E1.5261
G1 X98.634 Y108.2 E1.55493
G1 X98.77 Y107.49 E1.58377
G1 X98.95 Y106.789 E1.61264
G1 X99.173 Y106.102 E1.64146
G1 X99.439 Y105.43 E1.67029
G1 X99.747 Y104.776 E1.69913
G1 X100.095 Y104.142 E1.72798
G1 X100.483 Y103.532 E1.75682
G1 X100.908 Y102.946 E1.7857
G1 X101.367 Y102.391 E1.81443
G1 X101.862 Y101.864 E1.84328
G1 X102.391 Y101.367 E1.87224
G1 X102.946 Y100.908 E1.90097
G1 X103.531 Y100.483 E1.92982
G1 X104.144 Y100.094 E1.95879
G1 X104.774 Y99.748 E1.98747
G1 X105.429 Y99.44 E2.01635
G1 X106.103 Y99.172 E2.04529
G1 X106.79 Y98.949 E2.07411
G1 X107.49 Y98.77 E2.10294
G1 X108.2 Y98.634 E2.13178
G1 X108.918 Y98.544 E2.16065
G1 X109.64 Y98.498 E2.18951
G1 X110.36 Y98.498 E2.21824
G1 X111.082 Y98.544 E2.2471
G1 X111.802 Y98.635 E2.27605
G1 X112.511 Y98.77 E2.30484
G1 X113.211 Y98.95 E2.33368
G1 X113.898 Y99.173 E2.3625
G1 X114.57 Y99.439 E2.39133
G1 X115.224 Y99.747 E2.42017
G1 X115.858 Y100.095 E2.44902
G1 X116.468 Y100.482 E2.47784
G1 X117.053 Y100.907 E2.50669
G1 X117.61 Y101.368 E2.53554
G1 X118.137 Y101.863 E2.56439
G1 X118.632 Y102.39 E2.59324
G1 X119.093 Y102.947 E2.62209
G1 X119.518 Y103.532 E2.65094
G1 X119.905 Y104.142 E2.67976
G1 X120.253 Y104.776 E2.70861
G1 X120.561 Y105.43 E2.73745
G1 X120.827 Y106.102 E2.76628
G1 X121.05 Y106.79 E2.79513
G1 X121.23 Y107.49 E2.82397
G1 X121.366 Y108.2 E2.85281
G1 X121.456 Y108.917 E2.88164
G1 X121.502 Y109.639 E2.9105
G1 X121.502 Y110.361 E2.93931
G1 X121.456 Y111.083 E2.96817
G1 X121.366 Y111.8 E2.997
G1 X121.23 Y112.51 E3.02584
G1 X121.05 Y113.21 E3.05468
G1 X120.827 Y113.898 E3.08353
G1 X120.561 Y114.57 E3.11236
G1 X120.253 Y115.224 E3.1412
G1 X119.905 Y115.858 E3.17005
G1 X119.518 Y116.468 E3.19887
G1 X119.093 Y117.053 E3.22772
G1 X118.632 Y117.61 E3.25657
G1 X118.137 Y118.137 E3.28542
G1 X117.61 Y118.632 E3.31427
G1 X117.053 Y119.093 E3.34312
G1 X116.261 Y119.649 E3.38173
G1 X116.416 Y120.005 F18000
G1 F1800
G1 X116.053 Y120.235 E3.39887
G1 X115.398 Y120.595 E3.42869
G1 X114.723 Y120.913 E3.45846
G1 X114.028 Y121.188 E3.48828
G1 X113.318 Y121.419 E3.51807
G1 X112.594 Y121.605 E3.54789
G1 X111.86 Y121.745 E3.5777
G1 X111.119 Y121.838 E3.6075
G1 X110.374 Y121.885 E3.63728
G1 X109.626 Y121.885 E3.66712
G1 X108.881 Y121.838 E3.6969
G1 X108.14 Y121.745 E3.7267
G1 X107.406 Y121.605 E3.75651
G1 X106.682 Y121.419 E3.78633
G1 X105.972 Y121.188 E3.81612
G1 X105.277 Y120.913 E3.84594
G1 X104.601 Y120.595 E3.87575
G1 X103.947 Y120.235 E3.90553
G1 X103.316 Y119.835 E3.93534
G1 X102.712 Y119.396 E3.96513
G1 X102.136 Y118.92 E3.99494
G1 X101.592 Y118.408 E4.02474
G1 X101.08 Y117.864 E4.05454
G1 X100.604 Y117.288 E4.08435
G1 X100.164 Y116.683 E4.1142
G1 X99.765 Y116.054 E4.14392
G1 X99.406 Y115.399 E4.17372
G1 X99.086 Y114.721 E4.20363
G1 X98.812 Y114.028 E4.23336
G1 X98.581 Y113.317 E4.26319
G1 X98.395 Y112.594 E4.29297
G1 X98.255 Y111.86 E4.32278
G1 X98.162 Y111.119 E4.35258
G1 X98.115 Y110.373 E4.3824
G1 X98.115 Y109.626 E4.4122
G1 X98.162 Y108.881 E4.44198
G1 X98.255 Y108.14 E4.47178
G1 X98.395 Y107.406 E4.50159
G1 X98.581 Y106.682 E4.53141
G1 X98.812 Y105.972 E4.5612
G1 X99.087 Y105.277 E4.59102
G1 X99.405 Y104.601 E4.62083
G1 X99.765 Y103.947 E4.65061
G1 X100.165 Y103.316 E4.68042
G1 X100.605 Y102.711 E4.71027
G1 X101.079 Y102.137 E4.73997
G1 X101.591 Y101.593 E4.76977
G1 X102.137 Y101.079 E4.79969
G1 X102.711 Y100.605 E4.82939
G1 X103.315 Y100.166 E4.85918
G1 X103.948 Y99.764 E4.8891
G1 X104.6 Y99.406 E4.91878
G1 X105.276 Y99.087 E4.9486
G1 X105.973 Y98.811 E4.97851
G1 X106.683 Y98.581 E5.00829
G1 X107.406 Y98.395 E5.03807
G1 X108.14 Y98.255 E5.06788
G1 X108.881 Y98.161 E5.09768
G1 X109.628 Y98.115 E5.12754
G1 X110.372 Y98.115 E5.15722
G1 X111.118 Y98.162 E5.18704
G1 X111.862 Y98.255 E5.21695
G1 X112.594 Y98.395 E5.24668
G1 X113.318 Y98.581 E5.2765
G1 X114.028 Y98.812 E5.30629
G1 X114.723 Y99.087 E5.33611
G1 X115.399 Y99.405 E5.36592
G1 X116.053 Y99.765 E5.3957
G1 X116.684 Y100.165 E5.42551
G1 X117.288 Y100.604 E5.4553
G1 X117.864 Y101.08 E5.48511
G1 X118.408 Y101.592 E5.51491
G1 X118.92 Y102.136 E5.54471
G1 X119.396 Y102.712 E5.57452
G1 X119.835 Y103.316 E5.60431
G1 X120.235 Y103.947 E5.63412
G1 X120.595 Y104.602 E5.66394
G1 X120.913 Y105.277 E5.69371
G1 X121.188 Y105.972 E5.72353
G1 X121.419 Y106.682 E5.75332
G1 X121.605 Y107.406 E5.78314
G1 X121.745 Y108.14 E5.81295
G1 X121.838 Y108.881 E5.84275
G1 X121.885 Y109.626 E5.87253
G1 X121.885 Y110.374 E5.90237
G1 X121.838 Y111.119 E5.93215
G1 X121.745 Y111.86 E5.96195
G1 X121.605 Y112.594 E5.99176
G1 X121.419 Y113.318 E6.02158
G1 X121.188 Y114.028 E6.05137
G1 X120.913 Y114.723 E6.08119
G1 X120.595 Y115.399 E6.111
G1 X120.235 Y116.053 E6.14078
G1 X119.835 Y116.684 E6.17059
G1 X119.396 Y117.288 E6.20038
G1 X118.92 Y117.864 E6.23019
G1 X118.408 Y118.408 E6.25999
G1 X117.864 Y118.92 E6.28979
G1 X117.288 Y119.396 E6.3196
G1 X116.466 Y119.973 E6.35967
G1 X116.621 Y120.329 F18000
;TYPE:External perimeter
G1 F1800
G1 X116.249 Y120.566 E6.37727
G1 X115.573 Y120.937 E6.40803
G1 X114.875 Y121.266 E6.43882
G1 X114.158 Y121.549 E6.46957
G1 X113.425 Y121.788 E6.50033
G1 X112.678 Y121.979 E6.53109
G1 X111.92 Y122.124 E6.56188
G1 X111.155 Y122.221 E6.59265
G1 X110.386 Y122.269 E6.62339
G1 X109.614 Y122.269 E6.65419
G1 X108.845 Y122.221 E6.68493
G1 X108.08 Y122.124 E6.7157
G1 X107.322 Y121.979 E6.74649
G1 X106.575 Y121.788 E6.77725
G1 X105.842 Y121.549 E6.80801
G1 X105.125 Y121.265 E6.83878
G1 X104.427 Y120.937 E6.86955
G1 X103.751 Y120.566 E6.90031
G1 X103.1 Y120.152 E6.93109
G1 X102.476 Y119.699 E6.96185
G1 X101.882 Y119.208 E6.9926
G1 X101.32 Y118.68 E7.02337
G1 X100.792 Y118.117 E7.05416
G1 X100.301 Y117.523 E7.08491
G1 X99.847 Y116.898 E7.11573
G1 X99.435 Y116.25 E7.14637
G1 X99.064 Y115.574 E7.17713
G1 X98.734 Y114.874 E7.20801
G1 X98.45 Y114.158 E7.23874
G1 X98.212 Y113.424 E7.26952
G1 X98.021 Y112.678 E7.30024
G1 X97.876 Y111.92 E7.33103
G1 X97.779 Y111.155 E7.3618
G1 X97.731 Y110.386 E7.39254
G1 X97.731 Y109.614 E7.42334
G1 X97.779 Y108.845 E7.45408
G1 X97.876 Y108.08 E7.48485
G1 X98.021 Y107.322 E7.51564
G1 X98.212 Y106.575 E7.5464
G1 X98.451 Y105.842 E7.57716
G1 X98.735 Y105.125 E7.60793
G1 X99.063 Y104.427 E7.6387
G1 X99.434 Y103.751 E7.66946
G1 X99.848 Y103.1 E7.70024
G1 X100.302 Y102.475 E7.73106
G1 X100.791 Y101.883 E7.76169
G1 X101.319 Y101.321 E7.79246
G1 X101.883 Y100.791 E7.82334
G1 X102.475 Y100.302 E7.85397
G1 X103.099 Y99.848 E7.88476
G1 X103.753 Y99.434 E7.91564
G1 X104.426 Y99.063 E7.9463
G1 X105.124 Y98.735 E7.97707
G1 X105.843 Y98.45 E8.00793
G1 X106.576 Y98.212 E8.03868
G1 X107.323 Y98.02 E8.06945
G1 X108.08 Y97.876 E8.10019
G1 X108.845 Y97.779 E8.13096
G1 X109.616 Y97.731 E8.16178
G1 X110.384 Y97.731 E8.19242
G1 X111.154 Y97.779 E8.2232
G1 X111.922 Y97.876 E8.25408
G1 X112.678 Y98.021 E8.28479
G1 X113.425 Y98.212 E8.31555
G1 X114.158 Y98.451 E8.34631
G1 X114.875 Y98.735 E8.37708
G1 X115.573 Y99.063 E8.40785
G1 X116.249 Y99.434 E8.43861
G1 X116.9 Y99.848 E8.46939
G1 X117.524 Y100.301 E8.50015
G1 X118.118 Y100.792 E8.5309
G1 X118.68 Y101.32 E8.56167
G1 X119.208 Y101.882 E8.59244
G1 X119.699 Y102.476 E8.62319
G1 X120.153 Y103.1 E8.65398
G1 X120.566 Y103.751 E8.68474
G1 X120.937 Y104.427 E8.7155
G1 X121.266 Y105.125 E8.74629
G1 X121.549 Y105.842 E8.77704
G1 X121.788 Y106.575 E8.8078
G1 X121.979 Y107.322 E8.83856
G1 X122.124 Y108.08 E8.86935
G1 X122.221 Y108.845 E8.90012
G1 X122.269 Y109.614 E8.93086
G1 X122.269 Y110.386 E8.96166
G1 X122.221 Y111.155 E8.9924
G1 X122.124 Y111.92 E9.02317
G1 X121.979 Y112.678 E9.05396
G1 X121.788 Y113.425 E9.08472
G1 X121.549 Y114.158 E9.11548
G1 X121.266 Y114.875 E9.14623
G1 X120.937 Y115.573 E9.17702
G1 X120.566 Y116.249 E9.20778
G1 X120.153 Y116.9 E9.23854
G1 X119.699 Y117.524 E9.26933
G1 X119.208 Y118.118 E9.30008
G1 X118.68 Y118.68 E9.33085
G1 X118.118 Y119.208 E9.36162
G1 X117.524 Y119.699 E9.39237
G1 X116.9 Y120.153 E9.42316
G1 X116.672 Y120.297 E9.43392
G1 X116.264 Y120.149 F18000
;WIPE_START
G1 F14400
G1 X116.249 Y120.566 E9.34463
G1 X115.573 Y120.937 E9.20728
G1 X114.875 Y121.266 E9.06983
G1 X114.165 Y121.546 E8.93392
;WIPE_END
G92 E0
G1 Z.45 F18000
G1 X119.387 Y103.443
G1 Z.25
G1 E.5 F2700
;TYPE:Solid infill
;WIDTH:0.44243
G1 F1800
G1 X117.693 Y101.749 E.59681
G1 X117.192 Y101.307 E.62381
G1 X116.632 Y100.872 E.65246
G1 X116.046 Y100.474 E.68108
G1 X115.612 Y100.218 E.70144
G1 X119.782 Y104.388 E.93974
G1 X120.209 Y105.196 E.97667
G1 X120.337 Y105.492 E.9897
G1 X114.508 Y99.663 E1.32281
G1 X114.153 Y99.51 E1.33843
G1 X113.609 Y99.314 E1.3618
G1 X120.686 Y106.391 E1.76623
G1 X120.924 Y107.178 E1.79945
G1 X112.822 Y99.076 E2.26245
G1 X112.112 Y98.917 E2.29185
G1 X121.083 Y107.888 E2.80452
G1 X121.187 Y108.541 E2.83124
G1 X111.459 Y98.813 E3.38717
G1 X110.849 Y98.753 E3.41194
G1 X121.247 Y109.151 E4.00615
G1 X121.274 Y109.728 E4.02949
G1 X110.272 Y98.726 E4.65822
G1 X109.722 Y98.726 E4.68044
G1 X121.274 Y110.278 E5.3406
G1 X121.251 Y110.805 E5.36192
G1 X109.195 Y98.749 E6.05088
G1 X108.693 Y98.796 E6.07125
G1 X121.204 Y111.307 E6.78622
G1 X121.135 Y111.788 E6.80586
G1 X108.212 Y98.865 E7.54437
G1 X107.746 Y98.949 E7.5635
G1 X121.051 Y112.254 E8.32384
G1 X120.951 Y112.704 E8.34247
G1 X107.296 Y99.049 E9.12281
G1 X106.865 Y99.167 E9.14087
G1 X120.833 Y113.135 E9.9391
G1 X120.705 Y113.557 E9.95692
G1 X106.443 Y99.295 E10.77195
G1 X106.038 Y99.441 E10.78935
G1 X120.559 Y113.962 E11.61918
G1 X120.403 Y114.355 E11.63627
G1 X105.645 Y99.597 E12.47964
G1 X105.261 Y99.763 E12.49654
G1 X120.237 Y114.739 E13.35237
G1 X120.055 Y115.106 E13.36892
G1 X104.894 Y99.945 E14.23532
G1 X104.531 Y100.133 E14.25184
G1 X119.867 Y115.469 E15.12825
G1 X119.663 Y115.814 E15.14445
G1 X104.186 Y100.337 E16.02891
G1 X103.846 Y100.547 E16.04506
G1 X119.453 Y116.154 E16.93695
G1 X119.23 Y116.481 E16.95294
G1 X103.519 Y100.77 E17.85078
G1 X103.364 Y100.876 E17.85837
G1 X103.201 Y101.002 E17.8667
G1 X118.998 Y116.799 E18.76945
G1 X118.758 Y117.109 E18.78529
G1 X102.891 Y101.242 E19.69204
G1 X102.595 Y101.495 E19.70777
G1 X118.505 Y117.405 E20.61698
