;FLAVOR:Marlin
;TIME:437
;Filament used: 0.283785m
;Layer height: 0.25
;MINX:94.359
;MINY:94.359
;MINZ:0.28
;MAXX:126
;MAXY:126
;MAXZ:20.03
;Generated with Cura_SteamEngine 5.2.2
M82 ;absolute extrusion mode
SET_GCODE_VARIABLE MACRO=START_PRINT VARIABLE=bed_temp VALUE=60
SET_GCODE_VARIABLE MACRO=START_PRINT VARIABLE=extruder_temp VALUE=205
START_PRINT
G92 E0
G92 E0
G1 F2700 E-0.7
;LAYER_COUNT:80
;LAYER:0
M107
G0 F9000 X96.291 Y95.971 Z0.28
;TYPE:SKIRT
G1 F2700 E0
G1 F3000 X96.825 Y95.53 E0.03225
G1 X97.407 Y95.154 E0.06451
G1 X98.027 Y94.847 E0.09673
G1 X98.68 Y94.614 E0.12901
G1 X99.354 Y94.458 E0.16123
G1 X100.168 Y94.374 E0.19933
G1 X100.696 Y94.36 E0.22392
G1 X119.291 Y94.359 E1.08979
G1 X120.076 Y94.37 E1.12634
G1 X120.767 Y94.419 E1.1586
G1 X121.447 Y94.549 E1.19084
G1 X122.108 Y94.755 E1.22307
G1 X122.741 Y95.037 E1.25534
G1 X123.337 Y95.389 E1.28757
G1 X123.888 Y95.808 E1.31981
G1 X124.388 Y96.288 E1.35208
G1 X124.829 Y96.822 E1.38433
G1 X125.205 Y97.403 E1.41655
G1 X125.513 Y98.023 E1.44879
G1 X125.746 Y98.675 E1.48103
G1 X125.903 Y99.35 E1.5133
G1 X125.987 Y100.192 E1.5527
G1 X126 Y100.708 E1.57674
G1 X126 Y119.338 E2.44423
G1 X125.991 Y120.065 E2.47808
G1 X125.942 Y120.756 E2.51034
G1 X125.814 Y121.437 E2.5426
G1 X125.609 Y122.098 E2.57483
G1 X125.329 Y122.731 E2.60706
G1 X124.977 Y123.328 E2.63933
G1 X124.56 Y123.881 E2.67158
G1 X124.081 Y124.381 E2.70382
G1 X123.548 Y124.823 E2.73606
G1 X122.967 Y125.201 E2.76834
G1 X122.347 Y125.509 E2.80058
G1 X121.696 Y125.744 E2.8328
G1 X121.021 Y125.902 E2.86508
G1 X120.159 Y125.989 E2.90543
G1 X119.67 Y126 E2.9282
G1 X100.989 Y126 E3.79807
G1 X100.291 Y125.991 E3.83057
G1 X99.6 Y125.942 E3.86283
G1 X98.919 Y125.813 E3.8951
G1 X98.258 Y125.608 E3.92733
G1 X97.625 Y125.327 E3.95958
G1 X97.028 Y124.976 E3.99182
G1 X96.476 Y124.558 E4.02407
G1 X95.976 Y124.079 E4.05631
G1 X95.534 Y123.545 E4.08859
G1 X95.157 Y122.965 E4.1208
G1 X94.849 Y122.344 E4.15307
G1 X94.614 Y121.693 E4.1853
G1 X94.457 Y121.018 E4.21757
G1 X94.37 Y120.142 E4.25856
G1 X94.359 Y119.634 E4.28222
G1 X94.361 Y100.956 E5.15195
G1 X94.371 Y100.282 E5.18334
G1 X94.421 Y99.591 E5.2156
G1 X94.55 Y98.911 E5.24783
G1 X94.757 Y98.25 E5.28008
G1 X95.039 Y97.617 E5.31235
G1 X95.392 Y97.022 E5.34456
G1 X95.811 Y96.47 E5.37683
G1 X96.291 Y95.971 E5.40907
G0 F9000 X96.681 Y96.158
G1 F3000 X97.21 Y95.748 E5.44024
G1 X97.784 Y95.404 E5.4714
G1 X98.394 Y95.131 E5.50251
G1 X99.033 Y94.933 E5.53366
G1 X99.691 Y94.812 E5.56482
G1 X100.181 Y94.774 E5.5877
G1 X100.696 Y94.76 E5.61169
G1 X119.291 Y94.759 E6.47755
G1 X120.07 Y94.77 E6.51383
G1 X120.737 Y94.819 E6.54497
G1 X121.394 Y94.948 E6.57615
G1 X122.03 Y95.154 E6.60728
G1 X122.638 Y95.434 E6.63845
G1 X123.207 Y95.785 E6.66958
G1 X123.731 Y96.202 E6.70076
G1 X124.201 Y96.678 E6.73191
G1 X124.611 Y97.206 E6.76304
G1 X124.956 Y97.78 E6.79422
G1 X125.229 Y98.391 E6.82538
G1 X125.427 Y99.029 E6.85649
G1 X125.548 Y99.687 E6.88764
G1 X125.588 Y100.204 E6.91179
G1 X125.6 Y100.708 E6.93526
G1 X125.6 Y119.333 E7.80252
G1 X125.591 Y120.06 E7.83638
G1 X125.542 Y120.728 E7.86756
G1 X125.415 Y121.384 E7.89868
G1 X125.21 Y122.021 E7.92984
G1 X124.931 Y122.629 E7.96099
G1 X124.581 Y123.199 E7.99213
G1 X124.165 Y123.724 E8.02332
G1 X123.69 Y124.195 E8.05447
G1 X123.163 Y124.606 E8.08559
G1 X122.59 Y124.952 E8.11676
G1 X121.98 Y125.226 E8.1479
G1 X121.341 Y125.426 E8.17907
G1 X120.683 Y125.548 E8.21024
G1 X120.148 Y125.589 E8.23522
G1 X119.67 Y125.6 E8.25748
G1 X100.994 Y125.6 E9.12712
G1 X100.296 Y125.591 E9.15962
G1 X99.629 Y125.542 E9.19076
G1 X98.972 Y125.414 E9.22193
G1 X98.335 Y125.209 E9.25309
G1 X97.727 Y124.929 E9.28426
G1 X97.157 Y124.579 E9.31541
G1 X96.633 Y124.163 E9.34656
G1 X96.162 Y123.688 E9.37771
G1 X95.751 Y123.16 E9.40886
G1 X95.406 Y122.587 E9.44001
G1 X95.132 Y121.977 E9.47115
G1 X94.932 Y121.338 E9.50232
G1 X94.811 Y120.68 E9.53348
G1 X94.77 Y120.132 E9.55907
G1 X94.759 Y119.634 E9.58226
G1 X94.761 Y100.962 E10.45171
G1 X94.771 Y100.288 E10.48309
G1 X94.82 Y99.621 E10.51424
G1 X94.95 Y98.964 E10.54542
G1 X95.156 Y98.328 E10.57655
G1 X95.437 Y97.721 E10.6077
G1 X95.788 Y97.151 E10.63887
G1 X96.205 Y96.628 E10.67001
G1 X96.681 Y96.158 E10.70116
G0 F9000 X97.07 Y96.353
G1 F3000 X97.592 Y95.975 E10.73117
G1 X98.158 Y95.665 E10.76122
G1 X98.757 Y95.428 E10.79122
G1 X99.381 Y95.266 E10.82124
G1 X100.195 Y95.174 E10.85938
G1 X100.696 Y95.16 E10.88272
G1 X119.291 Y95.159 E11.74858
G1 X120.064 Y95.17 E11.78458
G1 X120.707 Y95.219 E11.81461
G1 X121.339 Y95.347 E11.84463
G1 X121.95 Y95.553 E11.87466
G1 X122.531 Y95.832 E11.90467
G1 X123.073 Y96.181 E11.93469
G1 X123.567 Y96.595 E11.9647
G1 X124.007 Y97.067 E11.99475
G1 X124.384 Y97.589 E12.02473
G1 X124.695 Y98.154 E12.05476
G1 X124.933 Y98.753 E12.08477
G1 X125.095 Y99.377 E12.11479
G1 X125.188 Y100.216 E12.1541
G1 X125.2 Y100.708 E12.17701
G1 X125.2 Y119.328 E13.04404
G1 X125.191 Y120.055 E13.07789
G1 X125.143 Y120.698 E13.10792
G1 X125.016 Y121.33 E13.13794
G1 X124.811 Y121.942 E13.16799
G1 X124.533 Y122.523 E13.19798
G1 X124.185 Y123.066 E13.22801
G1 X123.772 Y123.561 E13.25803
G1 X123.301 Y124.001 E13.28804
G1 X122.779 Y124.38 E13.31808
G1 X122.215 Y124.691 E13.34807
G1 X121.616 Y124.93 E13.3781
G1 X120.993 Y125.094 E13.4081
G1 X120.137 Y125.189 E13.4482
G1 X119.67 Y125.2 E13.46995
G1 X100.999 Y125.2 E14.33935
G1 X100.301 Y125.191 E14.37186
G1 X99.658 Y125.142 E14.40189
G1 X99.026 Y125.015 E14.4319
G1 X98.415 Y124.81 E14.46191
G1 X97.834 Y124.532 E14.4919
G1 X97.291 Y124.183 E14.52196
G1 X96.796 Y123.77 E14.55198
G1 X96.356 Y123.299 E14.58199
G1 X95.977 Y122.777 E14.61203
G1 X95.666 Y122.213 E14.64202
G1 X95.428 Y121.614 E14.67203
G1 X95.265 Y120.99 E14.70206
G1 X95.17 Y120.122 E14.74272
G1 X95.159 Y119.634 E14.76545
G1 X95.161 Y100.968 E15.63462
G1 X95.171 Y100.294 E15.66601
G1 X95.22 Y99.651 E15.69603
G1 X95.349 Y99.019 E15.72607
G1 X95.555 Y98.408 E15.75609
G1 X95.834 Y97.828 E15.78606
G1 X96.184 Y97.286 E15.8161
G1 X96.598 Y96.792 E15.84612
G1 X97.07 Y96.353 E15.87613
G1 F2700 E15.17613
;MESH:four_square_cons.stl
G0 F9000 X100.773 Y99.695
G0 X100.96 Y100.96
;TYPE:WALL-INNER
G1 F2700 E15.87613
G1 F3000 X100.96 Y119.4 E16.73478
G1 X119.4 Y119.4 E17.59342
G1 X119.4 Y110.18 E18.02274
G1 X119.4 Y100.96 E18.45206
G1 X100.96 Y100.96 E19.31071
G0 F9000 X100.56 Y100.56
;TYPE:WALL-OUTER
G1 F3000 X100.56 Y119.8 E20.2066
G1 X119.8 Y119.8 E21.1025
G1 X119.8 Y110.18 E21.55044
G1 X119.8 Y100.56 E21.99839
G1 X100.56 Y100.56 E22.89429
G0 F9000 X100.83 Y100.83
G0 X101.3 Y101.06
G0 X101.3 Y101.3
;TYPE:SKIN
G1 F3000 X101.3 Y119.06 E23.72127
G1 X119.06 Y119.06 E24.54825
G1 X119.06 Y110.18 E24.96174
G1 X119.06 Y101.3 E25.37523
G1 X101.3 Y101.3 E26.20221
G0 F9000 X101.3 Y101.06
G0 X118.859 Y101.06
G0 X118.859 Y101.889
G1 F3000 X118.47 Y101.5 E26.22782
G0 F9000 X117.905 Y101.5
G1 F3000 X118.859 Y102.454 E26.29065
G0 F9000 X118.859 Y103.02
G1 F3000 X117.339 Y101.5 E26.39074
G0 F9000 X116.773 Y101.5
G1 F3000 X118.859 Y103.586 E26.52811
G0 F9000 X118.859 Y104.151
G1 F3000 X116.208 Y101.5 E26.70268
G0 F9000 X115.642 Y101.5
G1 F3000 X118.859 Y104.717 E26.91452
G0 F9000 X118.859 Y105.283
G1 F3000 X115.076 Y101.5 E27.16364
G0 F9000 X114.51 Y101.5
G1 F3000 X118.859 Y105.848 E27.45
G0 F9000 X118.859 Y106.414
G1 F3000 X113.945 Y101.5 E27.77359
G0 F9000 X113.379 Y101.5
G1 F3000 X118.859 Y106.98 E28.13446
G0 F9000 X118.859 Y107.545
G1 F3000 X112.813 Y101.5 E28.53257
G0 F9000 X112.248 Y101.5
G1 F3000 X118.859 Y108.111 E28.96791
G0 F9000 X118.859 Y108.677
G1 F3000 X111.682 Y101.5 E29.44053
G0 F9000 X111.116 Y101.5
G1 F3000 X118.859 Y109.243 E29.95042
G0 F9000 X118.859 Y109.808
G1 F3000 X110.551 Y101.5 E30.49752
G0 F9000 X109.985 Y101.5
G1 F3000 X118.859 Y110.374 E31.08188
G0 F9000 X118.859 Y110.94
G1 F3000 X109.419 Y101.5 E31.70352
G0 F9000 X108.854 Y101.5
G1 F3000 X118.859 Y111.505 E32.36237
G0 F9000 X118.859 Y112.071
G1 F3000 X108.288 Y101.5 E33.05849
G0 F9000 X107.722 Y101.5
G1 F3000 X118.859 Y112.637 E33.79188
G0 F9000 X118.859 Y113.202
G1 F3000 X107.157 Y101.5 E34.56248
G0 F9000 X106.591 Y101.5
G1 F3000 X118.859 Y113.768 E35.37034
G0 F9000 X118.859 Y114.334
G1 F3000 X106.025 Y101.5 E36.21549
G0 F9000 X105.46 Y101.5
G1 F3000 X118.859 Y114.899 E37.09783
G0 F9000 X118.859 Y115.465
G1 F3000 X104.894 Y101.5 E38.01745
G0 F9000 X104.328 Y101.5
G1 F3000 X118.859 Y116.031 E38.97434
G0 F9000 X118.859 Y116.596
G1 F3000 X103.762 Y101.5 E39.96847
G0 F9000 X103.197 Y101.5
G1 F3000 X118.859 Y117.162 E40.99984
G0 F9000 X118.859 Y117.728
G1 F3000 X102.631 Y101.5 E42.06848
G0 F9000 X102.065 Y101.5
G1 F3000 X118.859 Y118.294 E43.1744
G0 F9000 X118.859 Y118.859
G1 F3000 X101.499 Y101.499 E44.31758
G0 F9000 X101.499 Y102.065
G1 F3000 X118.294 Y118.859 E45.42353
G0 F9000 X117.728 Y118.859
G1 F3000 X101.499 Y102.63 E46.49224
G0 F9000 X101.499 Y103.196
G1 F3000 X117.162 Y118.859 E47.52367
G0 F9000 X116.596 Y118.859
G1 F3000 X101.499 Y103.762 E48.51784
G0 F9000 X101.499 Y104.327
G1 F3000 X116.031 Y118.859 E49.47479
G0 F9000 X115.465 Y118.859
G1 F3000 X101.499 Y104.893 E50.39448
G0 F9000 X101.499 Y105.459
G1 F3000 X114.899 Y118.859 E51.27689
G0 F9000 X114.334 Y118.859
G1 F3000 X101.499 Y106.025 E52.12206
G0 F9000 X101.499 Y106.59
G1 F3000 X113.768 Y118.859 E52.93
G0 F9000 X113.202 Y118.859
G1 F3000 X101.499 Y107.156 E53.70066
G0 F9000 X101.499 Y107.722
G1 F3000 X112.637 Y118.859 E54.43408
G0 F9000 X112.071 Y118.859
G1 F3000 X101.499 Y108.287 E55.13027
G0 F9000 X101.499 Y108.853
G1 F3000 X111.505 Y118.859 E55.78918
G0 F9000 X110.94 Y118.859
G1 F3000 X101.499 Y109.419 E56.41085
G0 F9000 X101.499 Y109.984
G1 F3000 X110.374 Y118.859 E56.99529
G0 F9000 X109.808 Y118.859
G1 F3000 X101.499 Y110.55 E57.54245
G0 F9000 X101.499 Y111.116
G1 F3000 X109.243 Y118.859 E58.05237
G0 F9000 X108.677 Y118.859
G1 F3000 X101.499 Y111.681 E58.52506
G0 F9000 X101.499 Y112.247
G1 F3000 X108.111 Y118.859 E58.96047
G0 F9000 X107.545 Y118.859
G1 F3000 X101.499 Y112.813 E59.35861
G0 F9000 X101.499 Y113.378
G1 F3000 X106.98 Y118.859 E59.71954
G0 F9000 X106.414 Y118.859
G1 F3000 X101.499 Y113.944 E60.0432
G0 F9000 X101.499 Y114.51
G1 F3000 X105.848 Y118.859 E60.32959
G0 F9000 X105.283 Y118.859
G1 F3000 X101.499 Y115.075 E60.57877
G0 F9000 X101.499 Y115.641
G1 F3000 X104.717 Y118.859 E60.79068
G0 F9000 X104.151 Y118.859
G1 F3000 X101.499 Y116.207 E60.96532
G0 F9000 X101.499 Y116.773
G1 F3000 X103.586 Y118.859 E61.10272
G0 F9000 X103.02 Y118.859
G1 F3000 X101.499 Y117.338 E61.20288
G0 F9000 X101.499 Y117.904
G1 F3000 X102.454 Y118.859 E61.26577
G0 F9000 X101.889 Y118.859
M104 S205
G1 F3000 X101.499 Y118.47 E61.29142
;MESH:NONMESH
G0 F300 X101.499 Y118.47 Z0.53
G0 F9000 X101.06 Y118.471
G0 X101.06 Y119.13
G0 X100.694 Y119.4
;TIME_ELAPSED:40.129658
;LAYER:1
M106 S255
;TYPE:WALL-INNER
;MESH:four_square_cons.stl
G1 F6000 X119.4 Y119.4 E62.06913
G1 X119.4 Y110.047 E62.45798
G1 X119.4 Y100.694 E62.84683
G1 X100.695 Y100.695 E63.62449
G1 X100.694 Y119.4 E64.40216
G0 F13500 X100.294 Y119.8
;TYPE:WALL-OUTER
G1 F6000 X119.8 Y119.8 E65.21312
G1 X119.8 Y110.047 E65.61861
G1 X119.8 Y100.294 E66.02409
G1 X100.295 Y100.295 E66.83501
G1 X100.294 Y119.8 E67.64594
G0 F13500 X100.564 Y119.53
G0 X101.034 Y119.06
;TYPE:SKIN
G1 F6000 X119.06 Y119.06 E68.39537
G1 X119.06 Y110.047 E68.77009
G1 X119.06 Y101.034 E69.1448
G1 X101.035 Y101.035 E69.8942
G1 X101.034 Y119.06 E70.64359
G0 F13500 X101.234 Y101.846
G1 F6000 X101.847 Y101.233 E70.67963
G0 F13500 X102.413 Y101.233
G1 F6000 X101.234 Y102.412 E70.74895
G0 F13500 X101.234 Y102.978
G1 F6000 X102.978 Y101.233 E70.85152
G0 F13500 X103.544 Y101.233
G1 F6000 X101.234 Y103.543 E70.98734
G0 F13500 X101.234 Y104.109
G1 F6000 X104.11 Y101.233 E71.15644
G0 F13500 X104.675 Y101.233
G1 F6000 X101.234 Y104.675 E71.35879
G0 F13500 X101.234 Y105.24
G1 F6000 X105.241 Y101.233 E71.59438
G0 F13500 X105.807 Y101.233
G1 F6000 X101.234 Y105.806 E71.86326
G0 F13500 X101.234 Y106.372
G1 F6000 X106.372 Y101.233 E72.16538
G0 F13500 X106.938 Y101.233
G1 F6000 X101.234 Y106.937 E72.50075
G0 F13500 X101.234 Y107.503
G1 F6000 X107.504 Y101.233 E72.86941
G0 F13500 X108.069 Y101.233
G1 F6000 X101.234 Y108.069 E73.27131
G0 F13500 X101.234 Y108.634
G1 F6000 X108.635 Y101.233 E73.70646
G0 F13500 X109.201 Y101.233
G1 F6000 X101.234 Y109.2 E74.17489
G0 F13500 X101.234 Y109.766
G1 F6000 X109.767 Y101.233 E74.67659
G0 F13500 X110.332 Y101.233
G1 F6000 X101.234 Y110.331 E75.21152
G0 F13500 X101.234 Y110.897
G1 F6000 X110.898 Y101.233 E75.77973
G0 F13500 X111.464 Y101.233
G1 F6000 X101.234 Y111.463 E76.38121
G0 F13500 X101.234 Y112.029
G1 F6000 X112.029 Y101.233 E77.01595
G0 F13500 X112.595 Y101.233
G1 F6000 X101.234 Y112.594 E77.68393
G0 F13500 X101.234 Y113.16
G1 F6000 X113.161 Y101.233 E78.38519
G0 F13500 X113.726 Y101.233
G1 F6000 X101.234 Y113.726 E79.1197
G0 F13500 X101.234 Y114.291
G1 F6000 X114.292 Y101.233 E79.88746
G0 F13500 X114.858 Y101.233
G1 F6000 X101.234 Y114.857 E80.6885
G0 F13500 X101.234 Y115.423
G1 F6000 X115.423 Y101.233 E81.52279
G0 F13500 X115.989 Y101.233
G1 F6000 X101.234 Y115.988 E82.39033
G0 F13500 X101.234 Y116.554
G1 F6000 X116.555 Y101.233 E83.29114
G0 F13500 X117.12 Y101.233
G1 F6000 X101.234 Y117.12 E84.22521
G0 F13500 X101.234 Y117.685
G1 F6000 X117.686 Y101.233 E85.19252
G0 F13500 X118.252 Y101.233
G1 F6000 X101.234 Y118.251 E86.19312
G0 F13500 X101.234 Y118.817
G1 F6000 X118.817 Y101.233 E87.22696
G0 F13500 X118.858 Y101.758
G1 F6000 X101.757 Y118.859 E88.23243
G0 F13500 X102.323 Y118.859
G1 F6000 X118.858 Y102.324 E89.20463
G0 F13500 X118.858 Y102.889
G1 F6000 X102.888 Y118.859 E90.1436
G0 F13500 X103.454 Y118.859
G1 F6000 X118.858 Y103.455 E91.0493
G0 F13500 X118.858 Y104.021
G1 F6000 X104.02 Y118.859 E91.92172
G0 F13500 X104.586 Y118.859
G1 F6000 X118.858 Y104.586 E92.76088
G0 F13500 X118.858 Y105.152
G1 F6000 X105.151 Y118.859 E93.5668
G0 F13500 X105.717 Y118.859
G1 F6000 X118.858 Y105.718 E94.33944
G0 F13500 X118.858 Y106.283
G1 F6000 X106.283 Y118.859 E95.07884
G0 F13500 X106.848 Y118.859
G1 F6000 X118.858 Y106.849 E95.78498
G0 F13500 X118.858 Y107.415
G1 F6000 X107.414 Y118.859 E96.45784
G0 F13500 X107.98 Y118.859
G1 F6000 X118.858 Y107.98 E97.09745
G0 F13500 X118.858 Y108.546
G1 F6000 X108.545 Y118.859 E97.70382
G0 F13500 X109.111 Y118.859
G1 F6000 X118.858 Y109.112 E98.27691
G0 F13500 X118.858 Y109.677
G1 F6000 X109.677 Y118.859 E98.81674
G0 F13500 X110.242 Y118.859
G1 F6000 X118.858 Y110.243 E99.32333
G0 F13500 X118.858 Y110.809
G1 F6000 X110.808 Y118.859 E99.79664
G0 F13500 X111.374 Y118.859
G1 F6000 X118.858 Y111.374 E100.2367
G0 F13500 X118.858 Y111.94
G1 F6000 X111.939 Y118.859 E100.64351
G0 F13500 X112.505 Y118.859
G1 F6000 X118.858 Y112.506 E101.01704
G0 F13500 X118.858 Y113.072
G1 F6000 X113.071 Y118.859 E101.3573
G0 F13500 X113.637 Y118.859
G1 F6000 X118.858 Y113.637 E101.6643
G0 F13500 X118.858 Y114.203
G1 F6000 X114.202 Y118.859 E101.93805
G0 F13500 X114.768 Y118.859
G1 F6000 X118.858 Y114.769 E102.17853
G0 F13500 X118.858 Y115.334
G1 F6000 X115.334 Y118.859 E102.38576
G0 F13500 X115.899 Y118.859
G1 F6000 X118.858 Y115.9 E102.55974
G0 F13500 X118.858 Y116.466
G1 F6000 X116.465 Y118.859 E102.70044
G0 F13500 X117.031 Y118.859
G1 F6000 X118.858 Y117.031 E102.80789
G0 F13500 X118.858 Y117.597
G1 F6000 X117.596 Y118.859 E102.88209
G0 F13500 X118.162 Y118.859
G1 F6000 X118.858 Y118.163 E102.92301
G0 F13500 X118.858 Y118.728
G1 F6000 X118.728 Y118.859 E102.93068
G0 F13500 X118.728 Y118.8
;MESH:NONMESH
G0 F300 X118.728 Y118.8 Z0.78
G0 F13500 X100.965 Y100.965
G0 X100.6 Y100.6
;TIME_ELAPSED:65.044411
;LAYER:2
;TYPE:WALL-INNER
