; generated by PrusaSlicer 2.5.0+win64 on 2023-03-03 at 23:22:39 UTC

; 

; external perimeters extrusion width = 0.45mm
; perimeters extrusion width = 0.45mm
; infill extrusion width = 0.45mm
; solid infill extrusion width = 0.45mm
; top infill extrusion width = 0.45mm
; first layer extrusion width = 0.70mm

M107
M190 S60 ; set bed temperature and wait for it to be reached
M104 S205 ; set temperature
;TYPE:Custom
SET_GCODE_VARIABLE MACRO=START_PRINT VARIABLE=bed_temp VALUE=60
SET_GCODE_VARIABLE MACRO=START_PRINT VARIABLE=extruder_temp VALUE=205
START_PRINT
M109 S205 ; set temperature and wait for it to be reached
G21 ; set units to millimeters
G90 ; use absolute coordinates
M82 ; use absolute distances for extrusion
G92 E0
; Filament gcode
M107
;LAYER_CHANGE
;Z:0.35
;HEIGHT:0.35
;BEFORE_LAYER_CHANGE
;0.35


G1 Z.35 F18000
;AFTER_LAYER_CHANGE
;0.35
G1 E-.6 F2700
G92 E0
G1 X75.532 Y92.631 F18000
G1 E.6 F2700
;TYPE:Skirt/Brim
;WIDTH:0.7
G1 F3600
G1 X77.347 Y91.341 E.80251
G1 X80 Y90.75 E1.04962
G1 X140 Y90.75 E6.5054
G1 X142.191 Y91.147 E6.7079
G1 X144.105 Y92.287 E6.91041
G1 X145.497 Y94.026 E7.11292
G1 X146.239 Y96.64 E7.36003
G1 X147.737 Y122.573 E9.72206
G1 X147.75 Y125 E9.94276
G1 X147.353 Y127.191 E10.14526
G1 X146.213 Y129.105 E10.34777
G1 X144.475 Y130.497 E10.55027
G1 X141.5 Y131.25 E10.82928
G1 X78.5 Y131.25 E16.55785
G1 X76.309 Y130.853 E16.76035
G1 X74.395 Y129.713 E16.96286
G1 X73.003 Y127.974 E17.16536
G1 X72.25 Y125 E17.44437
G1 X72.253 Y122.798 E17.64463
G1 X73.761 Y96.64 E20.02711
G1 X74.283 Y94.475 E20.22961
G1 X75.498 Y92.68 E20.42666
G1 X76.028 Y93.062 F18000
G1 F3600
G1 X76.134 Y92.914 E20.44322
G1 X77.913 Y91.776 E20.63525
G1 X80 Y91.375 E20.82846
G1 X140 Y91.375 E26.28424
G1 X142.074 Y91.772 E26.47627
G1 X143.856 Y92.905 E26.6683
G1 X145.095 Y94.616 E26.86033
G1 X145.616 Y96.676 E27.05354
G1 X147.113 Y122.609 E29.41557
G1 X147.125 Y125 E29.63299
G1 X146.728 Y127.074 E29.82502
G1 X145.595 Y128.856 E30.01705
G1 X143.884 Y130.095 E30.20908
G1 X141.5 Y130.625 E30.43118
G1 X78.5 Y130.625 E36.15975
G1 X76.426 Y130.228 E36.35177
G1 X74.644 Y129.095 E36.5438
G1 X73.405 Y127.384 E36.73583
G1 X72.875 Y125 E36.95794
G1 X72.878 Y122.818 E37.15636
G1 X74.384 Y96.676 E39.5374
G1 X74.9 Y94.628 E39.72943
G1 X75.993 Y93.111 E39.89944
;WIPE_START
G1 F14400
G1 X76.134 Y92.914 E39.85633
G1 X77.913 Y91.776 E39.48015
G1 X78.744 Y91.617 E39.32944
;WIPE_END
G1 E39.29944 F2700
G92 E0
G1 X80.35 Y97.35 F18000
G1 E.6 F2700
;TYPE:External perimeter
;WIDTH:0.7
G1 F3600
G1 X139.65 Y97.35 E5.99211
G1 X139.65 Y119.044 E7.96472
G1 X139.59 Y119.602 E8.01573
G1 X139.49 Y119.845 E8.03969
G1 X139.231 Y120.268 E8.08476
G1 X138.854 Y120.65 E8.13359
G1 X137.861 Y120.667 E8.22388
G1 X137.712 Y120.775 E8.24059
G1 X137.65 Y120.962 E8.25855
G1 X137.65 Y122.038 E8.35631
G1 X137.662 Y122.125 E8.36434
G1 X137.815 Y122.313 E8.38638
G1 X137.962 Y122.35 E8.40015
G1 X140.527 Y122.352 E8.6334
G1 X140.834 Y122.458 E8.6629
G1 X141.058 Y122.677 E8.69138
G1 X141.142 Y123.035 E8.72486
G1 X141.149 Y124.65 E8.87169
G1 X78.851 Y124.65 E14.53634
G1 X78.858 Y123.056 E14.68124
G1 X78.893 Y122.822 E14.70282
G1 X79.003 Y122.603 E14.72507
G1 X79.163 Y122.472 E14.74387
G1 X79.462 Y122.352 E14.77316
G1 X82.092 Y122.345 E15.01228
G1 X82.288 Y122.225 E15.03319
G1 X82.35 Y122.038 E15.05115
G1 X82.35 Y120.962 E15.14891
G1 X82.345 Y120.906 E15.15405
G1 X82.243 Y120.727 E15.17277
G1 X82.038 Y120.65 E15.19274
G1 X81.146 Y120.65 E15.27378
G1 X80.824 Y120.323 E15.31555
G1 X80.581 Y120.008 E15.35172
G1 X80.453 Y119.671 E15.38452
G1 X80.355 Y119.282 E15.42097
G1 X80.35 Y97.41 E17.40979
;WIPE_START
G1 F14400
G1 X83.55 Y97.407 E16.83979
;WIPE_END
G1 E16.80979 F2700
G92 E0
G1 X139.463 Y98.814 F18000
G1 E.6 F2700
;TYPE:Solid infill
;WIDTH:0.706262
G1 F3600
G1 X138.467 Y97.819 E.72927
G1 X137.575 Y97.819 E.81124
G1 X139.181 Y99.425 E1.01992
G1 X139.181 Y100.318 E1.10189
G1 X136.682 Y97.819 E1.4265
G1 X135.79 Y97.819 E1.50847
G1 X139.181 Y101.21 E1.94901
G1 X139.181 Y102.103 E2.03098
G1 X134.897 Y97.819 E2.58745
G1 X134.004 Y97.819 E2.66942
G1 X139.181 Y102.996 E3.34182
G1 X139.181 Y103.888 E3.4238
G1 X133.112 Y97.819 E4.21212
G1 X132.219 Y97.819 E4.2941
G1 X139.181 Y104.781 E5.19836
G1 X139.181 Y105.673 E5.28033
G1 X131.327 Y97.819 E6.30052
G1 X130.434 Y97.819 E6.3825
G1 X139.181 Y106.566 E7.51862
G1 X139.181 Y107.459 E7.60059
G1 X129.541 Y97.819 E8.85264
G1 X128.649 Y97.819 E8.93462
G1 X139.181 Y108.351 E10.3026
G1 X139.181 Y109.244 E10.38458
G1 X127.756 Y97.819 E11.86849
G1 X126.864 Y97.819 E11.95046
G1 X139.181 Y110.136 E13.55031
G1 X139.181 Y111.029 E13.63228
G1 X125.971 Y97.819 E15.34806
G1 X125.079 Y97.819 E15.43003
G1 X139.181 Y111.921 E17.26174
G1 X139.181 Y112.814 E17.34371
G1 X124.186 Y97.819 E19.29135
G1 X123.293 Y97.819 E19.37332
G1 X139.181 Y113.707 E21.43689
G1 X139.181 Y114.599 E21.51886
G1 X122.401 Y97.819 E23.69836
G1 X121.508 Y97.819 E23.78034
G1 X139.181 Y115.492 E26.07576
G1 X139.181 Y116.384 E26.15774
G1 X120.616 Y97.819 E28.5691
G1 X119.723 Y97.819 E28.65107
G1 X139.181 Y117.277 E31.17836
G1 X139.181 Y118.17 E31.26034
G1 X118.83 Y97.819 E33.90356
G1 X117.938 Y97.819 E33.98553
G1 X139.181 Y119.062 E36.74468
G1 X139.134 Y119.48 E36.78331
G1 X139.005 Y119.778 E36.81313
G1 X117.045 Y97.819 E39.66528
G1 X116.153 Y97.819 E39.74725
G1 X138.515 Y120.181 E42.65177
G1 X137.95 Y120.181 E42.70374
G1 X137.679 Y120.238 E42.72911
G1 X115.26 Y97.819 E45.64094
G1 X114.368 Y97.819 E45.72291
G1 X137.471 Y120.922 E48.72364
;WIPE_START
G1 F14400
G1 X135.208 Y118.659 E48.15364
;WIPE_END
G1 E48.12364 F2700
G92 E0
G1 X139.981 Y122.539 F18000
G1 E.6 F2700
G1 F3600
G1 X140.674 Y123.233 E.69006
G1 X140.678 Y124.129 E.77237
G1 X139.087 Y122.538 E.97894
;WIPE_START
G1 F14400
G1 X140.678 Y124.129 E.5783
G1 X140.674 Y123.233 E.41865
G1 X140.636 Y123.194 E.40894
;WIPE_END
G1 E.37894 F2700
G92 E0
G1 X140.119 Y124.463 F18000
G1 E.6 F2700
G1 F3600
G1 X138.475 Y122.819 E.81346
G1 X137.943 Y122.819 E.8624
G1 X137.594 Y122.731 E.89537
G1 X137.337 Y122.51 E.92654
G1 X137.211 Y122.26 E.95228
G1 X137.181 Y122.049 E.97185
G1 X137.181 Y121.525 E1.01994
G1 X113.475 Y97.819 E4.09898
G1 X112.582 Y97.819 E4.18095
G1 X138.945 Y124.181 E7.605
G1 X138.053 Y124.181 E7.68698
G1 X111.69 Y97.819 E11.11103
G1 X110.797 Y97.819 E11.193
G1 X137.16 Y124.181 E14.61705
G1 X136.267 Y124.181 E14.69903
G1 X109.905 Y97.819 E18.12308
G1 X109.012 Y97.819 E18.20505
G1 X135.375 Y124.181 E21.6291
G1 X134.482 Y124.181 E21.71108
G1 X108.119 Y97.819 E25.13513
G1 X107.227 Y97.819 E25.2171
G1 X133.59 Y124.181 E28.64115
G1 X132.697 Y124.181 E28.72313
G1 X106.334 Y97.819 E32.14718
G1 X105.442 Y97.819 E32.22915
G1 X131.804 Y124.181 E35.6532
G1 X130.912 Y124.181 E35.73518
G1 X104.549 Y97.819 E39.15923
G1 X103.657 Y97.819 E39.2412
G1 X130.019 Y124.181 E42.66525
G1 X129.127 Y124.181 E42.74723
G1 X102.764 Y97.819 E46.17128
G1 X101.871 Y97.819 E46.25325
G1 X128.234 Y124.181 E49.6773
G1 X127.342 Y124.181 E49.75928
G1 X100.979 Y97.819 E53.18333
G1 X100.086 Y97.819 E53.2653
G1 X126.449 Y124.181 E56.68935
G1 X125.556 Y124.181 E56.77133
G1 X99.194 Y97.819 E60.19538
G1 X98.301 Y97.819 E60.27736
G1 X124.664 Y124.181 E63.7014
G1 X123.771 Y124.181 E63.78338
G1 X97.409 Y97.819 E67.20743
G1 X96.516 Y97.819 E67.28941
G1 X122.879 Y124.181 E70.71346
G1 X121.986 Y124.181 E70.79543
G1 X95.623 Y97.819 E74.21948
G1 X94.731 Y97.819 E74.30146
G1 X121.093 Y124.181 E77.72551
G1 X120.201 Y124.181 E77.80748
G1 X93.838 Y97.819 E81.23153
G1 X92.946 Y97.819 E81.31351
G1 X119.308 Y124.181 E84.73756
G1 X118.416 Y124.181 E84.81953
G1 X92.053 Y97.819 E88.24358
G1 X91.16 Y97.819 E88.32556
G1 X117.523 Y124.181 E91.74961
G1 X116.631 Y124.181 E91.83158
G1 X90.268 Y97.819 E95.25563
G1 X89.375 Y97.819 E95.33761
G1 X115.738 Y124.181 E98.76166
G1 X114.845 Y124.181 E98.84363
G1 X88.483 Y97.819 E102.26768
G1 X87.59 Y97.819 E102.34966
G1 X113.953 Y124.181 E105.77371
G1 X113.06 Y124.181 E105.85568
G1 X86.698 Y97.819 E109.27973
G1 X85.805 Y97.819 E109.36171
G1 X112.168 Y124.181 E112.78576
G1 X111.275 Y124.181 E112.86773
G1 X84.912 Y97.819 E116.29178
G1 X84.02 Y97.819 E116.37376
G1 X110.382 Y124.181 E119.79781
G1 X109.49 Y124.181 E119.87978
G1 X83.127 Y97.819 E123.30383
G1 X82.235 Y97.819 E123.38581
G1 X108.597 Y124.181 E126.80986
G1 X107.705 Y124.181 E126.89183
G1 X81.342 Y97.819 E130.31588
G1 X80.819 Y97.819 E130.36394
G1 X80.819 Y98.188 E130.39787
G1 X106.812 Y124.181 E133.77393
G1 X105.92 Y124.181 E133.85591
G1 X80.819 Y99.081 E137.11602
G1 X80.819 Y99.974 E137.19801
G1 X105.027 Y124.181 E140.34216
G1 X104.134 Y124.181 E140.42414
G1 X80.819 Y100.866 E143.45234
G1 X80.82 Y101.759 E143.53433
G1 X103.242 Y124.181 E146.44658
G1 X102.349 Y124.181 E146.52855
G1 X80.82 Y102.652 E149.32485
G1 X80.82 Y103.545 E149.40684
G1 X101.457 Y124.181 E152.08718
G1 X100.564 Y124.181 E152.16915
G1 X80.82 Y104.437 E154.73354
G1 X80.82 Y105.33 E154.81553
G1 X99.671 Y124.181 E157.26396
G1 X98.779 Y124.181 E157.34594
G1 X80.821 Y106.223 E159.67841
G1 X80.821 Y107.116 E159.76041
G1 X97.886 Y124.181 E161.97693
G1 X96.994 Y124.181 E162.0589
G1 X80.821 Y108.009 E164.15947
G1 X80.821 Y108.901 E164.24146
G1 X96.101 Y124.181 E166.22608
G1 X95.209 Y124.181 E166.30805
G1 X80.821 Y109.794 E168.17671
G1 X80.821 Y110.687 E168.2587
G1 X94.316 Y124.181 E170.01141
G1 X93.423 Y124.181 E170.09338
G1 X80.822 Y111.58 E171.73014
G1 X80.822 Y112.472 E171.81213
G1 X92.531 Y124.181 E173.33292
G1 X91.638 Y124.181 E173.4149
G1 X80.822 Y113.365 E174.81974
G1 X80.822 Y114.258 E174.90174
G1 X90.746 Y124.181 E176.19062
G1 X89.853 Y124.181 E176.2726
G1 X80.822 Y115.151 E177.44553
G1 X80.823 Y116.043 E177.52753
G1 X88.96 Y124.181 E178.58451
G1 X88.068 Y124.181 E178.66648
G1 X80.823 Y116.936 E179.60751
G1 X80.823 Y117.829 E179.6895
G1 X87.175 Y124.181 E180.51457
G1 X86.283 Y124.181 E180.59655
G1 X80.823 Y118.722 E181.30566
G1 X80.823 Y119.251 E181.35427
G1 X80.838 Y119.365 E181.36487
G1 X80.997 Y119.785 E181.40606
G1 X81.671 Y120.463 E181.49385
G1 X82.537 Y121.329 F18000
G1 F3600
G1 X85.39 Y124.181 E181.86437
G1 X84.498 Y124.181 E181.94634
G1 X82.718 Y122.401 E182.17752
G1 X82.663 Y122.51 E182.1887
G1 X82.411 Y122.727 E182.21922
G1 X82.217 Y122.794 E182.23805
G1 X83.605 Y124.181 E182.41831
G1 X82.712 Y124.181 E182.50028
G1 X81.344 Y122.813 E182.67804
G1 X80.455 Y122.817 E182.75966
G1 X81.82 Y124.181 E182.93691
G1 X80.927 Y124.181 E183.01889
G1 X79.566 Y122.82 E183.19564
G1 X79.523 Y122.821 E183.19961
G1 X79.37 Y122.894 E183.21519
G1 X79.327 Y123.002 E183.22591
G1 X79.325 Y123.472 E183.26901
G1 X80.316 Y124.463 E183.39771
;LAYER_CHANGE
;Z:0.7
;HEIGHT:0.35
;BEFORE_LAYER_CHANGE
;0.7


G1 Z.7 F18000
;AFTER_LAYER_CHANGE
;0.7
G1 X80.316 Y124.775
;TYPE:External perimeter
;WIDTH:0.45
G1 F7500
G1 X78.726 Y124.775 E183.48444
G1 X78.734 Y122.9 E183.58671
G1 X78.826 Y122.624 E183.60261
G1 X78.995 Y122.418 E183.61712
G1 X79.157 Y122.334 E183.62706
G1 X79.449 Y122.227 E183.64402
G1 X82.038 Y122.225 E183.78525
G1 X82.188 Y122.15 E183.79439
G1 X82.225 Y122.038 E183.80086
G1 X82.225 Y120.962 E183.8595
G1 X82.188 Y120.85 E183.86597
G1 X82.038 Y120.775 E183.87512
G1 X81.094 Y120.775 E183.92658
G1 X80.731 Y120.407 E183.95481
G1 X80.475 Y120.076 E183.97764
G1 X80.311 Y119.65 E184.00254
G1 X80.23 Y119.296 E184.02232
G1 X80.225 Y97.225 E185.22633
G1 X139.775 Y97.225 E188.47485
G1 X139.775 Y119.042 E189.665
G1 X139.71 Y119.64 E189.69782
G1 X139.619 Y119.869 E189.71129
G1 X139.359 Y120.312 E189.73928
G1 X138.905 Y120.775 E189.77463
G1 X137.962 Y120.775 E189.82608
G1 X137.839 Y120.821 E189.83326
G1 X137.775 Y120.962 E189.84172
G1 X137.775 Y122.038 E189.90037
G1 X137.812 Y122.15 E189.90683
G1 X137.962 Y122.225 E189.91597
G1 X140.448 Y122.227 E190.05157
G1 X140.689 Y122.262 E190.06484
G1 X141 Y122.412 E190.08371
G1 X141.174 Y122.624 E190.09863
G1 X141.218 Y122.756 E190.10623
G1 X141.267 Y123.029 E190.12135
G1 X141.274 Y124.775 E190.21661
G1 X80.376 Y124.775 E193.53868
;WIPE_START
G1 F14400
G1 X78.726 Y124.775 E193.24479
G1 X78.733 Y123.225 E192.96868
;WIPE_END
G1 E192.93868 F2700
G92 E0
G1 X141.158 Y123.906 F18000
G1 E.6 F2700
;TYPE:Top solid infill
;WIDTH:0.450915
G1 F9000
G1 X140.57 Y124.494 E.64545
G1 X140.039 Y124.494 E.67452
G1 X140.988 Y123.545 E.7479
G1 X140.985 Y123.016 E.77684
G1 X139.507 Y124.494 E.89116
G1 X138.976 Y124.494 E.92022
G1 X140.826 Y122.643 E1.06333
G1 X140.691 Y122.552 E1.07224
G1 X140.511 Y122.509 E1.0824
G1 X140.43 Y122.508 E1.08684
G1 X138.444 Y124.494 E1.24038
G1 X137.913 Y124.494 E1.26945
G1 X139.899 Y122.508 E1.42303
G1 X139.368 Y122.507 E1.45206
G1 X137.381 Y124.494 E1.60568
G1 X136.85 Y124.494 E1.63475
G1 X138.837 Y122.507 E1.7884
G1 X138.306 Y122.506 E1.81744
G1 X136.318 Y124.494 E1.97114
G1 X135.787 Y124.494 E2.0002
G1 X137.81 Y122.471 E2.15665
G1 X137.742 Y122.454 E2.1605
G1 X137.587 Y122.321 E2.17163
G1 X137.534 Y122.215 E2.17811
G1 X135.255 Y124.494 E2.35434
G1 X134.724 Y124.494 E2.3834
G1 X137.663 Y121.555 E2.61066
G1 X138.555 Y120.663 F18000
G1 F9000
G1 X139.258 Y119.96 E2.665
G1 X139.311 Y119.881 E2.67018
G1 X139.436 Y119.568 E2.68862
G1 X139.486 Y119.201 E2.7089
G1 X138.192 Y120.494 E2.8089
G1 X137.955 Y120.494 E2.8219
G1 X137.813 Y120.518 E2.82978
G1 X137.71 Y120.566 E2.83602
G1 X137.566 Y120.71 E2.84709
G1 X137.518 Y120.813 E2.85332
G1 X137.494 Y120.955 E2.8612
G1 X137.494 Y121.192 E2.8742
G1 X134.192 Y124.494 E3.12952
G1 X133.661 Y124.494 E3.15858
G1 X139.494 Y118.661 E3.60966
G1 X139.494 Y118.13 E3.63873
G1 X133.13 Y124.494 E4.13091
G1 X132.598 Y124.494 E4.15997
G1 X139.494 Y117.598 E4.69326
G1 X139.494 Y117.067 E4.72232
G1 X132.067 Y124.494 E5.29671
G1 X131.535 Y124.494 E5.32578
G1 X139.494 Y116.535 E5.94127
G1 X139.494 Y116.004 E5.97033
G1 X131.004 Y124.494 E6.62692
G1 X130.472 Y124.494 E6.65598
G1 X139.494 Y115.472 E7.35367
G1 X139.494 Y114.941 E7.38274
G1 X129.941 Y124.494 E8.12153
G1 X129.409 Y124.494 E8.15059
G1 X139.494 Y114.409 E8.93049
G1 X139.494 Y113.878 E8.95955
G1 X128.878 Y124.494 E9.78055
G1 X128.346 Y124.494 E9.80961
G1 X139.494 Y113.346 E10.67171
G1 X139.494 Y112.815 E10.70077
G1 X127.815 Y124.494 E11.60397
G1 X127.283 Y124.494 E11.63303
G1 X139.494 Y112.283 E12.57733
G1 X139.494 Y111.752 E12.60639
G1 X126.752 Y124.494 E13.59179
G1 X126.22 Y124.494 E13.62085
G1 X139.494 Y111.22 E14.64736
G1 X139.494 Y110.689 E14.67642
G1 X125.689 Y124.494 E15.74402
G1 X125.158 Y124.494 E15.77309
G1 X139.494 Y110.158 E16.88179
G1 X139.494 Y109.626 E16.91085
G1 X124.626 Y124.494 E18.06066
G1 X124.095 Y124.494 E18.08972
G1 X139.494 Y109.095 E19.28063
G1 X139.494 Y108.563 E19.30969
G1 X123.563 Y124.494 E20.5417
G1 X123.032 Y124.494 E20.57076
G1 X139.494 Y108.032 E21.84387
G1 X139.494 Y107.5 E21.87293
G1 X122.5 Y124.494 E23.18714
G1 X121.969 Y124.494 E23.21621
G1 X139.494 Y106.969 E24.57152
G1 X139.494 Y106.437 E24.60058
G1 X121.437 Y124.494 E25.99699
G1 X120.906 Y124.494 E26.02606
G1 X139.494 Y105.906 E27.46357
G1 X139.494 Y105.374 E27.49263
G1 X120.374 Y124.494 E28.97125
G1 X119.843 Y124.494 E29.00031
G1 X139.494 Y104.843 E30.52003
G1 X139.494 Y104.311 E30.54909
G1 X119.311 Y124.494 E32.10991
G1 X118.78 Y124.494 E32.13897
G1 X139.494 Y103.78 E33.74089
G1 X139.494 Y103.248 E33.76995
G1 X118.248 Y124.494 E35.41298
G1 X117.717 Y124.494 E35.44204
G1 X139.494 Y102.717 E37.12616
G1 X139.494 Y102.186 E37.15522
G1 X117.186 Y124.494 E38.88045
G1 X116.654 Y124.494 E38.90951
G1 X139.494 Y101.654 E40.67583
G1 X139.494 Y101.123 E40.7049
G1 X116.123 Y124.494 E42.51232
G1 X115.591 Y124.494 E42.54138
G1 X139.494 Y100.591 E44.38991
G1 X139.494 Y100.06 E44.41897
G1 X115.06 Y124.494 E46.3086
G1 X114.528 Y124.494 E46.33766
G1 X139.494 Y99.528 E48.26839
G1 X139.494 Y98.997 E48.29746
G1 X113.997 Y124.494 E50.26929
G1 X113.465 Y124.494 E50.29835
G1 X139.494 Y98.465 E52.31128
G1 X139.494 Y97.934 E52.34034
G1 X112.934 Y124.494 E54.39438
G1 X112.402 Y124.494 E54.42344
G1 X139.39 Y97.506 E56.51054
G1 X138.859 Y97.506 E56.53961
G1 X111.871 Y124.494 E58.62671
G1 X111.339 Y124.494 E58.65577
G1 X138.327 Y97.506 E60.74288
G1 X137.796 Y97.506 E60.77194
G1 X110.808 Y124.494 E62.85905
G1 X110.276 Y124.494 E62.88811
