; generated by SuperSlicer 2.5.59 on 2023-03-04 at 19:28:01 UTC

; 

; external perimeters extrusion width = 0.44mm
; perimeters extrusion width = 0.46mm
; infill extrusion width = 0.44mm
; solid infill extrusion width = 0.46mm
; top infill extrusion width = 0.44mm
; first layer extrusion width = 0.56mm

; object:{"name":"smart_compact_temp_calibration","id":"smart_compact_temp_calibration id:0 copy 0","object_center":[110.000000,109.900000,0.000000],"boundingbox_center":[110.000000,109.900000,45.000000],"boundingbox_size":[44.487499,5.200000,90.000000]}
EXCLUDE_OBJECT_DEFINE NAME=smart_compact_temp_calibration_id_0_copy_0 CENTER=110.000000,109.900000 POLYGON=[[87.756248,108.905368],[87.768856,108.892288],[87.802048,108.859560],[87.822552,108.839680],[87.873944,108.791952],[87.976952,108.703104],[88.004744,108.681536],[88.279552,108.481424],[88.380248,108.419432],[88.824048,108.179768],[88.868344,108.159176],[89.349152,107.964272],[89.481752,107.918688],[89.891448,107.795952],[90.010552,107.765112],[90.207752,107.718304],[90.239656,107.711056],[90.266752,107.705096],[90.406752,107.676256],[90.409048,107.675800],[90.452456,107.667248],[90.555848,107.648096],[90.593648,107.641424],[90.704256,107.622784],[90.834248,107.602432],[90.891648,107.594352],[91.096552,107.567560],[91.143248,107.562136],[91.189048,107.557056],[91.497144,107.528560],[91.527352,107.526296],[91.609256,107.520656],[91.651848,107.517984],[91.671552,107.516816],[91.703648,107.514984],[91.714848,107.514384],[91.774552,107.511280],[91.854952,107.507816],[91.945752,107.504624],[98.254656,107.300000],[113.254656,107.300000],[132.243744,107.500000],[132.243744,112.500000],[92.214752,112.500000],[91.945752,112.495376],[91.854952,112.492184],[91.774552,112.488728],[91.714848,112.485616],[91.699552,112.484784],[91.661152,112.482576],[91.651848,112.482016],[91.608752,112.479320],[91.570448,112.476760],[91.527352,112.473704],[91.497144,112.471440],[91.299848,112.454352],[91.143248,112.437864],[91.096552,112.432440],[90.950752,112.414232],[90.841848,112.398472],[90.705456,112.377712],[90.588152,112.357616],[90.555848,112.351904],[90.522952,112.345896],[90.405056,112.323424],[90.361144,112.314648],[90.264056,112.294328],[90.243048,112.289688],[90.214848,112.283248],[90.016952,112.236528],[89.800448,112.179072],[89.557648,112.106176],[89.192944,111.977704],[89.152448,111.962056],[88.671952,111.745560],[88.643952,111.731072],[88.215152,111.475000],[88.208056,111.470624],[88.019152,111.331136],[87.898752,111.230256],[87.891848,111.224128],[87.834152,111.171304],[87.776648,111.115920],[87.758752,111.097256],[87.756248,108.905368]]
; plater:{"center":[110.000000,109.900000,0.000000],"boundingbox_center":[110.000000,109.900000,45.000000],"boundingbox_size":[44.487499,5.200000,90.000000]}

;TYPE:Custom
SET_GCODE_VARIABLE MACRO=START_PRINT VARIABLE=bed_temp VALUE=60
SET_GCODE_VARIABLE MACRO=START_PRINT VARIABLE=extruder_temp VALUE=215
START_PRINT
M107
G21 ; set units to millimeters
G90 ; use absolute coordinates
M82 ; use absolute distances for extrusion
G92 E0
; Filament gcode
;_TOOLCHANGE 0
M104 S215 ; set temperature
M109 S215 ; set temperature and wait for it to be reached
M190 S60 ; set bed temperature and wait for it to be reached
M107
;LAYER_CHANGE
;Z:0.2
;HEIGHT:0.2
;BEFORE_LAYER_CHANGE
;0.2


G1 E-0.8 F1800
G1 Z0.2 F30000
;AFTER_LAYER_CHANGE
;0.2
G92 E0
M204 S500
G1 X86.683 Y101.998
G1 E0.8 F1800
;TYPE:Skirt
;WIDTH:0.48
G1 F2699
G1 X85.598 Y103.164 E0.85786
G1 X85.205 Y104.706 E0.91573
G1 X85.205 Y115.294 E1.30052
G1 X85.645 Y116.919 E1.3617
G1 X86.764 Y118.052 E1.41956
G1 X88.288 Y118.51 E1.47742
G1 X92.016 Y118.666 E1.61303
G1 X125.628 Y118.669 E2.83458
G1 X127.368 Y118.158 E2.90048
G1 X128.453 Y116.993 E2.95834
G1 X128.846 Y115.45 E3.01621
G1 X128.846 Y104.55 E3.41235
G1 X128.336 Y102.81 E3.47825
G1 X127.171 Y101.725 E3.53611
G1 X125.628 Y101.331 E3.59397
G1 X92.151 Y101.331 E4.81063
G1 X88.288 Y101.49 E4.95113
G1 X86.74 Y101.98 E5.01014
G92 E0
;WIPE_START
G1 F24000
G1 X88.288 Y101.49 E-0.11567
G1 X92.151 Y101.331 E-0.39112
G1 X97.328 Y101.331 E-0.76
;WIPE_END
G1 E-0.8 F1800
G1 X89.78 Y105.564 F30000
G1 E0 F1800
;WIDTH:0.56292
G1 F2699
G1 X90.233 Y105.243 E0.02399
G1 X90.636 Y105.06 E0.04313
G1 X91.002 Y104.956 E0.05959
G1 X92.189 Y104.89 E0.11101
G1 X122.824 Y104.895 E1.43557
G1 X123.335 Y105.006 E1.4582
G1 X123.904 Y105.264 E1.4852
G1 X124.216 Y105.494 E1.50197
G1 X124.69 Y105.967 E1.53094
G1 X124.977 Y106.389 E1.55299
G1 X125.178 Y106.861 E1.57519
G1 X125.288 Y107.411 E1.59943
G1 X125.288 Y112.581 E1.82297
G1 X125.215 Y113.017 E1.8421
G1 X125.01 Y113.546 E1.86663
G1 X124.804 Y113.892 E1.88403
G1 X124.217 Y114.506 E1.92074
G1 X123.732 Y114.83 E1.94598
G1 X123.142 Y115.052 E1.97322
G1 X122.759 Y115.11 E1.98999
G1 X92.163 Y115.109 E3.31292
G1 X91.116 Y115.061 E3.35822
G1 X90.674 Y114.953 E3.37788
G1 X90.176 Y114.726 E3.40155
G1 X89.776 Y114.432 E3.42301
G1 X89.223 Y113.828 E3.45846
G1 X89.026 Y113.489 E3.4754
G1 X88.818 Y112.92 E3.50156
G1 X88.763 Y112.547 E3.51789
G1 X88.763 Y107.453 E3.73812
G1 X88.832 Y107.028 E3.75674
G1 X89.026 Y106.511 E3.78061
G1 X89.222 Y106.172 E3.79755
G1 X89.74 Y105.608 E3.83065
G1 X90.12 Y105.962 F30000
G1 F2699
G1 X90.143 Y105.937 E3.83209
G1 X90.469 Y105.706 E3.84939
G1 X90.832 Y105.543 E3.86657
G1 X91.113 Y105.465 E3.8792
G1 X92.196 Y105.41 E3.92608
G1 X122.795 Y105.415 E5.24914
G1 X123.149 Y105.492 E5.26479
G1 X123.621 Y105.701 E5.28712
G1 X123.863 Y105.876 E5.30003
G1 X124.304 Y106.317 E5.32699
G1 X124.531 Y106.656 E5.34463
G1 X124.688 Y107.036 E5.36243
G1 X124.768 Y107.437 E5.38007
G1 X124.768 Y112.56 E5.60161
G1 X124.721 Y112.855 E5.61451
G1 X124.534 Y113.337 E5.63684
G1 X124.375 Y113.595 E5.64998
G1 X123.863 Y114.124 E5.6818
G1 X123.517 Y114.355 E5.69978
G1 X123.033 Y114.543 E5.72225
G1 X122.738 Y114.59 E5.73515
G1 X92.169 Y114.59 E7.05692
G1 X91.167 Y114.543 E7.10028
G1 X90.827 Y114.456 E7.11545
G1 X90.419 Y114.266 E7.1349
G1 X90.141 Y114.06 E7.14987
G1 X89.656 Y113.538 E7.18068
G1 X89.505 Y113.284 E7.19346
G1 X89.328 Y112.814 E7.21519
G1 X89.283 Y112.527 E7.22775
G1 X89.283 Y107.473 E7.44625
G1 X89.328 Y107.186 E7.45881
G1 X89.505 Y106.716 E7.48054
G1 X89.656 Y106.462 E7.49332
G1 X90.079 Y106.006 E7.52024
G1 X90.457 Y106.362 F30000
G1 F2699
G1 X90.503 Y106.313 E7.52315
G1 X90.706 Y106.17 E7.53389
G1 X91.026 Y106.026 E7.54906
G1 X91.218 Y105.975 E7.55767
G1 X92.202 Y105.93 E7.60024
G1 X122.767 Y105.935 E8.9218
G1 X122.966 Y105.98 E8.93064
G1 X123.344 Y106.142 E8.94842
G1 X123.511 Y106.259 E8.95726
G1 X123.918 Y106.667 E8.98216
G1 X124.06 Y106.879 E8.99319
G1 X124.198 Y107.212 E9.00878
G1 X124.248 Y107.462 E9.01981
G1 X124.248 Y112.538 E9.23928
G1 X124.213 Y112.739 E9.24812
G1 X124.06 Y113.121 E9.2659
G1 X123.951 Y113.294 E9.27474
G1 X123.511 Y113.741 E9.30184
G1 X123.299 Y113.882 E9.31287
G1 X122.917 Y114.035 E9.33065
G1 X122.716 Y114.07 E9.33949
G1 X92.175 Y114.07 E10.66003
G1 X91.218 Y114.025 E10.70143
G1 X91.026 Y113.974 E10.71004
G1 X90.663 Y113.805 E10.72735
G1 X90.503 Y113.687 E10.73595
G1 X90.085 Y113.244 E10.76229
G1 X89.981 Y113.074 E10.77089
G1 X89.836 Y112.701 E10.78819
G1 X89.803 Y112.505 E10.7968
G1 X89.803 Y107.495 E11.01341
G1 X89.836 Y107.299 E11.02202
G1 X89.981 Y106.926 E11.03932
G1 X90.085 Y106.756 E11.04792
G1 X90.416 Y106.406 E11.06876
G1 X90.79 Y106.765 F30000
G1 F2699
G1 X90.861 Y106.691 E11.07319
G1 X90.943 Y106.634 E11.0775
G1 X91.217 Y106.51 E11.09051
G1 X91.314 Y106.487 E11.09483
G1 X92.207 Y106.45 E11.13347
G1 X122.69 Y106.45 E12.45151
G1 X122.791 Y106.47 E12.45593
G1 X123.076 Y106.588 E12.46931
G1 X123.162 Y106.645 E12.47374
G1 X123.533 Y107.016 E12.49642
G1 X123.59 Y107.101 E12.50085
G1 X123.708 Y107.387 E12.51423
G1 X123.728 Y107.488 E12.51865
G1 X123.728 Y112.512 E12.73591
G1 X123.708 Y112.613 E12.74034
G1 X123.59 Y112.899 E12.75372
G1 X123.533 Y112.984 E12.75815
G1 X123.162 Y113.355 E12.78083
G1 X123.076 Y113.412 E12.78526
G1 X122.791 Y113.53 E12.79863
G1 X122.69 Y113.55 E12.80306
G1 X92.191 Y113.55 E14.1218
G1 X91.314 Y113.513 E14.15974
G1 X91.217 Y113.49 E14.16406
G1 X90.943 Y113.366 E14.17707
G1 X90.861 Y113.309 E14.18138
G1 X90.508 Y112.941 E14.20343
G1 X90.454 Y112.857 E14.20774
G1 X90.342 Y112.578 E14.22075
G1 X90.323 Y112.48 E14.22506
G1 X90.323 Y107.52 E14.43953
G1 X90.342 Y107.422 E14.44384
G1 X90.454 Y107.143 E14.45685
G1 X90.508 Y107.059 E14.46116
G1 X90.749 Y106.808 E14.47618
G1 X91.124 Y107.168 F30000
G1 F2699
G1 X91.202 Y107.087 E14.48105
G1 X91.385 Y107.004 E14.48975
G1 X92.213 Y106.97 E14.52554
G1 X122.639 Y106.97 E15.84113
G1 X122.83 Y107.049 E15.85007
G1 X123.129 Y107.348 E15.86833
G1 X123.208 Y107.539 E15.87728
G1 X123.208 Y112.461 E16.09011
G1 X123.129 Y112.652 E16.09905
G1 X122.83 Y112.951 E16.11731
G1 X122.639 Y113.03 E16.12625
G1 X92.207 Y113.03 E17.44207
G1 X91.385 Y112.996 E17.47763
G1 X91.202 Y112.913 E17.48633
G1 X90.918 Y112.617 E17.50407
G1 X90.843 Y112.43 E17.51277
G1 X90.843 Y107.57 E17.72292
G1 X90.918 Y107.383 E17.73162
G1 X91.083 Y107.212 E17.7419
G1 X91.458 Y107.572 F30000
G1 F2699
G1 X91.508 Y107.52 E17.74501
G1 X92.215 Y107.49 E17.77563
G1 X122.536 Y107.49 E19.08663
G1 X122.688 Y107.642 E19.09594
G1 X122.688 Y112.358 E19.29983
G1 X122.536 Y112.51 E19.30914
G1 X92.215 Y112.51 E20.62013
G1 X91.508 Y112.48 E20.65075
G1 X91.363 Y112.33 E20.65979
G1 X91.363 Y107.67 E20.86125
G1 X91.416 Y107.615 E20.86458
M104 S230 ; set temperature
; printing object smart_compact_temp_calibration id:0 copy 0
EXCLUDE_OBJECT_START NAME=smart_compact_temp_calibration_id_0_copy_0
G1 X92.224 Y108.031 F30000
;TYPE:External perimeter
G1 F2699
G1 X122.146 Y108.031 E22.15837
G1 X122.146 Y111.969 E22.3286
G1 X92.224 Y111.969 E23.6224
G1 X91.905 Y111.955 E23.63622
G1 X91.905 Y108.045 E23.80529
G1 X92.164 Y108.034 E23.81652
;WIPE_START
G1 X92.429 Y108.375 F30000
;WIPE_END
G92 E0
;WIPE_START
G1 F24000
G1 X103.095 Y108.323 E-0.76
;WIPE_END
G1 E-0.8 F1800
G1 X121.99 Y109.239 F30000
G1 E0 F1800
;TYPE:Solid infill
;WIDTH:0.553809
G1 F2699
G1 X121.163 Y108.411 E0.04976
G1 X120.428 Y108.412 E0.08103
G1 X121.767 Y109.75 E0.16156
G1 X121.767 Y110.486 E0.19284
G1 X119.693 Y108.412 E0.31759
G1 X118.958 Y108.412 E0.34886
G1 X121.767 Y111.221 E0.51783
G1 X121.767 Y111.589 E0.53347
G1 X121.399 Y111.589 E0.54912
G1 X118.223 Y108.413 E0.74018
G1 X117.488 Y108.413 E0.77145
G1 X120.663 Y111.588 E0.96246
G1 X119.927 Y111.588 E0.99376
G1 X116.753 Y108.413 E1.18473
G1 X116.018 Y108.414 E1.216
G1 X119.192 Y111.588 E1.40694
G1 X118.456 Y111.587 E1.43823
G1 X115.283 Y108.414 E1.62913
G1 X114.548 Y108.414 E1.6604
G1 X117.72 Y111.587 E1.85126
G1 X116.985 Y111.587 E1.88255
G1 X113.813 Y108.415 E2.07337
G1 X113.078 Y108.415 E2.10464
G1 X116.249 Y111.586 E2.29542
G1 X115.513 Y111.586 E2.32672
G1 X112.342 Y108.415 E2.51746
G1 X111.607 Y108.416 E2.54873
G1 X114.777 Y111.586 E2.73943
G1 X114.042 Y111.585 E2.77073
G1 X110.872 Y108.416 E2.96139
G1 X110.137 Y108.416 E2.99266
G1 X113.306 Y111.585 E3.18328
G1 X112.57 Y111.585 E3.21458
G1 X109.402 Y108.417 E3.40516
G1 X108.667 Y108.417 E3.43643
G1 X111.835 Y111.584 E3.62698
G1 X111.099 Y111.584 E3.65827
G1 X107.932 Y108.417 E3.84878
G1 X107.197 Y108.418 E3.88005
G1 X110.363 Y111.584 E4.07051
G1 X109.627 Y111.583 E4.10181
G1 X106.462 Y108.418 E4.29224
G1 X105.727 Y108.418 E4.32351
G1 X108.892 Y111.583 E4.51389
G1 X108.156 Y111.583 E4.54519
G1 X104.992 Y108.419 E4.73554
G1 X104.257 Y108.419 E4.76681
G1 X107.42 Y111.582 E4.95712
G1 X106.685 Y111.582 E4.98842
G1 X103.522 Y108.419 E5.17869
G1 X102.787 Y108.42 E5.20996
G1 X105.949 Y111.582 E5.40019
G1 X105.213 Y111.581 E5.43148
G1 X102.052 Y108.42 E5.62168
G1 X101.316 Y108.42 E5.65295
G1 X104.477 Y111.581 E5.8431
G1 X103.742 Y111.581 E5.8744
G1 X100.581 Y108.421 E6.06451
G1 X99.846 Y108.421 E6.09578
G1 X103.006 Y111.58 E6.28585
G1 X102.27 Y111.58 E6.31715
G1 X99.111 Y108.421 E6.50719
G1 X98.376 Y108.422 E6.53846
G1 X101.535 Y111.58 E6.72845
G1 X100.799 Y111.58 E6.75975
G1 X97.641 Y108.422 E6.94971
G1 X96.906 Y108.422 E6.98098
G1 X100.063 Y111.579 E7.17089
G1 X99.327 Y111.579 E7.20219
G1 X96.171 Y108.423 E7.39207
G1 X95.436 Y108.423 E7.42334
G1 X98.592 Y111.579 E7.61318
G1 X97.856 Y111.578 E7.64448
G1 X94.701 Y108.423 E7.83428
G1 X93.966 Y108.424 E7.86555
G1 X97.12 Y111.578 E8.05531
G1 X96.385 Y111.578 E8.08661
G1 X93.231 Y108.424 E8.27633
G1 X92.496 Y108.424 E8.3076
G1 X95.649 Y111.577 E8.49728
G1 X94.913 Y111.577 E8.52858
G1 X92.284 Y108.948 E8.68673
G1 X92.284 Y109.683 E8.71802
G1 X94.177 Y111.577 E8.83191
G1 X93.442 Y111.576 E8.86321
G1 X92.284 Y110.419 E8.93284
G1 X92.284 Y111.154 E8.96413
G1 X92.93 Y111.8 E9.00296
M106 S84.15
;LAYER_CHANGE
;Z:0.4
;HEIGHT:0.2
;BEFORE_LAYER_CHANGE
;0.4


G92 E0
;WIPE_START
G1 F24000
G1 X92.284 Y111.154 E-0.06505
G1 X92.284 Y110.419 E-0.11744
G1 X93.442 Y111.576 E-0.23408
G1 X94.177 Y111.577 E-0.2865
G1 X92.284 Y109.683 E-0.47727
G1 X92.284 Y108.948 E-0.52967
G1 X94.57 Y111.234 E-0.76
;WIPE_END
G1 E-0.8 F1800
; stop printing object smart_compact_temp_calibration id:0 copy 0
EXCLUDE_OBJECT_END NAME=smart_compact_temp_calibration_id_0_copy_0
G1 Z0.4 F30000
;AFTER_LAYER_CHANGE
;0.4
M104 S210 ; set temperature
G92 E0
G1 X94.569 Y118.666
G1 E0.8 F1800
;TYPE:Skirt
;WIDTH:0.48
G1 F1873
G1 X125.628 Y118.669 E1.92877
G1 X127.368 Y118.158 E1.99467
G1 X128.453 Y116.993 E2.05253
G1 X128.846 Y115.45 E2.11039
G1 X128.846 Y104.55 E2.50653
G1 X128.336 Y102.81 E2.57243
G1 X127.171 Y101.725 E2.63029
G1 X125.628 Y101.331 E2.68816
G1 X92.151 Y101.331 E3.90482
G1 X88.288 Y101.49 E4.04532
G1 X86.683 Y101.998 E4.1065
G1 X85.598 Y103.164 E4.16436
G1 X85.205 Y104.706 E4.22223
G1 X85.205 Y115.294 E4.60702
G1 X85.645 Y116.919 E4.6682
G1 X86.764 Y118.052 E4.72606
G1 X88.288 Y118.51 E4.78393
G1 X92.016 Y118.666 E4.91953
G1 X94.509 Y118.666 E5.01014
M104 S230 ; set temperature
G92 E0
;WIPE_START
G1 F24000
G1 X92.016 Y118.666 E-0.17764
G1 X88.288 Y118.51 E-0.44348
G1 X86.764 Y118.052 E-0.55692
G1 X85.645 Y116.919 E-0.67036
G1 X85.316 Y115.704 E-0.76
;WIPE_END
G1 E-0.8 F1800
; printing object smart_compact_temp_calibration id:0 copy 0
EXCLUDE_OBJECT_START NAME=smart_compact_temp_calibration_id_0_copy_0
G1 X92.232 Y111.819 F30000
G1 E0 F1800
;TYPE:Internal perimeter
;WIDTH:0.46292
G1 F1873
G1 X91.892 Y111.8 E0.01191
G1 X91.892 Y108.2 E0.13765
G1 X92.232 Y108.181 E0.14956
G1 X122.243 Y108.181 E1.19763
G1 X122.243 Y111.819 E1.32465
G1 X92.292 Y111.819 E2.37062
M204 S250
G1 X92.21 Y112.228 F30000
;TYPE:Overhang perimeter
;WIDTH:0.44292
G1 F1500
G1 X91.482 Y112.189 E2.39489
G1 X91.482 Y107.811 E2.54049
G1 X92.221 Y107.771 E2.56512
G1 X122.574 Y107.771 E3.57468
;WIDTH:0.389872
;HEIGHT:0.389872
G1 X122.653 Y107.771 E3.57857
G1 X122.653 Y112.229 E3.79979
G1 X122.574 Y112.229 E3.80368
;WIDTH:0.44292
;HEIGHT:0.2
G1 X92.27 Y112.229 E4.8116
G92 E0
;WIPE_START
G1 F24000
M204 S500
G1 X102.937 Y112.229 E-0.76
;WIPE_END
G1 E-0.8 F1800
G1 X92.561 Y108.325 F30000
G1 E0 F1800
;TYPE:Solid infill
;WIDTH:0.461992
G1 F1873
G1 X92.198 Y108.688 E0.01786
G1 X92.198 Y109.282 E0.03857
G1 X92.974 Y108.506 E0.07682
G1 X93.569 Y108.505 E0.09753
G1 X92.198 Y109.876 E0.16508
G1 X92.198 Y110.47 E0.18578
G1 X94.163 Y108.505 E0.28262
G1 X94.757 Y108.505 E0.30333
G1 X92.198 Y111.064 E0.42947
G1 X92.198 Y111.494 E0.44446
G1 X92.362 Y111.494 E0.45017
G1 X95.352 Y108.504 E0.59753
G1 X95.946 Y108.504 E0.61824
G1 X92.955 Y111.494 E0.76564
G1 X93.549 Y111.495 E0.78633
G1 X96.54 Y108.504 E0.93376
G1 X97.135 Y108.503 E0.95448
G1 X94.143 Y111.495 E1.10195
G1 X94.736 Y111.495 E1.12264
G1 X97.729 Y108.503 E1.27014
G1 X98.323 Y108.502 E1.29085
G1 X95.33 Y111.496 E1.43839
G1 X95.923 Y111.496 E1.45908
G1 X98.917 Y108.502 E1.60666
G1 X99.512 Y108.502 E1.62737
G1 X96.517 Y111.496 E1.77498
G1 X97.111 Y111.497 E1.79567
G1 X100.106 Y108.501 E1.94332
G1 X100.7 Y108.501 E1.96403
G1 X97.704 Y111.497 E2.11171
G1 X98.298 Y111.498 E2.1324
G1 X101.295 Y108.501 E2.28011
G1 X101.889 Y108.5 E2.30083
G1 X98.892 Y111.498 E2.44858
G1 X99.485 Y111.498 E2.46927
G1 X102.483 Y108.5 E2.61705
G1 X103.078 Y108.5 E2.63777
G1 X100.079 Y111.499 E2.78559
