; generated by PrusaSlicer 2.6.0-alpha5+win64 on 2023-03-15 at 12:50:45 UTC

; 

; external perimeters extrusion width = 0.60mm
; perimeters extrusion width = 0.60mm
; infill extrusion width = 0.60mm
; solid infill extrusion width = 0.60mm
; top infill extrusion width = 0.60mm
; first layer extrusion width = 0.60mm

M107
M190 S60 ; set bed temperature and wait for it to be reached
M104 S205 ; set temperature
;TYPE:Custom
SET_GCODE_VARIABLE MACRO=START_PRINT VARIABLE=bed_temp VALUE=60
SET_GCODE_VARIABLE MACRO=START_PRINT VARIABLE=extruder_temp VALUE=205
START_PRINT
M109 S205 ; set temperature and wait for it to be reached
G21 ; set units to millimeters
G90 ; use absolute coordinates
M82 ; use absolute distances for extrusion
G92 E0
; Filament gcode
M107
;LAYER_CHANGE
;Z:0.2
;HEIGHT:0.2
;BEFORE_LAYER_CHANGE
;0.2


G1 Z.2 F18000
;AFTER_LAYER_CHANGE
;0.2
G1 E-.5 F2700
G92 E0
G1 Z.4 F18000
G1 X88.188 Y88.254
G1 Z.2
G1 E.5 F2700
;TYPE:Skirt/Brim
;WIDTH:0.6
G1 F3600
G1 X89.225 Y87.399 E.56226
G1 X91.05 Y86.576 E.65499
G1 X92.75 Y86.34 E.73449
G1 X127.25 Y86.34 E2.33258
G1 X128.447 Y86.458 E2.3883
G1 X128.95 Y86.576 E2.41223
G1 X130.775 Y87.399 E2.50496
G1 X131.811 Y88.253 E2.56715
G1 X132.601 Y89.225 E2.62517
G1 X133.423 Y91.048 E2.7178
G1 X133.66 Y92.75 E2.7974
G1 X133.66 Y127.25 E4.39549
G1 X133.423 Y128.952 E4.47509
G1 X132.601 Y130.775 E4.56772
G1 X131.811 Y131.747 E4.62574
G1 X130.775 Y132.601 E4.68793
G1 X128.95 Y133.424 E4.78066
G1 X127.25 Y133.66 E4.86016
G1 X92.75 Y133.66 E6.45825
G1 X91.05 Y133.424 E6.53775
G1 X89.225 Y132.601 E6.63048
G1 X88.252 Y131.81 E6.68857
G1 X87.399 Y130.775 E6.7507
G1 X86.577 Y128.952 E6.84333
G1 X86.34 Y127.25 E6.92293
G1 X86.34 Y92.75 E8.52102
G1 X86.577 Y91.048 E8.60062
G1 X87.399 Y89.225 E8.69325
G1 X88.151 Y88.301 E8.74843
G1 X88.581 Y88.65 F18000
G1 F3600
G1 X89.534 Y87.863 E8.80568
G1 X91.193 Y87.115 E8.88998
G1 X92.75 Y86.897 E8.96281
G1 X127.25 Y86.897 E10.5609
G1 X128.338 Y87.004 E10.61154
G1 X128.807 Y87.115 E10.63386
G1 X130.466 Y87.863 E10.71816
G1 X131.417 Y88.647 E10.77525
G1 X132.137 Y89.534 E10.82817
G1 X132.885 Y91.191 E10.91238
G1 X133.103 Y92.75 E10.9853
G1 X133.103 Y127.25 E12.58339
G1 X132.885 Y128.809 E12.65631
G1 X132.137 Y130.466 E12.74052
G1 X131.417 Y131.353 E12.79344
G1 X130.466 Y132.137 E12.85053
G1 X128.807 Y132.885 E12.93483
G1 X127.25 Y133.103 E13.00766
G1 X92.75 Y133.103 E14.60575
G1 X91.193 Y132.885 E14.67858
G1 X89.534 Y132.137 E14.76288
G1 X88.646 Y131.416 E14.81586
G1 X87.863 Y130.466 E14.87289
G1 X87.115 Y128.809 E14.9571
G1 X86.897 Y127.25 E15.03002
G1 X86.897 Y92.75 E16.62811
G1 X87.115 Y91.191 E16.70103
G1 X87.863 Y89.534 E16.78524
G1 X88.543 Y88.697 E16.83519
;WIPE_START
G1 F14400
G1 X89.534 Y87.863 E16.60448
G1 X90.912 Y87.242 E16.33519
;WIPE_END
G92 E0
G1 Z.4 F18000
G1 X92.786 Y92.754
G1 Z.2
G1 E.5 F2700
;TYPE:External perimeter
;WIDTH:0.599999
G1 F3600
G1 X127.203 Y92.763 E2.09424
G1 X127.246 Y92.799 E2.09684
G1 X127.246 Y127.192 E3.68997
G1 X127.214 Y127.246 E3.69288
G1 X92.808 Y127.246 E5.28661
G1 X92.754 Y127.214 E5.28952
G1 X92.756 Y92.806 E6.88334
;WIPE_START
G1 F14400
G1 X95.563 Y92.802 E6.38334
;WIPE_END
G92 E0
G1 Z.4 F18000
G1 X125.941 Y92.93
G1 Z.2
G1 E.5 F2700
;TYPE:Solid infill
;WIDTH:0.605461
G1 F3600
G1 X126.828 Y93.817 E.55868
G1 X126.828 Y94.613 E.59591
G1 X125.396 Y93.181 E.69064
G1 X124.6 Y93.18 E.72787
G1 X126.828 Y95.408 E.87525
G1 X126.828 Y96.204 E.91248
G1 X123.804 Y93.18 E1.11252
G1 X123.009 Y93.18 E1.14971
G1 X126.828 Y97 E1.40237
G1 X126.828 Y97.795 E1.43956
G1 X122.213 Y93.18 E1.74484
G1 X121.417 Y93.18 E1.78207
G1 X126.828 Y98.591 E2.14001
G1 X126.828 Y99.386 E2.1772
G1 X120.621 Y93.179 E2.5878
G1 X119.826 Y93.179 E2.62499
G1 X126.828 Y100.182 E3.08821
G1 X126.828 Y100.977 E3.1254
G1 X119.03 Y93.179 E3.64124
G1 X118.234 Y93.179 E3.67847
G1 X126.828 Y101.773 E4.24697
G1 X126.828 Y102.568 E4.28416
G1 X117.438 Y93.178 E4.90531
G1 X116.642 Y93.178 E4.94254
G1 X126.828 Y103.364 E5.61635
G1 X126.828 Y104.16 E5.65358
G1 X115.847 Y93.178 E6.38001
G1 X115.051 Y93.178 E6.41724
G1 X126.828 Y104.955 E7.19629
G1 X126.828 Y105.751 E7.23352
G1 X114.255 Y93.178 E8.06523
G1 X113.459 Y93.177 E8.10246
G1 X126.828 Y106.546 E8.98683
G1 X126.828 Y107.342 E9.02406
G1 X112.664 Y93.177 E9.96105
G1 X111.868 Y93.177 E9.99828
G1 X126.828 Y108.137 E10.98789
G1 X126.828 Y108.933 E11.02512
G1 X111.072 Y93.177 E12.06739
G1 X110.276 Y93.177 E12.10462
G1 X126.828 Y109.728 E13.19951
G1 X126.828 Y110.524 E13.23674
G1 X109.481 Y93.176 E14.38429
G1 X108.685 Y93.176 E14.42152
G1 X126.828 Y111.32 E15.62172
G1 X126.828 Y112.115 E15.65891
G1 X107.889 Y93.176 E16.91173
G1 X107.093 Y93.176 E16.94896
G1 X126.828 Y112.911 E18.25444
G1 X126.828 Y113.706 E18.29163
G1 X106.297 Y93.175 E19.64977
G1 X105.502 Y93.175 E19.68696
G1 X126.828 Y114.502 E21.09772
G1 X126.828 Y115.297 E21.13491
G1 X104.706 Y93.175 E22.59829
G1 X103.91 Y93.175 E22.63552
G1 X126.828 Y116.093 E24.15156
G1 X126.828 Y116.888 E24.18875
G1 X103.114 Y93.175 E25.75741
G1 X102.319 Y93.174 E25.7946
G1 X126.828 Y117.684 E27.41592
G1 X126.828 Y118.48 E27.45315
G1 X101.523 Y93.174 E29.12712
G1 X100.727 Y93.174 E29.16435
G1 X126.828 Y119.275 E30.89094
G1 X126.828 Y120.071 E30.92817
G1 X99.931 Y93.174 E32.70742
G1 X99.136 Y93.174 E32.74461
G1 X126.828 Y120.866 E34.57645
G1 X126.828 Y121.662 E34.61368
G1 X98.34 Y93.173 E36.49821
G1 X97.544 Y93.173 E36.53544
G1 X126.828 Y122.457 E38.47259
G1 X126.828 Y123.253 E38.50982
G1 X96.748 Y93.173 E40.49963
G1 X95.952 Y93.173 E40.53686
G1 X126.828 Y124.048 E42.57929
G1 X126.828 Y124.844 E42.61652
G1 X95.157 Y93.172 E44.71161
G1 X94.361 Y93.172 E44.74884
G1 X126.828 Y125.64 E46.89658
G1 X126.828 Y126.435 E46.93377
G1 X93.565 Y93.172 E49.13413
G1 X93.172 Y93.172 E49.15251
G1 X93.172 Y93.574 E49.17131
G1 X126.426 Y126.828 E51.37108
G1 X125.63 Y126.828 E51.40831
G1 X93.172 Y94.37 E53.55542
G1 X93.172 Y95.165 E53.59261
G1 X124.835 Y126.828 E55.68713
G1 X124.039 Y126.828 E55.72436
G1 X93.172 Y95.961 E57.76623
G1 X93.172 Y96.756 E57.80342
G1 X123.244 Y126.828 E59.7927
G1 X122.448 Y126.828 E59.82993
G1 X93.172 Y97.552 E61.76655
G1 X93.172 Y98.348 E61.80378
G1 X121.652 Y126.828 E63.68775
G1 X120.857 Y126.828 E63.72494
G1 X93.172 Y99.143 E65.55632
G1 X93.172 Y99.939 E65.59355
G1 X120.061 Y126.828 E67.37227
G1 X119.266 Y126.828 E67.40946
G1 X93.172 Y100.734 E69.13559
G1 X93.172 Y101.53 E69.17282
G1 X118.47 Y126.828 E70.8463
G1 X117.675 Y126.828 E70.88349
G1 X93.172 Y102.325 E72.50438
G1 X93.172 Y103.121 E72.54161
G1 X116.879 Y126.828 E74.10984
G1 X116.084 Y126.828 E74.14703
G1 X93.172 Y103.916 E75.66267
G1 X93.172 Y104.712 E75.6999
G1 X115.288 Y126.828 E77.16288
G1 X114.492 Y126.828 E77.20011
G1 X93.172 Y105.508 E78.61044
G1 X93.172 Y106.303 E78.64763
G1 X113.697 Y126.828 E80.00537
G1 X112.901 Y126.828 E80.0426
G1 X93.172 Y107.099 E81.34768
G1 X93.172 Y107.894 E81.38487
G1 X112.106 Y126.828 E82.63736
G1 X111.31 Y126.828 E82.67459
G1 X93.172 Y108.69 E83.87443
G1 X93.172 Y109.485 E83.91162
G1 X110.515 Y126.828 E85.05887
G1 X109.719 Y126.828 E85.0961
G1 X93.172 Y110.281 E86.19069
G1 X93.172 Y111.076 E86.22788
G1 X108.924 Y126.828 E87.26988
G1 X108.128 Y126.828 E87.30711
G1 X93.172 Y111.872 E88.29646
G1 X93.172 Y112.668 E88.33369
G1 X107.332 Y126.828 E89.27038
G1 X106.537 Y126.828 E89.30757
G1 X93.172 Y113.463 E90.19167
G1 X93.172 Y114.259 E90.2289
G1 X105.741 Y126.828 E91.06035
G1 X104.946 Y126.828 E91.09754
G1 X93.172 Y115.054 E91.8764
G1 X93.172 Y115.85 E91.91363
G1 X104.15 Y126.828 E92.63983
G1 X103.355 Y126.828 E92.67702
G1 X93.172 Y116.645 E93.35063
G1 X93.172 Y117.441 E93.38786
G1 X102.559 Y126.828 E94.00881
G1 X101.764 Y126.828 E94.046
G1 X93.172 Y118.236 E94.61437
G1 X93.172 Y119.032 E94.6516
G1 X100.968 Y126.828 E95.16731
G1 X100.173 Y126.828 E95.2045
G1 X93.172 Y119.827 E95.66762
G1 X93.172 Y120.623 E95.70485
G1 X99.377 Y126.828 E96.11531
G1 X98.581 Y126.828 E96.15254
G1 X93.172 Y121.419 E96.51035
G1 X93.172 Y122.214 E96.54754
G1 X97.786 Y126.828 E96.85276
G1 X96.99 Y126.828 E96.88999
G1 X93.172 Y123.01 E97.14255
G1 X93.172 Y123.805 E97.17974
G1 X96.195 Y126.828 E97.37971
G1 X95.399 Y126.828 E97.41694
G1 X93.172 Y124.601 E97.56426
G1 X93.172 Y125.396 E97.60145
G1 X94.604 Y126.828 E97.69618
G1 X93.808 Y126.828 E97.73341
G1 X92.921 Y125.941 E97.79209
M106 S255
;LAYER_CHANGE
;Z:0.4
;HEIGHT:0.2
;BEFORE_LAYER_CHANGE
;0.4


G1 Z.4 F18000
;AFTER_LAYER_CHANGE
;0.4
G1 X92.554 Y125.941
;TYPE:External perimeter
;WIDTH:0.599999
G1 F1499.965
G1 X92.554 Y125.141 E97.82915
G1 X92.554 Y93.611 E99.28966
G1 X92.554 Y92.811 E99.32672
G1 X92.6 Y92.634 E99.33519
G1 X92.783 Y92.554 E99.34444
G1 X93.583 Y92.554 E99.3815
G1 X126.418 Y92.554 E100.90246
G1 X127.218 Y92.554 E100.93952
G1 X127.386 Y92.624 E100.94795
G1 F1500.007
G1 X127.446 Y92.811 E100.95705
G1 X127.446 Y93.611 E100.99411
G1 X127.446 Y126.389 E102.51243
G1 X127.446 Y127.189 E102.54949
G1 X127.4 Y127.366 E102.55796
G1 F1499.971
G1 X127.217 Y127.446 E102.56721
G1 X126.417 Y127.446 E102.60427
G1 X93.611 Y127.446 E104.12389
G1 X92.811 Y127.446 E104.16095
G1 X92.634 Y127.4 E104.16942
G1 X92.554 Y127.217 E104.17867
G1 X92.554 Y126.001 E104.235
;WIPE_START
G1 F14400
G1 X92.554 Y123.194 E103.735
;WIPE_END
G92 E0
G1 Z.6 F18000
G1 X127.279 Y126.141
G1 Z.4
G1 E.5 F2700
;TYPE:Solid infill
;WIDTH:0.605573
G1 F8957.564
G1 X126.392 Y127.028 E.55869
G1 X125.596 Y127.028 E.59593
G1 X127.028 Y125.596 E.69068
G1 X127.028 Y124.8 E.72792
G1 X124.8 Y127.028 E.87533
G1 X124.005 Y127.028 E.91252
G1 X127.028 Y124.004 E1.11257
G1 X127.028 Y123.209 E1.14976
G1 X123.209 Y127.028 E1.40244
G1 X122.413 Y127.028 E1.43968
G1 X127.028 Y122.413 E1.74503
G1 X127.028 Y121.617 E1.78227
G1 X121.617 Y127.028 E2.14028
G1 X120.822 Y127.028 E2.17747
G1 X127.028 Y120.822 E2.58808
G1 X127.028 Y120.026 E2.62532
G1 X120.026 Y127.028 E3.0886
G1 X119.23 Y127.028 E3.12584
G1 X127.028 Y119.23 E3.64178
G1 X127.028 Y118.435 E3.67897
G1 X118.435 Y127.028 E4.24751
G1 X117.639 Y127.028 E4.28475
G1 X127.028 Y117.639 E4.90596
G1 X127.028 Y116.843 E4.9432
G1 X116.843 Y127.028 E5.61708
G1 X116.047 Y127.028 E5.65432
G1 X127.028 Y116.047 E6.38086
G1 X127.028 Y115.252 E6.41805
G1 X115.252 Y127.028 E7.19719
G1 X114.456 Y127.028 E7.23443
G1 X127.028 Y114.456 E8.06624
G1 X127.028 Y113.66 E8.10348
G1 X113.66 Y127.028 E8.98796
G1 X112.865 Y127.028 E9.02515
G1 X127.028 Y112.865 E9.96223
G1 X127.028 Y112.069 E9.99947
G1 X112.069 Y127.028 E10.98921
G1 X111.273 Y127.028 E11.02645
G1 X127.028 Y111.273 E12.06886
G1 X127.028 Y110.477 E12.1061
G1 X110.477 Y127.028 E13.20118
G1 X109.682 Y127.028 E13.23837
G1 X127.028 Y109.682 E14.38605
G1 X127.028 Y108.886 E14.42329
G1 X108.886 Y127.028 E15.62363
G1 X108.09 Y127.028 E15.66087
G1 X127.028 Y108.09 E16.91388
G1 X127.028 Y107.295 E16.95107
G1 X107.295 Y127.028 E18.25668
G1 X106.499 Y127.028 E18.29392
G1 X127.028 Y106.499 E19.65219
G1 X127.028 Y105.703 E19.68943
G1 X105.703 Y127.028 E21.10037
G1 X104.907 Y127.028 E21.13761
G1 X127.028 Y104.907 E22.60122
G1 X127.028 Y104.112 E22.63841
G1 X104.112 Y127.028 E24.15462
G1 X103.316 Y127.028 E24.19186
G1 X127.028 Y103.316 E25.76073
G1 X127.028 Y102.52 E25.79797
G1 X102.52 Y127.028 E27.41951
G1 X101.725 Y127.028 E27.4567
G1 X127.028 Y101.725 E29.13084
G1 X127.028 Y100.929 E29.16808
G1 X100.929 Y127.028 E30.89489
G1 X100.133 Y127.028 E30.93213
G1 X127.028 Y100.133 E32.7116
G1 X127.028 Y99.337 E32.74884
G1 X99.337 Y127.028 E34.58098
G1 X98.542 Y127.028 E34.61817
G1 X127.028 Y98.542 E36.50291
G1 X127.028 Y97.746 E36.54015
G1 X97.746 Y127.028 E38.47755
G1 X96.95 Y127.028 E38.51479
G1 X127.028 Y96.95 E40.50486
G1 X127.028 Y96.155 E40.54205
G1 X96.155 Y127.028 E42.58472
G1 X95.359 Y127.028 E42.62196
G1 X127.028 Y95.359 E44.7173
G1 X127.028 Y94.563 E44.75454
G1 X94.563 Y127.028 E46.90254
G1 X93.767 Y127.028 E46.93978
G1 X127.028 Y93.767 E49.14045
G1 X127.028 Y92.972 E49.17764
G1 X92.972 Y127.028 E51.43091
G1 X92.972 Y126.232 E51.46815
G1 X126.232 Y92.972 E53.66875
G1 X125.437 Y92.972 E53.70594
G1 X92.972 Y125.437 E55.85394
G1 X92.972 Y124.641 E55.89118
G1 X124.641 Y92.972 E57.98652
G1 X123.845 Y92.972 E58.02376
G1 X92.972 Y123.845 E60.06643
G1 X92.972 Y123.05 E60.10362
G1 X123.05 Y92.972 E62.09369
G1 X122.254 Y92.972 E62.13093
G1 X92.972 Y122.254 E64.06833
G1 X92.972 Y121.458 E64.10557
G1 X121.458 Y92.972 E65.99031
G1 X120.662 Y92.972 E66.02755
G1 X92.972 Y120.662 E67.85962
G1 X92.972 Y119.867 E67.89681
G1 X119.867 Y92.972 E69.67628
G1 X119.071 Y92.972 E69.71352
G1 X92.972 Y119.071 E71.44033
G1 X92.972 Y118.275 E71.47757
G1 X118.275 Y92.972 E73.15171
G1 X117.48 Y92.972 E73.1889
G1 X92.972 Y117.48 E74.81044
G1 X92.972 Y116.684 E74.84768
G1 X116.684 Y92.972 E76.41655
G1 X115.888 Y92.972 E76.45379
G1 X92.972 Y115.888 E77.97
G1 X92.972 Y115.092 E78.00724
G1 X115.092 Y92.972 E79.47078
G1 X114.297 Y92.972 E79.50797
G1 X92.972 Y114.297 E80.91891
G1 X92.972 Y113.501 E80.95615
G1 X113.501 Y92.972 E82.31442
G1 X112.705 Y92.972 E82.35166
G1 X92.972 Y112.705 E83.65727
G1 X92.972 Y111.91 E83.69446
G1 X111.91 Y92.972 E84.94747
G1 X111.114 Y92.972 E84.98471
G1 X92.972 Y111.114 E86.18505
G1 X92.972 Y110.318 E86.22229
G1 X110.318 Y92.972 E87.36997
G1 X109.522 Y92.972 E87.40721
G1 X92.972 Y109.522 E88.50222
G1 X92.972 Y108.727 E88.53941
G1 X108.727 Y92.972 E89.58182
G1 X107.931 Y92.972 E89.61906
G1 X92.972 Y107.931 E90.6088
G1 X92.972 Y107.135 E90.64604
G1 X107.135 Y92.972 E91.58312
G1 X106.34 Y92.972 E91.62031
G1 X92.972 Y106.34 E92.50479
G1 X92.972 Y105.544 E92.54203
G1 X105.544 Y92.972 E93.37384
G1 X104.748 Y92.972 E93.41108
G1 X92.972 Y104.748 E94.19022
G1 X92.972 Y103.952 E94.22746
G1 X103.952 Y92.972 E94.95394
G1 X103.157 Y92.972 E94.99113
G1 X92.972 Y103.157 E95.66501
G1 X92.972 Y102.361 E95.70225
G1 X102.361 Y92.972 E96.32346
G1 X101.565 Y92.972 E96.3607
G1 X92.972 Y101.565 E96.92924
G1 X92.972 Y100.77 E96.96643
G1 X100.77 Y92.972 E97.48237
G1 X99.974 Y92.972 E97.51961
G1 X92.972 Y99.974 E97.98289
G1 X92.972 Y99.178 E98.02013
G1 X99.178 Y92.972 E98.43074
G1 X98.383 Y92.972 E98.46793
G1 X92.972 Y98.383 E98.82594
G1 X92.972 Y97.587 E98.86318
G1 X97.587 Y92.972 E99.16853
G1 X96.791 Y92.972 E99.20577
G1 X92.972 Y96.791 E99.45845
G1 X92.972 Y95.995 E99.49569
G1 X95.995 Y92.972 E99.6957
G1 X95.2 Y92.972 E99.73289
G1 X92.972 Y95.2 E99.8803
G1 X92.972 Y94.404 E99.91754
G1 X94.404 Y92.972 E100.01229
G1 X93.608 Y92.972 E100.04953
G1 X92.721 Y93.859 E100.10822
;LAYER_CHANGE
;Z:0.6
;HEIGHT:0.2
;BEFORE_LAYER_CHANGE
;0.6


G1 Z.6 F18000
;AFTER_LAYER_CHANGE
;0.6
G1 X92.354 Y93.859
;TYPE:External perimeter
;WIDTH:0.599999
G1 F1499.965
G1 X92.354 Y92.831 E100.15584
G1 X92.394 Y92.592 E100.16706
G1 F1520.295
G1 X92.53 Y92.44 E100.17651
G1 F1499.965
G1 X92.781 Y92.354 E100.1888
G1 X93.581 Y92.354 E100.22586
G1 X126.419 Y92.354 E101.74696
G1 X127.219 Y92.354 E101.78402
G1 X127.469 Y92.44 E101.79627
G1 F1520.323
G1 X127.606 Y92.592 E101.80575
G1 F1500.007
G1 X127.646 Y92.831 E101.81697
G1 X127.646 Y93.631 E101.85403
G1 X127.646 Y126.369 E103.3705
G1 X127.646 Y127.169 E103.40756
G1 X127.606 Y127.408 E103.41878
G1 F1520.316
G1 X127.47 Y127.56 E103.42823
G1 F1499.965
G1 X127.219 Y127.646 E103.44052
G1 X126.419 Y127.646 E103.47758
G1 X93.631 Y127.646 E104.99636
G1 X92.831 Y127.646 E105.03342
G1 X92.592 Y127.606 E105.04464
G1 F1520.304
G1 X92.44 Y127.47 E105.05409
G1 F1499.965
G1 X92.354 Y127.219 E105.06638
G1 X92.354 Y126.419 E105.10344
G1 X92.354 Y94.719 E106.57183
G1 X92.354 Y93.919 E106.60889
;WIPE_START
G1 F14400
G1 X92.354 Y92.831 E106.41509
G1 X92.394 Y92.592 E106.37193
G1 X92.53 Y92.44 E106.3356
G1 X92.781 Y92.354 E106.28834
G1 X93.788 Y92.354 E106.10889
;WIPE_END
G92 E0
G1 Z.8 F18000
G1 X126.24 Y92.521
G1 Z.6
G1 E.5 F2700
;TYPE:Top solid infill
;WIDTH:0.603923
G1 F8983.909
G1 X127.228 Y93.51 E.56521
G1 X127.228 Y94.303 E.6022
G1 X125.697 Y92.772 E.7032
G1 X124.904 Y92.772 E.74019
G1 X127.228 Y95.096 E.8935
G1 X127.228 Y95.89 E.93054
G1 X124.11 Y92.772 E1.13623
G1 X123.317 Y92.772 E1.17322
G1 X127.228 Y96.683 E1.43123
G1 X127.228 Y97.476 E1.46822
G1 X122.524 Y92.772 E1.77854
G1 X121.73 Y92.772 E1.81558
G1 X127.228 Y98.27 E2.17828
