; generated by PrusaSlicer 2.5.0+win64 on 2023-03-04 at 06:02:22 UTC

; 

; external perimeters extrusion width = 0.45mm
; perimeters extrusion width = 0.45mm
; infill extrusion width = 0.45mm
; solid infill extrusion width = 0.45mm
; top infill extrusion width = 0.45mm
; first layer extrusion width = 0.70mm

M107
M190 S60 ; set bed temperature and wait for it to be reached
M104 S205 ; set temperature
;TYPE:Custom
SET_GCODE_VARIABLE MACRO=START_PRINT VARIABLE=bed_temp VALUE=60
SET_GCODE_VARIABLE MACRO=START_PRINT VARIABLE=extruder_temp VALUE=205
START_PRINT
M109 S205 ; set temperature and wait for it to be reached
G21 ; set units to millimeters
G90 ; use absolute coordinates
M82 ; use absolute distances for extrusion
G92 E0
; Filament gcode
M107
;LAYER_CHANGE
;Z:0.35
;HEIGHT:0.35
;BEFORE_LAYER_CHANGE
;0.35


G1 Z.35 F18000
;AFTER_LAYER_CHANGE
;0.35
G1 E-.6 F2700
G92 E0
G1 X95.287 Y95.895 F18000
G1 E.6 F2700
;TYPE:Skirt/Brim
;WIDTH:0.7
G1 F3600
G1 X97.026 Y94.503 E.80251
G1 X100 Y93.75 E1.08151
G1 X120 Y93.75 E2.9001
G1 X122.191 Y94.147 E3.10261
G1 X124.105 Y95.287 E3.30512
G1 X125.497 Y97.026 E3.50762
G1 X126.25 Y100 E3.78663
G1 X126.25 Y120 E5.60522
G1 X125.853 Y122.191 E5.80773
G1 X124.713 Y124.105 E6.01023
G1 X122.974 Y125.497 E6.21274
G1 X120 Y126.25 E6.49175
G1 X100 Y126.25 E8.31034
G1 X97.809 Y125.853 E8.51284
G1 X95.895 Y124.713 E8.71535
G1 X94.503 Y122.974 E8.91786
G1 X93.75 Y120 E9.19686
G1 X93.75 Y100 E11.01546
G1 X94.147 Y97.809 E11.21796
G1 X95.256 Y95.947 E11.41501
G1 X95.807 Y96.297 F18000
G1 F3600
G1 X95.905 Y96.144 E11.43157
G1 X97.616 Y94.905 E11.6236
G1 X100 Y94.375 E11.8457
G1 X120 Y94.375 E13.66429
G1 X122.074 Y94.772 E13.85632
G1 X123.856 Y95.905 E14.04835
G1 X125.095 Y97.616 E14.24038
G1 X125.625 Y100 E14.46248
G1 X125.625 Y120 E16.28108
G1 X125.228 Y122.074 E16.4731
G1 X124.095 Y123.856 E16.66513
G1 X122.384 Y125.095 E16.85716
G1 X120 Y125.625 E17.07927
G1 X100 Y125.625 E18.89786
G1 X97.926 Y125.228 E19.08989
G1 X96.144 Y124.095 E19.28192
G1 X94.905 Y122.384 E19.47395
G1 X94.375 Y120 E19.69605
G1 X94.375 Y100 E21.51464
G1 X94.772 Y97.926 E21.70667
G1 X95.775 Y96.348 E21.87669
;WIPE_START
G1 F14400
G1 X95.905 Y96.144 E21.83357
G1 X97.616 Y94.905 E21.4574
G1 X98.442 Y94.722 E21.30669
;WIPE_END
G1 E21.27669 F2700
G92 E0
G1 X100.35 Y100.35 F18000
G1 E.6 F2700
;TYPE:External perimeter
;WIDTH:0.7
G1 F3600
G1 X119.65 Y100.35 E2.35494
G1 X119.65 Y119.65 E4.10988
G1 X100.35 Y119.65 E5.86482
G1 X100.35 Y100.41 E7.6143
;WIPE_START
G1 F14400
G1 X103.55 Y100.4 E7.0443
;WIPE_END
G1 E7.0143 F2700
G92 E0
G1 X118.169 Y100.537 F18000
G1 E.6 F2700
;TYPE:Solid infill
;WIDTH:0.714456
G1 F3600
G1 X119.181 Y101.55 E.73323
G1 X119.181 Y102.454 E.81735
G1 X117.546 Y100.819 E1.03254
G1 X116.642 Y100.819 E1.11666
G1 X119.181 Y103.358 E1.45082
G1 X119.181 Y104.263 E1.53493
G1 X115.737 Y100.819 E1.98805
G1 X114.833 Y100.819 E2.07217
G1 X119.181 Y105.167 E2.64424
G1 X119.181 Y106.071 E2.72836
G1 X113.929 Y100.819 E3.4194
G1 X113.025 Y100.819 E3.50352
G1 X119.181 Y106.975 E4.31351
G1 X119.181 Y107.879 E4.39763
G1 X112.121 Y100.819 E5.32659
G1 X111.217 Y100.819 E5.41071
G1 X119.181 Y108.783 E6.45862
G1 X119.181 Y109.688 E6.54274
G1 X110.312 Y100.819 E7.70962
G1 X109.408 Y100.819 E7.79374
G1 X119.181 Y110.592 E9.07958
G1 X119.181 Y111.496 E9.16369
G1 X108.504 Y100.819 E10.56849
G1 X107.6 Y100.819 E10.65261
G1 X119.181 Y112.4 E12.17637
G1 X119.181 Y113.304 E12.26049
G1 X106.696 Y100.819 E13.90321
G1 X105.792 Y100.819 E13.98733
G1 X119.181 Y114.208 E15.74901
G1 X119.181 Y115.113 E15.83313
G1 X104.887 Y100.819 E17.71377
G1 X103.983 Y100.819 E17.79788
G1 X119.181 Y116.017 E19.79749
G1 X119.181 Y116.921 E19.8816
G1 X103.079 Y100.819 E22.00017
G1 X102.175 Y100.819 E22.08428
G1 X119.181 Y117.825 E24.32181
G1 X119.181 Y118.729 E24.40592
G1 X101.271 Y100.819 E26.76241
G1 X100.819 Y100.819 E26.80446
G1 X100.819 Y101.271 E26.84652
G1 X118.729 Y119.181 E29.20299
G1 X117.825 Y119.181 E29.28711
G1 X100.819 Y102.175 E31.52461
G1 X100.819 Y103.079 E31.60873
G1 X116.921 Y119.181 E33.72727
G1 X116.017 Y119.181 E33.81139
G1 X100.819 Y103.983 E35.81098
G1 X100.819 Y104.887 E35.89509
G1 X115.113 Y119.181 E37.77572
G1 X114.208 Y119.181 E37.85983
G1 X100.819 Y105.792 E39.6215
G1 X100.819 Y106.696 E39.70562
G1 X113.304 Y119.181 E41.34832
G1 X112.4 Y119.181 E41.43244
G1 X100.819 Y107.6 E42.95618
G1 X100.819 Y108.504 E43.0403
G1 X111.496 Y119.181 E44.44508
G1 X110.592 Y119.181 E44.52919
G1 X100.819 Y109.408 E45.81502
G1 X100.819 Y110.313 E45.89913
G1 X109.687 Y119.181 E47.06599
G1 X108.783 Y119.181 E47.15011
G1 X100.819 Y111.217 E48.19801
G1 X100.819 Y112.121 E48.28213
G1 X107.879 Y119.181 E49.21107
G1 X106.975 Y119.181 E49.29519
G1 X100.819 Y113.025 E50.10517
G1 X100.819 Y113.929 E50.18928
G1 X106.071 Y119.181 E50.8803
G1 X105.167 Y119.181 E50.96442
G1 X100.819 Y114.833 E51.53648
G1 X100.819 Y115.738 E51.6206
G1 X104.262 Y119.181 E52.0737
G1 X103.358 Y119.181 E52.15781
G1 X100.819 Y116.642 E52.49195
G1 X100.819 Y117.546 E52.57607
G1 X102.454 Y119.181 E52.79125
G1 X101.55 Y119.181 E52.87536
G1 X100.537 Y118.169 E53.00858
;LAYER_CHANGE
;Z:0.7
;HEIGHT:0.35
;BEFORE_LAYER_CHANGE
;0.7


G1 Z.7 F18000
;AFTER_LAYER_CHANGE
;0.7
G1 X100.225 Y118.169
;TYPE:External perimeter
;WIDTH:0.45
G1 F7500
G1 X100.225 Y100.225 E53.98744
G1 X119.775 Y100.225 E55.05391
G1 X119.775 Y119.775 E56.12039
G1 X100.225 Y119.775 E57.18687
G1 X100.225 Y118.229 E57.27121
;WIPE_START
G1 F14400
G1 X100.225 Y115.029 E56.70121
;WIPE_END
G1 E56.67121 F2700
G92 E0
G1 X119.663 Y118.904 F18000
G1 E.6 F2700
;TYPE:Top solid infill
;WIDTH:0.450218
G1 F7677.81
G1 X119.073 Y119.494 E.64551
G1 X118.542 Y119.494 E.67447
G1 X119.494 Y118.542 E.74791
G1 X119.494 Y118.012 E.77686
G1 X118.012 Y119.494 E.89125
G1 X117.481 Y119.494 E.92021
G1 X119.494 Y117.481 E1.07554
G1 X119.494 Y116.951 E1.1045
G1 X116.951 Y119.494 E1.30078
G1 X116.421 Y119.494 E1.32974
G1 X119.494 Y116.421 E1.56697
G1 X119.494 Y115.89 E1.59593
G1 X115.89 Y119.494 E1.87411
G1 X115.36 Y119.494 E1.90307
G1 X119.494 Y115.36 E2.2222
G1 X119.494 Y114.829 E2.25116
G1 X114.829 Y119.494 E2.61124
G1 X114.299 Y119.494 E2.64019
G1 X119.494 Y114.299 E3.04122
G1 X119.494 Y113.768 E3.07018
G1 X113.768 Y119.494 E3.51216
G1 X113.238 Y119.494 E3.54111
G1 X119.494 Y113.238 E4.02404
G1 X119.494 Y112.707 E4.053
G1 X112.707 Y119.494 E4.57688
G1 X112.177 Y119.494 E4.60583
G1 X119.494 Y112.177 E5.17066
G1 X119.494 Y111.646 E5.19961
G1 X111.646 Y119.494 E5.80539
G1 X111.116 Y119.494 E5.83434
G1 X119.494 Y111.116 E6.48107
G1 X119.494 Y110.585 E6.51002
G1 X110.585 Y119.494 E7.1977
G1 X110.055 Y119.494 E7.22665
G1 X119.494 Y110.055 E7.95527
G1 X119.494 Y109.524 E7.98423
G1 X109.524 Y119.494 E8.7538
G1 X108.994 Y119.494 E8.78275
G1 X119.494 Y108.994 E9.59327
G1 X119.494 Y108.463 E9.62223
G1 X108.463 Y119.494 E10.4737
G1 X107.933 Y119.494 E10.50265
G1 X119.494 Y107.933 E11.39507
G1 X119.494 Y107.402 E11.42403
G1 X107.402 Y119.494 E12.35739
G1 X106.872 Y119.494 E12.38635
G1 X119.494 Y106.872 E13.36066
G1 X119.494 Y106.341 E13.38962
G1 X106.341 Y119.494 E14.40488
G1 X105.811 Y119.494 E14.43384
G1 X119.494 Y105.811 E15.49005
G1 X119.494 Y105.28 E15.51901
G1 X105.28 Y119.494 E16.61617
G1 X104.75 Y119.494 E16.64512
G1 X119.494 Y104.75 E17.78323
G1 X119.494 Y104.219 E17.81219
G1 X104.219 Y119.494 E18.99125
G1 X103.689 Y119.494 E19.0202
G1 X119.494 Y103.689 E20.24021
G1 X119.494 Y103.159 E20.26917
G1 X103.158 Y119.494 E21.53013
G1 X102.628 Y119.494 E21.55908
G1 X119.494 Y102.628 E22.86099
G1 X119.494 Y102.098 E22.88994
G1 X102.098 Y119.494 E24.2328
G1 X101.567 Y119.494 E24.26175
G1 X119.494 Y101.567 E25.64556
G1 X119.494 Y101.037 E25.67451
G1 X101.037 Y119.494 E27.09927
G1 X100.506 Y119.494 E27.12822
G1 X119.494 Y100.506 E28.59391
G1 X118.963 Y100.506 E28.62287
G1 X100.506 Y118.963 E30.04761
G1 X100.506 Y118.433 E30.07657
G1 X118.433 Y100.506 E31.46036
G1 X117.902 Y100.506 E31.48932
G1 X100.506 Y117.902 E32.83217
G1 X100.506 Y117.372 E32.86112
G1 X117.372 Y100.506 E34.16302
G1 X116.841 Y100.506 E34.19197
G1 X100.506 Y116.841 E35.45292
G1 X100.506 Y116.311 E35.48188
G1 X116.311 Y100.506 E36.70188
G1 X115.78 Y100.506 E36.73083
G1 X100.506 Y115.78 E37.90988
G1 X100.506 Y115.25 E37.93884
G1 X115.25 Y100.506 E39.07694
G1 X114.719 Y100.506 E39.10589
G1 X100.506 Y114.719 E40.20305
G1 X100.506 Y114.189 E40.232
G1 X114.189 Y100.506 E41.28821
G1 X113.658 Y100.506 E41.31716
G1 X100.506 Y113.658 E42.33242
G1 X100.506 Y113.128 E42.36137
G1 X113.128 Y100.506 E43.33568
G1 X112.598 Y100.506 E43.36463
G1 X100.506 Y112.598 E44.29799
G1 X100.506 Y112.067 E44.32695
G1 X112.067 Y100.506 E45.21935
G1 X111.537 Y100.506 E45.24831
G1 X100.506 Y111.537 E46.09977
G1 X100.506 Y111.006 E46.12872
G1 X111.006 Y100.506 E46.93923
G1 X110.476 Y100.506 E46.96819
G1 X100.506 Y110.476 E47.73775
G1 X100.506 Y109.945 E47.76671
G1 X109.945 Y100.506 E48.49532
G1 X109.415 Y100.506 E48.52427
G1 X100.506 Y109.415 E49.21194
G1 X100.506 Y108.884 E49.24089
G1 X108.884 Y100.506 E49.88761
G1 X108.354 Y100.506 E49.91656
G1 X100.506 Y108.354 E50.52233
G1 X100.506 Y107.823 E50.55128
G1 X107.823 Y100.506 E51.1161
G1 X107.293 Y100.506 E51.14506
G1 X100.506 Y107.293 E51.66892
G1 X100.506 Y106.762 E51.69788
G1 X106.762 Y100.506 E52.1808
G1 X106.232 Y100.506 E52.20975
G1 X100.506 Y106.232 E52.65172
G1 X100.506 Y105.701 E52.68068
G1 X105.701 Y100.506 E53.0817
G1 X105.171 Y100.506 E53.11065
G1 X100.506 Y105.171 E53.47073
G1 X100.506 Y104.64 E53.49968
G1 X104.64 Y100.506 E53.81881
G1 X104.11 Y100.506 E53.84776
G1 X100.506 Y104.11 E54.12594
G1 X100.506 Y103.579 E54.15489
G1 X103.579 Y100.506 E54.39212
G1 X103.049 Y100.506 E54.42107
G1 X100.506 Y103.049 E54.61735
G1 X100.506 Y102.518 E54.6463
G1 X102.518 Y100.506 E54.80163
G1 X101.988 Y100.506 E54.83059
G1 X100.506 Y101.988 E54.94497
G1 X100.506 Y101.457 E54.97392
G1 X101.457 Y100.506 E55.04735
G1 X100.927 Y100.506 E55.07631
G1 X100.337 Y101.096 E55.12181
;LAYER_CHANGE
;Z:1.05
;HEIGHT:0.35
;BEFORE_LAYER_CHANGE
;1.05


G1 Z0.700 F18000
;AFTER_LAYER_CHANGE
;1.05
;TYPE:External perimeter
;WIDTH:0.45
G1 F4688
G1 Z0.704 X100.225 Y100.225 E55.1693
G1 Z0.791 X119.775 Y100.225 E56.23578
G1 Z0.879 X119.775 Y119.775 E57.30226
G1 Z0.966 X100.225 Y119.775 E58.36874
G1 Z1.050 X100.225 Y101.096 E59.38772
M106 S252.45
;LAYER_CHANGE
;Z:1.4
;HEIGHT:0.35
;BEFORE_LAYER_CHANGE
;1.4


G1 Z1.050 F18000
;AFTER_LAYER_CHANGE
;1.4
G1 F4687
G1 Z1.054 X100.225 Y100.225 E59.43522
G1 Z1.141 X119.775 Y100.225 E60.50169
G1 Z1.229 X119.775 Y119.775 E61.56817
G1 Z1.316 X100.225 Y119.775 E62.63465
G1 Z1.400 X100.225 Y101.096 E63.65363
;LAYER_CHANGE
;Z:1.75
;HEIGHT:0.35
;BEFORE_LAYER_CHANGE
;1.75


G1 Z1.400 F18000
;AFTER_LAYER_CHANGE
;1.75
G1 F4687
G1 Z1.404 X100.225 Y100.225 E63.70113
G1 Z1.491 X119.775 Y100.225 E64.76761
G1 Z1.579 X119.775 Y119.775 E65.83408
G1 Z1.666 X100.225 Y119.775 E66.90056
G1 Z1.750 X100.225 Y101.096 E67.91955
;LAYER_CHANGE
;Z:2.1
;HEIGHT:0.35
;BEFORE_LAYER_CHANGE
;2.1


G1 Z1.750 F18000
;AFTER_LAYER_CHANGE
;2.1
G1 F4687
G1 Z1.754 X100.225 Y100.225 E67.96704
G1 Z1.841 X119.775 Y100.225 E69.03352
G1 Z1.929 X119.775 Y119.775 E70.1
G1 Z2.016 X100.225 Y119.775 E71.16648
G1 Z2.100 X100.225 Y101.096 E72.18546
;LAYER_CHANGE
;Z:2.45
;HEIGHT:0.35
;BEFORE_LAYER_CHANGE
;2.45


G1 Z2.100 F18000
;AFTER_LAYER_CHANGE
;2.45
G1 F4687
G1 Z2.104 X100.225 Y100.225 E72.23295
G1 Z2.191 X119.775 Y100.225 E73.29943
G1 Z2.279 X119.775 Y119.775 E74.36591
G1 Z2.366 X100.225 Y119.775 E75.43239
G1 Z2.450 X100.225 Y101.096 E76.45137
;LAYER_CHANGE
;Z:2.8
;HEIGHT:0.35
;BEFORE_LAYER_CHANGE
;2.8


G1 Z2.450 F18000
;AFTER_LAYER_CHANGE
;2.8
G1 F4687
G1 Z2.454 X100.225 Y100.225 E76.49887
G1 Z2.541 X119.775 Y100.225 E77.56534
G1 Z2.629 X119.775 Y119.775 E78.63182
G1 Z2.716 X100.225 Y119.775 E79.6983
G1 Z2.800 X100.225 Y101.096 E80.71728
;LAYER_CHANGE
;Z:3.15
;HEIGHT:0.35
;BEFORE_LAYER_CHANGE
;3.15


G1 Z2.800 F18000
;AFTER_LAYER_CHANGE
;3.15
G1 F4687
G1 Z2.804 X100.225 Y100.225 E80.76478
G1 Z2.891 X119.775 Y100.225 E81.83126
G1 Z2.979 X119.775 Y119.775 E82.89773
G1 Z3.066 X100.225 Y119.775 E83.96421
G1 Z3.150 X100.225 Y101.096 E84.9832
;LAYER_CHANGE
;Z:3.5
;HEIGHT:0.35
;BEFORE_LAYER_CHANGE
;3.5


G1 Z3.150 F18000
;AFTER_LAYER_CHANGE
;3.5
G1 F4687
G1 Z3.154 X100.225 Y100.225 E85.03069
G1 Z3.241 X119.775 Y100.225 E86.09717
G1 Z3.329 X119.775 Y119.775 E87.16365
G1 Z3.416 X100.225 Y119.775 E88.23013
G1 Z3.500 X100.225 Y101.096 E89.24911
;LAYER_CHANGE
;Z:3.85
;HEIGHT:0.35
;BEFORE_LAYER_CHANGE
;3.85


G1 Z3.500 F18000
;AFTER_LAYER_CHANGE
;3.85
G1 F4687
G1 Z3.504 X100.225 Y100.225 E89.2966
G1 Z3.591 X119.775 Y100.225 E90.36308
G1 Z3.679 X119.775 Y119.775 E91.42956
G1 Z3.766 X100.225 Y119.775 E92.49604
G1 Z3.850 X100.225 Y101.096 E93.51502
;LAYER_CHANGE
;Z:4.2
;HEIGHT:0.35
;BEFORE_LAYER_CHANGE
;4.2


G1 Z3.850 F18000
;AFTER_LAYER_CHANGE
;4.2
G1 F5374
G1 Z3.853 X100.225 Y100.225 E93.56252
G1 Z3.872 X105.006 Y100.225 E93.82335
G1 Z3.879 X105.007 Y102.117 E93.92654
G1 Z3.888 X107.083 Y102.117 E94.03976
G1 Z3.895 X107.082 Y100.225 E94.14295
G1 Z3.915 X112.1 Y100.225 E94.41672
G1 Z3.922 X112.099 Y102.117 E94.51991
G1 Z3.931 X114.323 Y102.117 E94.64121
G1 Z3.938 X114.324 Y100.225 E94.7444
G1 Z3.959 X119.775 Y100.225 E95.04176
G1 Z3.992 X119.775 Y108.601 E95.4987
G1 Z4.000 X117.83 Y108.601 E95.6048
G1 Z4.008 X117.829 Y110.731 E95.72104
G1 Z4.015 X119.775 Y110.732 E95.82718
G1 Z4.051 X119.775 Y119.775 E96.32048
G1 Z4.127 X100.225 Y119.775 E97.38696
G1 Z4.200 X100.225 Y101.096 E98.40594
;LAYER_CHANGE
;Z:4.55
;HEIGHT:0.35
;BEFORE_LAYER_CHANGE
;4.55


G1 Z4.200 F18000
;AFTER_LAYER_CHANGE
;4.55
G1 F5374
G1 Z4.203 X100.225 Y100.225 E98.45344
G1 Z4.223 X105.201 Y100.225 E98.72487
G1 Z4.230 X105.202 Y102.117 E98.82808
G1 Z4.238 X107.29 Y102.117 E98.94201
G1 Z4.246 X107.289 Y100.225 E99.04522
G1 Z4.264 X111.887 Y100.225 E99.29605
G1 Z4.271 X111.886 Y102.117 E99.39925
G1 Z4.280 X114.102 Y102.117 E99.52011
G1 Z4.287 X114.103 Y100.225 E99.62332
G1 Z4.309 X119.775 Y100.225 E99.93275
G1 Z4.342 X119.775 Y108.598 E100.38948
G1 Z4.350 X117.831 Y108.597 E100.49555
G1 Z4.358 X117.83 Y110.728 E100.61179
G1 Z4.365 X119.775 Y110.728 E100.7179
G1 Z4.401 X119.775 Y119.775 E101.21141
G1 Z4.477 X100.225 Y119.775 E102.27789
G1 Z4.550 X100.225 Y101.096 E103.29687
;LAYER_CHANGE
;Z:4.9
;HEIGHT:0.35
;BEFORE_LAYER_CHANGE
;4.9


G1 Z4.550 F18000
;AFTER_LAYER_CHANGE
;4.9
G1 F5374
G1 Z4.553 X100.225 Y100.225 E103.34437
G1 Z4.574 X105.395 Y100.225 E103.6264
G1 Z4.581 X105.396 Y102.117 E103.72962
G1 Z4.589 X107.497 Y102.117 E103.84426
G1 Z4.597 X107.497 Y100.225 E103.94749
G1 Z4.613 X111.674 Y100.225 E104.17537
G1 Z4.620 X111.673 Y102.117 E104.2786
G1 Z4.629 X113.88 Y102.117 E104.39901
G1 Z4.636 X113.881 Y100.225 E104.50224
G1 Z4.659 X119.775 Y100.225 E104.82374
G1 Z4.692 X119.775 Y108.594 E105.28027
G1 Z4.700 X117.831 Y108.593 E105.3863
G1 Z4.708 X117.83 Y110.724 E105.50254
G1 Z4.715 X119.775 Y110.725 E105.60863
G1 Z4.751 X119.775 Y119.775 E106.10234
G1 Z4.827 X100.225 Y119.775 E107.16882
G1 Z4.900 X100.225 Y101.096 E108.1878
;LAYER_CHANGE
;Z:5.25
;HEIGHT:0.35
;BEFORE_LAYER_CHANGE
;5.25


G1 Z4.900 F18000
;AFTER_LAYER_CHANGE
;5.25
G1 F5374
G1 Z4.903 X100.225 Y100.225 E108.2353
G1 Z4.924 X105.589 Y100.225 E108.52793
G1 Z4.932 X105.59 Y102.118 E108.63117
G1 Z4.940 X107.705 Y102.118 E108.74652
G1 Z4.947 X107.704 Y100.225 E108.84976
G1 Z4.962 X111.461 Y100.225 E109.05471
G1 Z4.969 X111.46 Y102.118 E109.15795
G1 Z4.978 X113.659 Y102.118 E109.27792
G1 Z4.985 X113.66 Y100.225 E109.38116
G1 Z5.009 X119.775 Y100.225 E109.71473
G1 Z5.042 X119.775 Y108.59 E110.17105
G1 Z5.050 X117.832 Y108.589 E110.27706
G1 Z5.058 X117.831 Y110.72 E110.3933
G1 Z5.065 X119.775 Y110.721 E110.49936
G1 Z5.101 X119.775 Y119.775 E110.99328
G1 Z5.177 X100.225 Y119.775 E112.05975
G1 Z5.250 X100.225 Y101.096 E113.07874
;LAYER_CHANGE
;Z:5.6
;HEIGHT:0.35
;BEFORE_LAYER_CHANGE
;5.6


G1 Z5.250 F18000
;AFTER_LAYER_CHANGE
;5.6
G1 F5374
G1 Z5.253 X100.225 Y100.225 E113.12623
G1 Z5.275 X105.784 Y100.225 E113.42946
G1 Z5.282 X105.785 Y102.118 E113.53272
G1 Z5.291 X107.912 Y102.118 E113.64879
