; generated by PrusaSlicer 2.6.0-alpha4+win64 on 2023-03-06 at 14:48:17 UTC

; 

; external perimeters extrusion width = 0.45mm
; perimeters extrusion width = 0.45mm
; infill extrusion width = 0.45mm
; solid infill extrusion width = 0.45mm
; top infill extrusion width = 0.40mm
; first layer extrusion width = 0.50mm

M107
M190 S60 ; set bed temperature and wait for it to be reached
M104 S216 ; set temperature
;TYPE:Custom
SET_GCODE_VARIABLE MACRO=START_PRINT VARIABLE=bed_temp VALUE=60
SET_GCODE_VARIABLE MACRO=START_PRINT VARIABLE=extruder_temp VALUE=216
START_PRINT
M109 S216 ; set temperature and wait for it to be reached
G21 ; set units to millimeters
G90 ; use absolute coordinates
M82 ; use absolute distances for extrusion
G92 E0
; Filament gcode
M107
;LAYER_CHANGE
;Z:0.25
;HEIGHT:0.25
;BEFORE_LAYER_CHANGE
;0.25


G1 Z.25 F18000
;AFTER_LAYER_CHANGE
;0.25
G1 E-.6 F2700
G92 E0
G1 X91.94 Y92.75 F18000
G1 E.6 F2700
;TYPE:Skirt/Brim
;WIDTH:0.5
G1 F2400
G1 X93.458 Y91.275 E.69819
G1 X94.296 Y90.627 E.74733
G1 X101.218 Y86.639 E1.11794
G1 X102.319 Y86.227 E1.17248
G1 X103.891 Y85.783 E1.24826
G1 X105.177 Y85.487 E1.30948
G1 X106.15 Y85.366 E1.35497
G1 X114.077 Y85.377 E1.72272
G1 X116.315 Y85.836 E1.82871
G1 X118.112 Y86.366 E1.91563
G1 X118.927 Y86.711 E1.95669
G1 X125.386 Y90.421 E2.30225
G1 X126.317 Y91.079 E2.35514
G1 X127.055 Y91.752 E2.40148
G1 X128.581 Y93.296 E2.50219
G1 X129.376 Y94.293 E2.56135
G1 X133.316 Y101.116 E2.92687
G1 X133.701 Y102.08 E2.97503
G1 X134.14 Y103.584 E3.04772
G1 X134.468 Y104.922 E3.11163
G1 X134.641 Y106.235 E3.17307
G1 X134.645 Y113.55 E3.51243
G1 X134.571 Y114.525 E3.55779
G1 X134.084 Y116.621 E3.65762
G1 X133.429 Y118.642 E3.75618
G1 X129.566 Y125.399 E4.11727
G1 X128.865 Y126.382 E4.17328
G1 X128.058 Y127.257 E4.2285
G1 X126.795 Y128.499 E4.31068
G1 X125.79 Y129.324 E4.371
G1 X119.061 Y133.22 E4.73173
G1 X118.124 Y133.63 E4.77918
G1 X116.111 Y134.218 E4.87647
G1 X114.795 Y134.518 E4.93909
G1 X113.536 Y134.648 E4.99781
G1 X106.287 Y134.64 E5.33411
G1 X105.201 Y134.517 E5.38481
G1 X102.319 Y133.773 E5.5229
G1 X101.218 Y133.361 E5.57744
G1 X94.465 Y129.481 E5.93876
G1 X93.687 Y128.92 E5.98326
G1 X92.94 Y128.238 E6.03019
G1 X91.575 Y126.868 E6.11991
G1 X90.679 Y125.788 E6.18501
G1 X86.782 Y119.058 E6.5458
G1 X86.299 Y117.905 E6.60379
G1 X85.858 Y116.386 E6.67717
G1 X85.435 Y114.537 E6.76517
G1 X85.355 Y113.538 E6.81166
G1 X85.355 Y106.462 E7.13993
G1 X85.435 Y105.463 E7.18642
G1 X85.919 Y103.385 E7.2854
G1 X86.591 Y101.329 E7.38575
G1 X90.424 Y94.616 E7.74438
G1 X91.136 Y93.622 E7.8011
G1 X91.9 Y92.794 E7.85337
G1 X92.228 Y93.096 F18000
G1 F2400
G1 X93.748 Y91.614 E7.95186
G1 X94.538 Y91.001 E7.99825
G1 X101.406 Y87.044 E8.36598
G1 X102.441 Y86.656 E8.41726
G1 X103.998 Y86.216 E8.49232
G1 X105.269 Y85.924 E8.55282
G1 X106.173 Y85.811 E8.59509
G1 X114.036 Y85.821 E8.95988
G1 X116.193 Y86.266 E9.06206
G1 X117.958 Y86.785 E9.14741
G1 X118.724 Y87.108 E9.18598
G1 X125.163 Y90.808 E9.53051
G1 X126.027 Y91.418 E9.57958
G1 X126.745 Y92.073 E9.62467
G1 X128.247 Y93.591 E9.72374
G1 X129.001 Y94.536 E9.77983
G1 X132.914 Y101.31 E10.14276
G1 X133.274 Y102.21 E10.18773
G1 X133.707 Y103.692 E10.25936
G1 X134.033 Y105.026 E10.32307
G1 X134.195 Y106.247 E10.38021
G1 X134.198 Y113.55 E10.71902
G1 X134.129 Y114.463 E10.7615
G1 X133.656 Y116.497 E10.85838
G1 X132.935 Y118.646 E10.96354
G1 X129.18 Y125.176 E11.313
G1 X128.53 Y126.087 E11.36492
G1 X127.736 Y126.948 E11.41926
G1 X126.485 Y128.178 E11.50065
G1 X125.54 Y128.955 E11.55741
G1 X118.849 Y132.828 E11.91608
G1 X117.968 Y133.212 E11.96067
G1 X116.004 Y133.784 E12.05557
G1 X114.704 Y134.081 E12.11743
G1 X113.536 Y134.201 E12.1719
G1 X106.3 Y134.194 E12.5076
G1 X105.292 Y134.08 E12.55466
G1 X102.441 Y133.344 E12.69126
G1 X101.406 Y132.956 E12.74254
G1 X94.699 Y129.101 E13.10143
G1 X93.977 Y128.58 E13.14274
G1 X93.251 Y127.917 E13.18835
G1 X91.897 Y126.56 E13.27728
G1 X91.048 Y125.537 E13.33895
G1 X87.175 Y118.846 E13.69762
G1 X86.726 Y117.775 E13.7515
G1 X86.292 Y116.28 E13.82372
G1 X85.877 Y114.474 E13.90969
G1 X85.801 Y113.538 E13.95326
G1 X85.801 Y106.462 E14.28153
G1 X85.877 Y105.526 E14.3251
G1 X86.348 Y103.508 E14.42124
G1 X86.998 Y101.512 E14.51863
G1 X90.81 Y94.839 E14.87516
G1 X91.471 Y93.917 E14.92779
G1 X92.187 Y93.141 E14.97677
;WIPE_START
G1 F14400
G1 X93.748 Y91.614 E14.5878
G1 X94.538 Y91.001 E14.40969
G1 X94.698 Y90.909 E14.37677
;WIPE_END
G92 E0
G1 X123.866 Y101.345 F18000
G1 E.6 F2700
;TYPE:Perimeter
;WIDTH:0.568748
G1 F2400
G1 X123.536 Y100.885 E.63031
;WIDTH:0.534374
G1 X123.205 Y100.425 E.65863
;WIDTH:0.499999
G1 X122.735 Y99.797 E.69502
G1 X122.256 Y99.237 E.72921
G1 X121.821 Y98.76 E.75916
G1 X121.251 Y98.179 E.79692
G1 X120.365 Y97.397 E.85174
G1 X119.296 Y96.596 E.91371
;WIDTH:0.545639
G1 X119.055 Y96.408 E.92934
;WIDTH:0.591278
G1 X118.814 Y96.22 E.94642
G1 X118.88 Y96.238 E.95024
;WIDTH:0.575636
G1 X119.235 Y96.342 E.97031
;WIDTH:0.537818
G1 X119.589 Y96.446 E.98888
;WIDTH:0.499999
G1 X120.143 Y96.583 E1.01536
G1 X120.791 Y96.676 E1.04573
G1 X121.444 Y96.704 E1.07605
G1 X122.021 Y96.674 E1.10285
G1 X122.973 Y97.606 E1.16466
G1 X123.318 Y97.979 E1.18823
G1 X123.287 Y98.416 E1.20855
G1 X123.293 Y98.969 E1.23421
G1 X123.369 Y99.639 E1.26549
G1 X123.514 Y100.284 E1.29616
G1 X123.646 Y100.666 E1.31491
;WIDTH:0.534374
G1 X123.756 Y101.005 E1.33272
;WIDTH:0.568748
G1 X123.848 Y101.288 E1.34865
;WIPE_START
G1 F14400
G1 X123.536 Y100.885 E1.25787
G1 X123.205 Y100.425 E1.15692
G1 X122.735 Y99.797 E1.0172
G1 X122.256 Y99.237 E.88594
G1 X121.821 Y98.76 E.77095
G1 X121.733 Y98.671 E.74865
;WIPE_END
G92 E0
G1 X117.632 Y95.54 F18000
G1 E.6 F2700
;WIDTH:0.56557
G1 F2400
G1 X117.563 Y95.511 E.60398
;WIDTH:0.553094
G1 X117.292 Y95.395 E.61928
;WIDTH:0.526547
G1 X117.021 Y95.279 E.63377
;WIDTH:0.499999
G1 X116.543 Y95.051 E.65834
G1 X115.777 Y94.746 E.69659
G1 X115.134 Y94.52 E.72821
G1 X114.409 Y94.29 E.7635
G1 X113.212 Y94.008 E.82055
;WIDTH:0.540175
G1 X113.103 Y93.982 E.82622
;WIDTH:0.580351
G1 X112.994 Y93.955 E.83237
;WIDTH:0.620526
G1 X112.885 Y93.929 E.83897
;WIDTH:0.660702
G1 X112.776 Y93.902 E.84606
;WIDTH:0.700877
G1 X112.667 Y93.876 E.8536
G1 X112.082 Y94.056 E.89477
;WIDTH:0.67752
G1 X112.009 Y94.128 E.90142
;WIDTH:0.63314
G1 X111.935 Y94.2 E.90764
;WIDTH:0.58876
G1 X111.861 Y94.272 E.91338
;WIDTH:0.54438
G1 X111.787 Y94.344 E.91865
;WIDTH:0.499999
G1 X111.424 Y94.777 E.94486
G1 X111.204 Y95.291 E.9708
G1 X110.966 Y95.994 E1.00523
G1 X110.756 Y96.883 E1.04761
G1 X110.623 Y97.787 E1.09
G1 X110.568 Y98.698 E1.13234
G1 X110.592 Y99.611 E1.17471
G1 X110.694 Y100.519 E1.2171
G1 X110.874 Y101.414 E1.25945
G1 X111.13 Y102.291 E1.30183
G1 X111.461 Y103.143 E1.34423
G1 X111.863 Y103.962 E1.38656
G1 X112.335 Y104.745 E1.42897
G1 X112.872 Y105.483 E1.47131
G1 X113.612 Y106.312 E1.52286
G1 X114.126 Y106.809 E1.55603
G1 X114.834 Y107.386 E1.5984
G1 X115.588 Y107.9 E1.64073
G1 X116.385 Y108.348 E1.68315
G1 X117.216 Y108.725 E1.72548
G1 X118.078 Y109.03 E1.7679
G1 X118.962 Y109.259 E1.81026
G1 X119.862 Y109.411 E1.8526
G1 X120.772 Y109.486 E1.89496
G1 X121.686 Y109.481 E1.93736
G1 X122.595 Y109.399 E1.9797
G1 X123.494 Y109.238 E2.02207
G1 X124.381 Y108.999 E2.06469
G1 X125.097 Y108.731 E2.10016
G1 X125.516 Y108.414 E2.12453
;WIDTH:0.540822
G1 X125.619 Y108.324 E2.13146
;WIDTH:0.581644
G1 X125.721 Y108.234 E2.13893
;WIDTH:0.622466
G1 X125.823 Y108.144 E2.14697
;WIDTH:0.663288
G1 X125.925 Y108.054 E2.15559
;WIDTH:0.674562
G1 X126.097 Y107.468 E2.195
G1 X126.077 Y107.34 E2.20336
;WIDTH:0.630922
G1 X126.057 Y107.212 E2.21113
;WIDTH:0.587281
G1 X126.037 Y107.084 E2.21832
;WIDTH:0.54364
G1 X126.018 Y106.956 E2.22491
;WIDTH:0.499999
G1 X125.765 Y105.785 E2.28049
G1 X125.526 Y104.993 E2.31887
G1 X125.035 Y103.655 E2.38499
G1 X124.796 Y103.137 E2.41146
;WIDTH:0.534779
G1 X124.733 Y102.961 E2.42081
;WIDTH:0.569559
G1 X124.67 Y102.785 E2.43083
;WIDTH:0.604339
G1 X124.607 Y102.608 E2.44158
G1 X124.677 Y102.657 E2.44647
;WIDTH:0.581684
G1 X124.888 Y102.866 E2.46277
;WIDTH:0.540842
G1 X125.098 Y103.075 E2.47777
;WIDTH:0.499999
G1 X125.576 Y103.522 E2.50813
G1 X126.097 Y103.918 E2.53849
G1 X126.556 Y104.204 E2.56358
G1 X127.069 Y104.461 E2.5902
G1 X127.319 Y105.311 E2.6313
G1 X127.55 Y106.251 E2.67621
G1 X127.292 Y106.615 E2.69691
G1 X126.98 Y107.19 E2.72726
;WIDTH:0.540723
G1 X126.897 Y107.335 E2.73572
;WIDTH:0.581447
G1 X126.815 Y107.479 E2.74481
;WIDTH:0.622171
G1 X126.732 Y107.624 E2.75468
;WIDTH:0.662895
G1 X126.649 Y107.769 E2.76526
;WIDTH:0.663288
G1 X126.487 Y108.285 E2.79953
G1 X126.487 Y108.347 E2.80346
;WIDTH:0.632233
G1 X126.487 Y108.409 E2.80719
;WIDTH:0.601178
G1 X126.459 Y108.652 E2.82111
;WIDTH:0.567452
G1 X126.431 Y108.895 E2.83417
;WIDTH:0.533726
G1 X126.403 Y109.138 E2.84638
;WIDTH:0.499999
G1 X126.35 Y109.742 E2.87451
G1 X126.356 Y110.4 E2.90504
G1 X126.441 Y111.106 E2.93803
;WIDTH:0.545486
G1 X126.456 Y111.256 E2.94574
;WIDTH:0.590972
G1 X126.471 Y111.406 E2.95416
;WIDTH:0.636458
G1 X126.486 Y111.555 E2.96323
;WIDTH:0.681944
G1 X126.502 Y111.705 E2.97308
G1 X126.639 Y112.171 E3.0048
;WIDTH:0.650011
G1 X126.697 Y112.272 E3.01202
;WIDTH:0.614299
G1 X126.754 Y112.373 E3.01878
;WIDTH:0.578587
G1 X126.812 Y112.474 E3.02513
;WIDTH:0.542874
G1 X127.12 Y113.075 E3.05947
;WIDTH:0.499999
G1 X127.549 Y113.753 E3.09669
G1 X127.319 Y114.689 E3.14141
G1 X127.066 Y115.547 E3.18291
G1 X126.556 Y115.796 E3.20924
G1 X126.004 Y116.147 E3.23959
G1 X125.419 Y116.619 E3.27446
G1 X125.02 Y117.006 E3.30025
;WIDTH:0.536449
G1 X124.887 Y117.13 E3.30937
;WIDTH:0.572899
G1 X124.755 Y117.255 E3.31918
;WIDTH:0.609348
G1 X124.622 Y117.379 E3.32968
G1 X124.638 Y117.317 E3.33338
;WIDTH:0.591237
G1 X124.744 Y117.032 E3.35037
;WIDTH:0.545618
G1 X124.85 Y116.747 E3.36592
;WIDTH:0.499999
G1 X125.116 Y116.138 E3.39675
G1 X125.462 Y115.219 E3.44231
G1 X125.785 Y114.14 E3.49456
G1 X126.034 Y112.946 E3.55114
;WIDTH:0.538878
G1 X126.045 Y112.808 E3.55812
;WIDTH:0.577757
G1 X126.056 Y112.67 E3.56566
;WIDTH:0.616636
G1 X126.067 Y112.533 E3.5737
;WIDTH:0.655515
G1 X126.078 Y112.395 E3.58236
;WIDTH:0.681944
G1 X125.929 Y111.947 E3.61319
G1 X125.807 Y111.835 E3.62401
;WIDTH:0.636458
G1 X125.686 Y111.723 E3.634
;WIDTH:0.590972
G1 X125.564 Y111.611 E3.64325
;WIDTH:0.545486
G1 X125.442 Y111.499 E3.65172
;WIDTH:0.499999
G1 X124.98 Y111.219 E3.67678
G1 X124.284 Y110.97 E3.71107
G1 X123.401 Y110.741 E3.75339
G1 X122.5 Y110.589 E3.79578
G1 X121.59 Y110.514 E3.83814
G1 X120.677 Y110.519 E3.8805
G1 X119.767 Y110.601 E3.92289
G1 X118.868 Y110.762 E3.96526
G1 X117.986 Y110.999 E4.00763
G1 X117.128 Y111.311 E4.04998
G1 X116.299 Y111.696 E4.09238
G1 X115.507 Y112.15 E4.13473
G1 X114.757 Y112.671 E4.1771
G1 X114.054 Y113.255 E4.2195
G1 X113.355 Y113.954 E4.26536
G1 X112.771 Y114.649 E4.30747
G1 X112.248 Y115.393 E4.34966
G1 X111.79 Y116.179 E4.39186
G1 X111.4 Y117.003 E4.43415
G1 X111.083 Y117.857 E4.47641
G1 X110.84 Y118.736 E4.51872
G1 X110.673 Y119.633 E4.56105
G1 X110.584 Y120.542 E4.60342
G1 X110.574 Y121.455 E4.64578
G1 X110.642 Y122.366 E4.68816
G1 X110.788 Y123.268 E4.73055
G1 X110.993 Y124.1 E4.7703
G1 X111.203 Y124.725 E4.80089
G1 X111.372 Y125.1 E4.81997
G1 X111.682 Y125.564 E4.84586
;WIDTH:0.54347
G1 X111.784 Y125.661 E4.85303
;WIDTH:0.58694
G1 X111.885 Y125.758 E4.86079
;WIDTH:0.63041
G1 X111.987 Y125.856 E4.86927
;WIDTH:0.67388
G1 X112.089 Y125.953 E4.87834
;WIDTH:0.676194
G1 X112.432 Y126.068 E4.90175
G1 X112.664 Y126.092 E4.91684
;WIDTH:0.630774
G1 X112.841 Y126.059 E4.92764
;WIDTH:0.587183
G1 X113.019 Y126.026 E4.93768
;WIDTH:0.543591
G1 X113.196 Y125.994 E4.94684
;WIDTH:0.499999
G1 X114.489 Y125.688 E5.00848
G1 X115.299 Y125.427 E5.04796
G1 X116.606 Y124.921 E5.11298
G1 X117.132 Y124.667 E5.14008
;WIDTH:0.535488
G1 X117.368 Y124.573 E5.1528
;WIDTH:0.570976
G1 X117.604 Y124.479 E5.16646
G1 X117.573 Y124.507 E5.16871
;WIDTH:0.563519
G1 X117.356 Y124.699 E5.18407
;WIDTH:0.531759
G1 X117.139 Y124.891 E5.19847
;WIDTH:0.499999
G1 X116.668 Y125.346 E5.22885
G1 X116.247 Y125.846 E5.25917
G1 X115.878 Y126.386 E5.28951
G1 X115.516 Y127.076 E5.32566
G1 X114.418 Y127.388 E5.37862
G1 X113.75 Y127.541 E5.41041
G1 X112.75 Y126.969 E5.46386
;WIDTH:0.546616
G1 X112.663 Y126.905 E5.46939
;WIDTH:0.593233
G1 X112.576 Y126.842 E5.47541
;WIDTH:0.63985
G1 X112.488 Y126.778 E5.48204
;WIDTH:0.686466
G1 X112.401 Y126.715 E5.48911
G1 X111.887 Y126.537 E5.52489
;WIDTH:0.67388
G1 X111.791 Y126.534 E5.53108
;WIDTH:0.632877
G1 X111.696 Y126.53 E5.5368
;WIDTH:0.591873
G1 X111.6 Y126.527 E5.54217
;WIDTH:0.550869
G1 X111.504 Y126.523 E5.54714
;WIDTH:0.509865
G1 X111.23 Y126.463 E5.56044
;WIDTH:0.499999
G1 X110.468 Y126.364 E5.59609
G1 X109.932 Y126.342 E5.62098
G1 X109.276 Y126.381 E5.65147
G1 X108.741 Y126.463 E5.67658
;WIDTH:0.535686
G1 X108.561 Y126.489 E5.68569
;WIDTH:0.571372
G1 X108.381 Y126.515 E5.69548
;WIDTH:0.607058
G1 X108.202 Y126.541 E5.70588
;WIDTH:0.653562
G1 X107.743 Y126.668 E5.73558
G1 X107.654 Y126.723 E5.7421
;WIDTH:0.615172
G1 X107.565 Y126.778 E5.74821
;WIDTH:0.576781
G1 X107.476 Y126.833 E5.7539
;WIDTH:0.53839
G1 X107.387 Y126.888 E5.75917
;WIDTH:0.499999
G1 X106.802 Y127.181 E5.78952
G1 X106.241 Y127.539 E5.82039
G1 X105.588 Y127.389 E5.85147
G1 X104.467 Y127.069 E5.90555
G1 X104.327 Y126.781 E5.92041
G1 X104.038 Y126.273 E5.94752
G1 X103.66 Y125.739 E5.97787
G1 X103.229 Y125.247 E6.00821
G1 X102.837 Y124.874 E6.03331
;WIDTH:0.537796
G1 X102.619 Y124.677 E6.0481
;WIDTH:0.575592
G1 X102.4 Y124.481 E6.06404
G1 X102.439 Y124.496 E6.06631
;WIDTH:0.567612
G1 X102.696 Y124.601 E6.08114
;WIDTH:0.533806
G1 X102.953 Y124.706 E6.095
;WIDTH:0.499999
G1 X103.473 Y124.953 E6.12171
G1 X104.196 Y125.241 E6.15782
G1 X104.837 Y125.469 E6.18938
G1 X105.59 Y125.709 E6.22605
G1 X106.782 Y125.988 E6.28284
;WIDTH:0.53839
G1 X106.983 Y126.014 E6.29305
;WIDTH:0.576781
G1 X107.183 Y126.04 E6.30402
;WIDTH:0.615172
G1 X107.384 Y126.066 E6.31585
;WIDTH:0.653562
G1 X107.585 Y126.092 E6.32849
G1 X107.772 Y126.036 E6.34066
;WIDTH:0.642373
G1 X107.953 Y125.932 E6.35343
;WIDTH:0.607058
G1 X108.087 Y125.828 E6.36319
;WIDTH:0.571372
G1 X108.22 Y125.723 E6.37231
;WIDTH:0.535686
G1 X108.354 Y125.618 E6.38084
;WIDTH:0.499999
G1 X108.655 Y125.216 E6.40414
G1 X108.879 Y124.727 E6.42909
G1 X109.11 Y124.006 E6.46421
G1 X109.315 Y123.117 E6.50654
G1 X109.443 Y122.213 E6.5489
G1 X109.493 Y121.302 E6.59123
G1 X109.464 Y120.389 E6.63361
G1 X109.357 Y119.481 E6.67603
G1 X109.172 Y118.586 E6.71843
G1 X108.91 Y117.709 E6.76089
G1 X108.574 Y116.857 E6.80338
G1 X108.165 Y116.038 E6.84585
G1 X107.687 Y115.255 E6.88841
G1 X107.142 Y114.517 E6.93097
G1 X106.392 Y113.688 E6.98283
G1 X105.937 Y113.248 E7.01219
G1 X105.229 Y112.671 E7.05456
G1 X104.474 Y112.157 E7.09693
G1 X103.678 Y111.71 E7.13928
G1 X102.846 Y111.332 E7.18168
G1 X101.985 Y111.028 E7.22404
G1 X101.101 Y110.799 E7.2664
G1 X100.2 Y110.646 E7.3088
G1 X99.29 Y110.572 E7.35116
G1 X98.377 Y110.576 E7.39352
G1 X97.467 Y110.659 E7.43591
G1 X96.571 Y110.818 E7.47813
G1 X95.67 Y111.062 E7.52144
G1 X94.991 Y111.318 E7.55511
G1 X94.558 Y111.599 E7.57906
;WIDTH:0.548195
G1 X94.447 Y111.684 E7.58625
;WIDTH:0.596391
G1 X94.336 Y111.77 E7.59417
;WIDTH:0.644587
G1 X94.224 Y111.856 E7.60284
;WIDTH:0.692782
G1 X94.113 Y111.941 E7.61213
G1 X93.923 Y112.498 E7.65123
;WIDTH:0.661953
G1 X93.943 Y112.655 E7.66124
;WIDTH:0.621465
G1 X93.963 Y112.811 E7.67052
;WIDTH:0.580976
G1 X93.983 Y112.968 E7.67919
;WIDTH:0.540488
G1 X94.003 Y113.125 E7.6872
;WIDTH:0.499999
G1 X94.24 Y114.215 E7.73895
G1 X94.469 Y114.972 E7.77564
G1 X94.97 Y116.345 E7.84345
G1 X95.194 Y116.832 E7.86832
;WIDTH:0.536482
G1 X95.262 Y117.019 E7.87831
;WIDTH:0.572964
G1 X95.329 Y117.206 E7.88903
;WIDTH:0.609446
G1 X95.396 Y117.393 E7.90051
G1 X95.335 Y117.338 E7.90525
;WIDTH:0.5871
G1 X95.113 Y117.116 E7.92266
;WIDTH:0.54355
G1 X94.89 Y116.895 E7.93865
;WIDTH:0.499999
G1 X94.412 Y116.448 E7.96901
G1 X93.889 Y116.051 E7.99947
G1 X93.432 Y115.766 E8.02446
G1 X92.928 Y115.513 E8.05062
G1 X92.686 Y114.69 E8.09042
G1 X92.454 Y113.74 E8.13579
G1 X92.713 Y113.351 E8.15747
G1 X93.025 Y112.776 E8.18782
;WIDTH:0.540488
