; generated by PrusaSlicer 2.6.0-alpha5+win64 on 2023-03-15 at 19:15:38 UTC

; 

; external perimeters extrusion width = 0.50mm
; perimeters extrusion width = 0.50mm
; infill extrusion width = 0.50mm
; solid infill extrusion width = 0.50mm
; top infill extrusion width = 0.50mm
; first layer extrusion width = 0.50mm

M107
M190 S60 ; set bed temperature and wait for it to be reached
M104 S215 ; set temperature
;TYPE:Custom
SET_GCODE_VARIABLE MACRO=START_PRINT VARIABLE=bed_temp VALUE=60
SET_GCODE_VARIABLE MACRO=START_PRINT VARIABLE=extruder_temp VALUE=215
START_PRINT
M109 S215 ; set temperature and wait for it to be reached
G21 ; set units to millimeters
G90 ; use absolute coordinates
M82 ; use absolute distances for extrusion
G92 E0
; Filament gcode
M107
;LAYER_CHANGE
;Z:0.2
;HEIGHT:0.2
;BEFORE_LAYER_CHANGE
;0.2


G1 Z.2 F18000
;AFTER_LAYER_CHANGE
;0.2
G1 E-.5 F2700
G92 E0
G1 Z.4 F18000
G1 X86.447 Y86.047
G1 Z.2
G1 E.5 F2700
;TYPE:Skirt/Brim
;WIDTH:0.5
G1 F3600
G1 X87.087 Y85.493 E.53217
G1 X88.254 Y84.695 E.5859
G1 X90.057 Y83.871 E.66124
G1 X91.424 Y83.512 E.71496
G1 X92.259 Y83.392 E.74702
G1 X93.25 Y83.336 E.78474
G1 X127.171 Y83.351 E2.07395
G1 X128.574 Y83.512 E2.12762
G1 X129.943 Y83.871 E2.18141
G1 X131.745 Y84.694 E2.2567
G1 X132.912 Y85.492 E2.31043
G1 X133.954 Y86.449 E2.3642
G1 X134.849 Y87.544 E2.41795
G1 X135.305 Y88.254 E2.45002
G1 X136.128 Y90.056 E2.52531
G1 X136.487 Y91.422 E2.57899
G1 X136.664 Y93.25 E2.64879
G1 X136.649 Y127.171 E3.938
G1 X136.488 Y128.576 E3.99175
G1 X136.129 Y129.943 E4.04547
G1 X135.579 Y131.246 E4.09922
G1 X134.507 Y132.913 E4.17455
G1 X133.954 Y133.551 E4.20664
G1 X132.913 Y134.507 E4.26036
G1 X131.246 Y135.579 E4.33569
G1 X130.478 Y135.929 E4.36777
G1 X129.134 Y136.366 E4.42148
G1 X127.741 Y136.608 E4.47522
G1 X126.75 Y136.664 E4.51294
G1 X92.829 Y136.649 E5.80215
G1 X91.424 Y136.488 E5.8559
G1 X90.057 Y136.129 E5.90962
G1 X88.754 Y135.579 E5.96337
G1 X87.087 Y134.507 E6.0387
G1 X86.046 Y133.552 E6.09239
G1 X85.493 Y132.913 E6.12451
G1 X84.422 Y131.247 E6.19978
G1 X83.872 Y129.945 E6.2535
G1 X83.634 Y129.135 E6.28559
G1 X83.392 Y127.742 E6.33933
G1 X83.336 Y126.75 E6.37709
G1 X83.351 Y92.829 E7.6663
G1 X83.512 Y91.424 E7.72005
G1 X84.069 Y89.526 E7.79523
G1 X84.693 Y88.256 E7.84901
G1 X85.492 Y87.088 E7.90279
G1 X86.407 Y86.092 E7.95419
G1 X86.743 Y86.401 F18000
G1 F3600
G1 X87.361 Y85.859 E7.98543
G1 X88.473 Y85.096 E8.03669
G1 X90.217 Y84.3 E8.10955
G1 X91.521 Y83.959 E8.16078
G1 X92.292 Y83.848 E8.19039
G1 X93.25 Y83.793 E8.22686
G1 X127.139 Y83.807 E9.51486
G1 X129.036 Y84.08 E9.5877
G1 X130.318 Y84.499 E9.63896
G1 X131.526 Y85.095 E9.69016
G1 X132.181 Y85.516 E9.71975
G1 X133.228 Y86.369 E9.77108
G1 X134.141 Y87.361 E9.82232
G1 X135.177 Y88.973 E9.89515
G1 X135.7 Y90.216 E9.9464
G1 X135.92 Y90.964 E9.97603
G1 X136.151 Y92.286 E10.02704
G1 X136.207 Y93.25 E10.06374
G1 X136.193 Y127.139 E11.35174
G1 X136.041 Y128.479 E11.403
G1 X135.7 Y129.783 E11.45423
G1 X135.178 Y131.026 E11.50547
G1 X134.141 Y132.639 E11.57835
G1 X133.631 Y133.228 E11.60796
G1 X132.639 Y134.141 E11.6592
G1 X131.026 Y135.178 E11.73208
G1 X130.318 Y135.501 E11.76166
G1 X129.036 Y135.92 E11.81292
G1 X127.708 Y136.152 E11.86416
G1 X126.75 Y136.207 E11.90063
G1 X92.861 Y136.193 E13.18863
G1 X91.521 Y136.041 E13.23989
G1 X90.217 Y135.7 E13.29112
G1 X88.974 Y135.178 E13.34236
G1 X87.361 Y134.142 E13.41522
G1 X86.369 Y133.228 E13.46649
G1 X85.859 Y132.639 E13.4961
G1 X84.823 Y131.028 E13.5689
G1 X84.3 Y129.785 E13.62015
G1 X84.081 Y129.038 E13.64974
G1 X83.848 Y127.709 E13.70102
G1 X83.793 Y126.75 E13.73753
G1 X83.807 Y92.861 E15.02553
G1 X83.959 Y91.521 E15.07679
G1 X84.497 Y89.686 E15.14947
G1 X85.095 Y88.475 E15.2008
G1 X85.858 Y87.362 E15.25209
G1 X86.702 Y86.445 E15.29946
;WIPE_START
G1 F14400
G1 X87.361 Y85.859 E15.14238
G1 X88.473 Y85.096 E14.90216
G1 X88.998 Y84.857 E14.79946
;WIPE_END
G92 E0
G1 Z.4 F18000
G1 X90.734 Y90.478
G1 Z.2
G1 E.5 F2700
;TYPE:External perimeter
;WIDTH:0.499999
G1 F3600
G1 X91.223 Y90.096 E.52358
G1 X91.693 Y89.84 E.54392
G1 X92.194 Y89.653 E.56424
G1 X92.717 Y89.539 E.58458
G1 X93.259 Y89.501 E.60523
G1 X126.742 Y89.501 E1.87779
G1 X127.283 Y89.539 E1.8984
G1 X127.806 Y89.653 E1.91874
G1 X128.306 Y89.84 E1.93903
G1 X128.777 Y90.096 E1.9594
G1 X129.205 Y90.417 E1.97973
G1 X129.583 Y90.795 E2.00005
G1 X129.904 Y91.223 E2.02038
G1 X130.16 Y91.693 E2.04072
G1 X130.347 Y92.194 E2.06104
G1 X130.461 Y92.717 E2.08138
G1 X130.5 Y93.399 E2.10734
G1 X130.5 Y126.741 E3.37455
G1 X130.461 Y127.283 E3.3952
G1 X130.347 Y127.806 E3.41554
G1 X130.16 Y128.307 E3.43586
G1 X129.904 Y128.777 E3.4562
G1 X129.583 Y129.205 E3.47653
G1 X129.205 Y129.583 E3.49685
G1 X128.777 Y129.904 E3.51718
G1 X128.307 Y130.16 E3.53752
G1 X127.806 Y130.347 E3.55784
G1 X127.283 Y130.461 E3.57818
G1 X126.741 Y130.499 E3.59883
G1 X93.259 Y130.5 E4.87136
G1 X92.717 Y130.461 E4.89201
G1 X92.194 Y130.347 E4.91235
G1 X91.693 Y130.16 E4.93267
G1 X91.223 Y129.904 E4.95301
G1 X90.795 Y129.583 E4.97334
G1 X90.417 Y129.205 E4.99366
G1 X90.097 Y128.777 E5.01397
G1 X89.84 Y128.307 E5.03433
G1 X89.653 Y127.806 E5.05465
G1 X89.539 Y127.284 E5.07496
G1 X89.501 Y126.741 E5.09565
G1 X89.501 Y93.259 E6.36818
G1 X89.539 Y92.717 E6.38883
G1 X89.653 Y92.194 E6.40917
G1 X89.84 Y91.693 E6.42949
G1 X90.096 Y91.223 E6.44983
G1 X90.417 Y90.795 E6.47016
G1 X90.692 Y90.521 E6.48491
;WIPE_START
G1 F14400
G1 X91.223 Y90.096 E6.36376
G1 X91.693 Y89.84 E6.26843
G1 X92.194 Y89.653 E6.17318
G1 X92.717 Y89.539 E6.07783
G1 X93.237 Y89.503 E5.98491
;WIPE_END
G92 E0
G1 Z.4 F18000
G1 X130.015 Y91.713
G1 Z.2
G1 E.5 F2700
;TYPE:Solid infill
;WIDTH:0.50196
G1 F3600
G1 X128.974 Y90.672 E.55619
G1 X128.591 Y90.385 E.57446
G1 X128.164 Y90.152 E.59303
G1 X127.615 Y89.962 E.6152
G1 X130.038 Y92.385 E.74599
G1 X130.121 Y92.766 E.76087
G1 X130.148 Y93.144 E.77533
G1 X126.856 Y89.852 E.95303
G1 X126.198 Y89.843 E.97815
G1 X130.157 Y93.803 E1.19188
G1 X130.157 Y94.452 E1.21665
G1 X125.548 Y89.843 E1.46544
G1 X124.899 Y89.843 E1.49021
G1 X130.157 Y95.101 E1.77403
G1 X130.157 Y95.75 E1.7988
G1 X124.25 Y89.843 E2.11766
G1 X123.601 Y89.843 E2.14243
G1 X130.157 Y96.399 E2.49632
G1 X130.157 Y97.049 E2.52113
G1 X122.952 Y89.843 E2.91008
G1 X122.302 Y89.843 E2.93489
G1 X130.157 Y97.698 E3.3589
G1 X130.157 Y98.347 E3.38367
G1 X121.653 Y89.843 E3.84271
G1 X121.004 Y89.843 E3.86748
G1 X130.157 Y98.996 E4.36156
G1 X130.157 Y99.645 E4.38633
G1 X120.355 Y89.843 E4.91544
G1 X119.706 Y89.843 E4.94021
G1 X130.157 Y100.294 E5.50435
G1 X130.157 Y100.944 E5.52916
G1 X119.057 Y89.843 E6.12836
G1 X118.407 Y89.843 E6.15317
G1 X130.157 Y101.593 E6.78743
G1 X130.157 Y102.242 E6.8122
G1 X117.758 Y89.843 E7.48149
G1 X117.109 Y89.843 E7.50626
G1 X130.157 Y102.891 E8.21059
G1 X130.157 Y103.54 E8.23536
G1 X116.46 Y89.843 E8.97472
G1 X115.811 Y89.843 E8.99949
G1 X130.157 Y104.189 E9.77388
G1 X130.157 Y104.839 E9.79869
G1 X115.161 Y89.843 E10.60817
G1 X114.512 Y89.843 E10.63294
G1 X130.157 Y105.488 E11.47745
G1 X130.157 Y106.137 E11.50222
G1 X113.863 Y89.843 E12.38176
G1 X113.214 Y89.843 E12.40653
G1 X130.157 Y106.786 E13.32111
G1 X130.157 Y107.435 E13.34588
G1 X112.565 Y89.843 E14.29549
G1 X111.915 Y89.843 E14.3203
G1 X130.157 Y108.085 E15.305
G1 X130.157 Y108.734 E15.32977
G1 X111.266 Y89.843 E16.3495
G1 X110.617 Y89.843 E16.37427
G1 X130.157 Y109.383 E17.42903
G1 X130.157 Y110.032 E17.4538
G1 X109.968 Y89.843 E18.54359
G1 X109.319 Y89.843 E18.56836
G1 X130.157 Y110.681 E19.69319
G1 X130.157 Y111.33 E19.71796
G1 X108.67 Y89.843 E20.87782
G1 X108.02 Y89.843 E20.90263
G1 X130.157 Y111.98 E22.09758
G1 X130.157 Y112.629 E22.12235
G1 X107.371 Y89.843 E23.35233
G1 X106.722 Y89.843 E23.3771
G1 X130.157 Y113.278 E24.64211
G1 X130.157 Y113.927 E24.66688
G1 X106.073 Y89.843 E25.96692
G1 X105.424 Y89.843 E25.99169
G1 X130.157 Y114.576 E27.32677
G1 X130.157 Y115.226 E27.35158
G1 X104.774 Y89.843 E28.72174
G1 X104.125 Y89.843 E28.74651
G1 X130.157 Y115.875 E30.15171
G1 X130.157 Y116.524 E30.17648
G1 X103.476 Y89.843 E31.61671
G1 X102.827 Y89.843 E31.64148
G1 X130.157 Y117.173 E33.11674
G1 X130.157 Y117.822 E33.14151
G1 X102.178 Y89.843 E34.6518
G1 X101.529 Y89.843 E34.67657
G1 X130.157 Y118.471 E36.2219
G1 X130.157 Y119.121 E36.24671
G1 X100.879 Y89.843 E37.82712
G1 X100.23 Y89.843 E37.85189
G1 X130.157 Y119.77 E39.46734
G1 X130.157 Y120.419 E39.49211
G1 X99.581 Y89.843 E41.14259
G1 X98.932 Y89.843 E41.16736
G1 X130.157 Y121.068 E42.85287
G1 X130.157 Y121.717 E42.87764
G1 X98.283 Y89.843 E44.59819
G1 X97.633 Y89.843 E44.623
G1 X130.157 Y122.367 E46.37863
G1 X130.157 Y123.016 E46.4034
G1 X96.984 Y89.843 E48.19406
G1 X96.335 Y89.843 E48.21883
G1 X130.157 Y123.665 E50.04453
G1 X130.157 Y124.314 E50.0693
G1 X95.686 Y89.843 E51.93003
G1 X95.037 Y89.843 E51.9548
G1 X130.157 Y124.963 E53.85056
G1 X130.157 Y125.612 E53.87533
G1 X94.388 Y89.843 E55.80613
G1 X93.738 Y89.843 E55.83094
G1 X130.157 Y126.262 E57.79682
G1 X130.145 Y126.899 E57.82114
G1 X93.101 Y89.855 E59.82076
G1 X92.766 Y89.879 E59.83358
G1 X92.528 Y89.931 E59.84288
G1 X130.069 Y127.472 E61.86933
G1 X130.017 Y127.709 E61.87859
G1 X129.919 Y127.972 E61.8893
G1 X92.028 Y90.081 E63.93464
G1 X91.836 Y90.153 E63.94247
G1 X91.587 Y90.288 E63.95328
G1 X129.712 Y128.413 E66.01125
G1 X129.615 Y128.591 E66.01899
G1 X129.454 Y128.805 E66.02921
G1 X91.195 Y90.546 E68.09441
G1 X91.021 Y90.676 E68.1027
G1 X90.848 Y90.849 E68.11204
G1 X129.152 Y129.152 E70.17965
G1 X128.98 Y129.323 E70.18891
G1 X128.805 Y129.454 E70.19725
G1 X90.546 Y91.195 E72.26245
G1 X90.385 Y91.409 E72.27267
G1 X90.288 Y91.587 E72.28041
G1 X128.413 Y129.712 E74.33838
G1 X128.164 Y129.847 E74.34919
G1 X127.972 Y129.919 E74.35702
G1 X90.081 Y92.028 E76.40236
G1 X89.983 Y92.29 E76.41304
G1 X89.931 Y92.528 E76.42234
G1 X127.472 Y130.069 E78.44879
G1 X127.234 Y130.121 E78.45809
G1 X126.899 Y130.145 E78.47091
G1 X89.855 Y93.101 E80.47053
G1 X89.843 Y93.738 E80.49485
G1 X126.262 Y130.157 E82.46073
G1 X125.612 Y130.157 E82.48554
G1 X89.843 Y94.388 E84.41634
G1 X89.843 Y95.037 E84.44111
G1 X124.963 Y130.157 E86.33687
G1 X124.314 Y130.157 E86.36164
G1 X89.843 Y95.686 E88.22237
G1 X89.843 Y96.335 E88.24714
G1 X123.665 Y130.157 E90.07284
G1 X123.016 Y130.157 E90.09761
G1 X89.843 Y96.984 E91.88827
G1 X89.843 Y97.634 E91.91308
G1 X122.366 Y130.157 E93.66866
G1 X121.717 Y130.157 E93.69343
G1 X89.843 Y98.283 E95.41398
G1 X89.843 Y98.932 E95.43875
G1 X121.068 Y130.157 E97.12426
G1 X120.419 Y130.157 E97.14903
G1 X89.843 Y99.581 E98.79951
G1 X89.843 Y100.23 E98.82428
G1 X119.77 Y130.157 E100.43973
G1 X119.121 Y130.157 E100.4645
G1 X89.843 Y100.879 E102.04491
G1 X89.843 Y101.529 E102.06972
G1 X118.471 Y130.157 E103.61505
G1 X117.822 Y130.157 E103.63982
G1 X89.843 Y102.178 E105.15011
G1 X89.843 Y102.827 E105.17488
G1 X117.173 Y130.157 E106.65014
G1 X116.524 Y130.157 E106.67491
G1 X89.843 Y103.476 E108.11514
G1 X89.843 Y104.125 E108.13991
G1 X115.875 Y130.157 E109.54511
G1 X115.226 Y130.157 E109.56988
G1 X89.843 Y104.774 E110.94004
G1 X89.843 Y105.424 E110.96485
G1 X114.576 Y130.157 E112.29993
G1 X113.927 Y130.157 E112.3247
G1 X89.843 Y106.073 E113.62474
G1 X89.843 Y106.722 E113.64951
G1 X113.278 Y130.157 E114.91452
G1 X112.629 Y130.157 E114.93929
G1 X89.843 Y107.371 E116.16927
G1 X89.843 Y108.02 E116.19404
G1 X111.98 Y130.157 E117.38899
G1 X111.33 Y130.157 E117.4138
G1 X89.843 Y108.67 E118.57366
G1 X89.843 Y109.319 E118.59843
G1 X110.681 Y130.157 E119.72326
G1 X110.032 Y130.157 E119.74803
G1 X89.843 Y109.968 E120.83782
G1 X89.843 Y110.617 E120.86259
G1 X109.383 Y130.157 E121.91735
G1 X108.734 Y130.157 E121.94212
G1 X89.843 Y111.266 E122.96185
G1 X89.843 Y111.915 E122.98662
G1 X108.085 Y130.157 E123.97132
G1 X107.435 Y130.157 E123.99613
G1 X89.843 Y112.565 E124.94574
G1 X89.843 Y113.214 E124.97051
G1 X106.786 Y130.157 E125.88509
G1 X106.137 Y130.157 E125.90986
G1 X89.843 Y113.863 E126.7894
G1 X89.843 Y114.512 E126.81417
G1 X105.488 Y130.157 E127.65868
G1 X104.839 Y130.157 E127.68345
G1 X89.843 Y115.161 E128.49293
G1 X89.843 Y115.811 E128.51774
G1 X104.189 Y130.157 E129.29213
G1 X103.54 Y130.157 E129.3169
G1 X89.843 Y116.46 E130.05626
G1 X89.843 Y117.109 E130.08103
G1 X102.891 Y130.157 E130.78536
G1 X102.242 Y130.157 E130.81013
G1 X89.843 Y117.758 E131.47942
G1 X89.843 Y118.407 E131.50419
G1 X101.593 Y130.157 E132.13845
G1 X100.944 Y130.157 E132.16322
G1 X89.843 Y119.056 E132.76245
G1 X89.843 Y119.706 E132.78726
G1 X100.294 Y130.157 E133.3514
G1 X99.645 Y130.157 E133.37617
G1 X89.843 Y120.355 E133.90528
G1 X89.843 Y121.004 E133.93005
G1 X98.996 Y130.157 E134.42413
G1 X98.347 Y130.157 E134.4489
G1 X89.843 Y121.653 E134.90794
G1 X89.843 Y122.302 E134.93271
G1 X97.698 Y130.157 E135.35672
G1 X97.048 Y130.157 E135.38153
G1 X89.843 Y122.952 E135.77045
G1 X89.843 Y123.601 E135.79522
G1 X96.399 Y130.157 E136.14911
G1 X95.75 Y130.157 E136.17388
G1 X89.843 Y124.25 E136.49274
G1 X89.843 Y124.899 E136.51751
G1 X95.101 Y130.157 E136.80133
G1 X94.452 Y130.157 E136.8261
G1 X89.843 Y125.548 E137.07489
G1 X89.843 Y126.197 E137.09966
G1 X93.803 Y130.157 E137.31342
G1 X93.144 Y130.148 E137.33858
G1 X89.852 Y126.856 E137.51628
G1 X89.88 Y127.235 E137.53079
G1 X89.962 Y127.615 E137.54563
G1 X92.385 Y130.038 E137.67642
G1 X91.836 Y129.847 E137.69861
G1 X91.409 Y129.615 E137.71716
G1 X91.026 Y129.328 E137.73543
G1 X89.985 Y128.287 E137.79162
M106 S255
;LAYER_CHANGE
;Z:0.4
;HEIGHT:0.2
;BEFORE_LAYER_CHANGE
;0.4


G1 Z.4 F18000
;AFTER_LAYER_CHANGE
;0.4
G1 X89.865 Y128.353
;TYPE:External perimeter
;WIDTH:0.499999
G1 F7499.863
G1 X89.653 Y127.806 E137.81392
G1 X89.539 Y127.283 E137.83426
G1 X89.501 Y126.741 E137.85491
G1 F7500
G1 X89.501 Y93.259 E139.12744
G1 X89.539 Y92.717 E139.14809
G1 F7499.956
G1 X89.653 Y92.194 E139.16843
G1 X89.841 Y91.691 E139.18884
G1 F7500
G1 X90.096 Y91.223 E139.2091
G1 F7499.939
G1 X90.417 Y90.795 E139.22943
G1 X90.797 Y90.416 E139.24983
G1 F7500
G1 X91.223 Y90.096 E139.27008
G1 F7499.979
G1 X91.693 Y89.84 E139.29042
G1 X92.196 Y89.653 E139.31082
G1 X92.717 Y89.539 E139.33109
G1 X93.259 Y89.501 E139.35174
G1 F7500
G1 X126.746 Y89.501 E140.62446
G1 F7499.908
G1 X127.283 Y89.539 E140.64492
G1 X127.806 Y89.653 E140.66526
G1 X128.307 Y89.84 E140.68558
G1 F7500
G1 X128.777 Y90.096 E140.70592
G1 F7499.939
G1 X129.205 Y90.417 E140.72625
G1 X129.583 Y90.795 E140.74657
G1 F7500
G1 X129.904 Y91.223 E140.7669
G1 F7499.978
G1 X130.16 Y91.693 E140.78724
G1 X130.347 Y92.194 E140.80756
G1 X130.461 Y92.717 E140.8279
G1 X130.5 Y93.399 E140.85386
G1 X130.5 Y93.899 E140.87286
G1 X130.5 Y126.241 E142.10206
G1 X130.5 Y126.741 E142.12106
G1 X130.461 Y127.283 E142.14171
G1 X130.347 Y127.806 E142.16205
G1 X130.16 Y128.307 E142.18237
G1 X129.904 Y128.777 E142.20271
G1 X129.583 Y129.205 E142.22304
G1 X129.205 Y129.583 E142.24336
G1 X128.777 Y129.904 E142.26369
G1 F7500
G1 X128.307 Y130.16 E142.28403
G1 F7499.896
G1 X127.806 Y130.347 E142.30435
G1 X127.283 Y130.461 E142.32469
G1 X126.741 Y130.499 E142.34534
G1 F7500
G1 X126.241 Y130.499 E142.36434
G1 X93.759 Y130.5 E143.59886
G1 F7499.93
G1 X93.259 Y130.5 E143.61786
G1 X92.717 Y130.461 E143.63851
G1 X92.194 Y130.347 E143.65885
G1 X91.693 Y130.16 E143.67917
G1 X91.223 Y129.904 E143.69951
G1 F7500
G1 X90.795 Y129.583 E143.71984
G1 X90.417 Y129.205 E143.74016
G1 X90.096 Y128.777 E143.76049
G1 X89.894 Y128.405 E143.77658
;WIPE_START
G1 F14400
G1 X89.653 Y127.806 E143.66157
G1 X89.539 Y127.283 E143.56622
G1 X89.501 Y126.741 E143.46944
G1 X89.501 Y125.658 E143.27658
;WIPE_END
G92 E0
G1 Z.6 F18000
G1 X128.287 Y130.015
G1 Z.4
G1 E.5 F2700
;TYPE:Top solid infill
;WIDTH:0.50196
G1 F9000
G1 X129.328 Y128.974 E.55619
G1 X129.615 Y128.591 E.57446
G1 X129.847 Y128.164 E.59301
G1 X130.038 Y127.615 E.6152
G1 X127.615 Y130.038 E.74599
G1 X127.234 Y130.121 E.76087
G1 X126.856 Y130.148 E.77533
G1 X130.148 Y126.856 E.95303
G1 X130.157 Y126.197 E.97819
G1 X126.197 Y130.157 E1.19195
G1 X125.548 Y130.157 E1.21672
G1 X130.157 Y125.548 E1.46551
G1 X130.157 Y124.899 E1.49028
G1 X124.899 Y130.157 E1.7741
G1 X124.25 Y130.157 E1.79887
G1 X130.157 Y124.25 E2.11773
G1 X130.157 Y123.601 E2.1425
