; generated by PrusaSlicer 2.6.0-alpha5+win64 on 2023-03-15 at 19:27:52 UTC

; 

; external perimeters extrusion width = 0.50mm
; perimeters extrusion width = 0.50mm
; infill extrusion width = 0.50mm
; solid infill extrusion width = 0.50mm
; top infill extrusion width = 0.50mm
; first layer extrusion width = 0.50mm

M107
M190 S60 ; set bed temperature and wait for it to be reached
M104 S215 ; set temperature
;TYPE:Custom
SET_GCODE_VARIABLE MACRO=START_PRINT VARIABLE=bed_temp VALUE=60
SET_GCODE_VARIABLE MACRO=START_PRINT VARIABLE=extruder_temp VALUE=215
START_PRINT
M109 S215 ; set temperature and wait for it to be reached
G21 ; set units to millimeters
G90 ; use absolute coordinates
M82 ; use absolute distances for extrusion
G92 E0
; Filament gcode
M107
;LAYER_CHANGE
;Z:0.2
;HEIGHT:0.2
;BEFORE_LAYER_CHANGE
;0.2


G1 Z.2 F18000
;AFTER_LAYER_CHANGE
;0.2
G1 E-.5 F2700
G92 E0
G1 Z.4 F18000
G1 X86.446 Y86.048
G1 Z.2
G1 E.5 F2700
;TYPE:Skirt/Brim
;WIDTH:0.5
G1 F3600
G1 X87.087 Y85.493 E.53222
G1 X88.254 Y84.695 E.58595
G1 X90.057 Y83.871 E.66129
G1 X91.424 Y83.512 E.71501
G1 X92.259 Y83.392 E.74707
G1 X93.25 Y83.336 E.78479
G1 X127.171 Y83.351 E2.074
G1 X128.574 Y83.512 E2.12767
G1 X129.943 Y83.871 E2.18146
G1 X131.744 Y84.694 E2.25672
G1 X132.911 Y85.492 E2.31045
G1 X133.953 Y86.448 E2.3642
G1 X134.507 Y87.087 E2.39634
G1 X135.305 Y88.254 E2.45007
G1 X136.127 Y90.052 E2.52521
G1 X136.487 Y91.419 E2.57894
G1 X136.664 Y93.251 E2.64889
G1 X136.649 Y127.171 E3.93806
G1 X136.488 Y128.576 E3.99181
G1 X136.129 Y129.943 E4.04553
G1 X135.579 Y131.246 E4.09928
G1 X134.507 Y132.913 E4.17461
G1 X133.954 Y133.551 E4.2067
G1 X132.913 Y134.507 E4.26042
G1 X131.246 Y135.579 E4.33575
G1 X130.478 Y135.929 E4.36783
G1 X129.134 Y136.366 E4.42154
G1 X127.741 Y136.608 E4.47528
G1 X126.75 Y136.664 E4.513
G1 X92.829 Y136.649 E5.80221
G1 X91.424 Y136.488 E5.85596
G1 X90.057 Y136.129 E5.90968
G1 X88.754 Y135.579 E5.96343
G1 X87.087 Y134.507 E6.03876
G1 X86.449 Y133.954 E6.07085
G1 X85.493 Y132.913 E6.12457
G1 X84.422 Y131.246 E6.19988
G1 X83.872 Y129.945 E6.25356
G1 X83.634 Y129.136 E6.28561
G1 X83.392 Y127.743 E6.33935
G1 X83.336 Y126.75 E6.37715
G1 X83.351 Y92.829 E7.66636
G1 X83.512 Y91.424 E7.72011
G1 X84.068 Y89.528 E7.7952
G1 X84.693 Y88.257 E7.84903
G1 X85.491 Y87.089 E7.90279
G1 X86.406 Y86.093 E7.95419
G1 X86.742 Y86.402 F18000
G1 F3600
G1 X87.361 Y85.859 E7.98548
G1 X88.473 Y85.096 E8.03674
G1 X90.217 Y84.3 E8.1096
G1 X91.521 Y83.959 E8.16083
G1 X92.292 Y83.848 E8.19044
G1 X93.25 Y83.793 E8.22691
G1 X127.139 Y83.807 E9.51491
G1 X129.035 Y84.08 E9.58771
G1 X130.317 Y84.499 E9.63897
G1 X131.525 Y85.095 E9.69017
G1 X132.18 Y85.516 E9.71976
G1 X133.226 Y86.367 E9.77101
G1 X134.141 Y87.361 E9.82236
G1 X135.177 Y88.973 E9.89519
G1 X135.5 Y89.68 E9.92473
G1 X135.918 Y90.956 E9.97576
G1 X136.152 Y92.292 E10.02731
G1 X136.207 Y93.251 E10.06382
G1 X136.193 Y127.139 E11.35178
G1 X136.041 Y128.479 E11.40304
G1 X135.7 Y129.783 E11.45427
G1 X135.178 Y131.026 E11.50551
G1 X134.141 Y132.639 E11.57839
G1 X133.631 Y133.228 E11.608
G1 X132.639 Y134.141 E11.65924
G1 X131.026 Y135.178 E11.73212
G1 X130.318 Y135.501 E11.7617
G1 X129.036 Y135.92 E11.81296
G1 X127.708 Y136.152 E11.8642
G1 X126.75 Y136.207 E11.90067
G1 X92.861 Y136.193 E13.18867
G1 X91.521 Y136.041 E13.23993
G1 X90.217 Y135.7 E13.29116
G1 X88.974 Y135.178 E13.3424
G1 X87.361 Y134.141 E13.41528
G1 X86.772 Y133.631 E13.44489
G1 X85.859 Y132.639 E13.49613
G1 X84.823 Y131.027 E13.56896
G1 X84.3 Y129.786 E13.62014
G1 X84.081 Y129.039 E13.64973
G1 X83.848 Y127.71 E13.70101
G1 X83.793 Y126.75 E13.73756
G1 X83.807 Y92.861 E15.02556
G1 X83.959 Y91.521 E15.07682
G1 X84.497 Y89.688 E15.14942
G1 X85.094 Y88.476 E15.20077
G1 X85.857 Y87.363 E15.25206
G1 X86.701 Y86.446 E15.29943
;WIPE_START
G1 F14400
G1 X87.361 Y85.859 E15.1421
G1 X88.473 Y85.096 E14.90188
G1 X88.996 Y84.857 E14.79943
;WIPE_END
G92 E0
G1 Z.4 F18000
G1 X90.73 Y90.482
G1 Z.2
G1 E.5 F2700
;TYPE:External perimeter
;WIDTH:0.499999
G1 F3600
G1 X91.223 Y90.096 E.5238
G1 X91.693 Y89.84 E.54414
G1 X92.194 Y89.653 E.56446
G1 X92.717 Y89.539 E.5848
G1 X93.259 Y89.501 E.60545
G1 X126.743 Y89.501 E1.87805
G1 X127.283 Y89.539 E1.89862
G1 X127.806 Y89.653 E1.91896
G1 X128.306 Y89.84 E1.93925
G1 X128.777 Y90.096 E1.95962
G1 X129.205 Y90.417 E1.97995
G1 X129.583 Y90.795 E2.00027
G1 X129.904 Y91.223 E2.0206
G1 X130.16 Y91.693 E2.04094
G1 X130.346 Y92.191 E2.06114
G1 X130.461 Y92.717 E2.0816
G1 X130.5 Y93.399 E2.10756
G1 X130.5 Y126.741 E3.37477
G1 X130.461 Y127.283 E3.39542
G1 X130.347 Y127.806 E3.41576
G1 X130.16 Y128.307 E3.43608
G1 X129.904 Y128.777 E3.45642
G1 X129.583 Y129.205 E3.47675
G1 X129.202 Y129.585 E3.4972
G1 X128.777 Y129.904 E3.5174
G1 X128.307 Y130.16 E3.53774
G1 X127.806 Y130.347 E3.55806
G1 X127.283 Y130.461 E3.5784
G1 X126.741 Y130.499 E3.59905
G1 X93.259 Y130.5 E4.87158
G1 X92.717 Y130.461 E4.89223
G1 X92.194 Y130.347 E4.91257
G1 X91.693 Y130.16 E4.93289
G1 X91.223 Y129.904 E4.95323
G1 X90.795 Y129.583 E4.97356
G1 X90.417 Y129.205 E4.99388
G1 X90.096 Y128.777 E5.01421
G1 X89.84 Y128.307 E5.03455
G1 X89.653 Y127.806 E5.05487
G1 X89.539 Y127.284 E5.07518
G1 X89.501 Y126.741 E5.09587
G1 X89.5 Y93.259 E6.3684
G1 X89.539 Y92.717 E6.38905
G1 X89.653 Y92.193 E6.40943
G1 X89.84 Y91.693 E6.42972
G1 X90.096 Y91.223 E6.45006
G1 X90.417 Y90.795 E6.47039
G1 X90.688 Y90.525 E6.48493
;WIPE_START
G1 F14400
G1 X91.223 Y90.096 E6.36278
G1 X91.693 Y89.84 E6.26745
G1 X92.194 Y89.653 E6.1722
G1 X92.717 Y89.539 E6.07685
G1 X93.232 Y89.503 E5.98493
;WIPE_END
G92 E0
G1 Z.4 F18000
G1 X128.287 Y89.985
G1 Z.2
G1 E.5 F2700
;TYPE:Solid infill
;WIDTH:0.50196
G1 F3600
G1 X129.328 Y91.026 E.55619
G1 X129.615 Y91.409 E.57446
G1 X129.847 Y91.836 E.59301
G1 X130.037 Y92.385 E.61518
G1 X127.615 Y89.962 E.74595
G1 X127.234 Y89.879 E.76083
G1 X126.856 Y89.852 E.77529
G1 X130.148 Y93.144 E.95299
G1 X130.157 Y93.803 E.97815
G1 X126.198 Y89.843 E1.19188
G1 X125.548 Y89.843 E1.21669
G1 X130.157 Y94.452 E1.46548
G1 X130.157 Y95.101 E1.49025
G1 X124.899 Y89.843 E1.77407
G1 X124.25 Y89.843 E1.79884
G1 X130.157 Y95.75 E2.1177
G1 X130.157 Y96.399 E2.14247
G1 X123.601 Y89.843 E2.49636
G1 X122.952 Y89.843 E2.52113
G1 X130.157 Y97.049 E2.91008
G1 X130.157 Y97.698 E2.93485
G1 X122.302 Y89.843 E3.35886
G1 X121.653 Y89.843 E3.38363
G1 X130.157 Y98.347 E3.84267
G1 X130.157 Y98.996 E3.86744
G1 X121.004 Y89.843 E4.36152
G1 X120.355 Y89.843 E4.38629
G1 X130.157 Y99.645 E4.9154
G1 X130.157 Y100.294 E4.94017
G1 X119.706 Y89.843 E5.50431
G1 X119.057 Y89.843 E5.52908
G1 X130.157 Y100.944 E6.12828
G1 X130.157 Y101.593 E6.15305
G1 X118.407 Y89.843 E6.78731
G1 X117.758 Y89.843 E6.81208
G1 X130.157 Y102.242 E7.48137
G1 X130.157 Y102.891 E7.50614
G1 X117.109 Y89.843 E8.21047
G1 X116.46 Y89.843 E8.23524
G1 X130.157 Y103.54 E8.9746
G1 X130.157 Y104.189 E8.99937
G1 X115.811 Y89.843 E9.77376
G1 X115.161 Y89.843 E9.79857
G1 X130.157 Y104.839 E10.60805
G1 X130.157 Y105.488 E10.63282
G1 X114.512 Y89.843 E11.47733
G1 X113.863 Y89.843 E11.5021
G1 X130.157 Y106.137 E12.38164
G1 X130.157 Y106.786 E12.40641
G1 X113.214 Y89.843 E13.32099
G1 X112.565 Y89.843 E13.34576
G1 X130.157 Y107.435 E14.29537
G1 X130.157 Y108.085 E14.32018
G1 X111.916 Y89.843 E15.30485
G1 X111.266 Y89.843 E15.32966
G1 X130.157 Y108.734 E16.34939
G1 X130.157 Y109.383 E16.37416
G1 X110.617 Y89.843 E17.42892
G1 X109.968 Y89.843 E17.45369
G1 X130.157 Y110.032 E18.54348
G1 X130.157 Y110.681 E18.56825
G1 X109.319 Y89.843 E19.69308
G1 X108.67 Y89.843 E19.71785
G1 X130.157 Y111.33 E20.87771
G1 X130.157 Y111.98 E20.90252
G1 X108.02 Y89.843 E22.09747
G1 X107.371 Y89.843 E22.12224
G1 X130.157 Y112.629 E23.35222
G1 X130.157 Y113.278 E23.37699
G1 X106.722 Y89.843 E24.642
G1 X106.073 Y89.843 E24.66677
G1 X130.157 Y113.927 E25.96681
G1 X130.157 Y114.576 E25.99158
G1 X105.424 Y89.843 E27.32666
G1 X104.775 Y89.843 E27.35143
G1 X130.157 Y115.226 E28.72157
G1 X130.157 Y115.875 E28.74634
G1 X104.125 Y89.843 E30.15154
G1 X103.476 Y89.843 E30.17631
G1 X130.157 Y116.524 E31.61654
G1 X130.157 Y117.173 E31.64131
G1 X102.827 Y89.843 E33.11657
G1 X102.178 Y89.843 E33.14134
G1 X130.157 Y117.822 E34.65163
G1 X130.157 Y118.471 E34.6764
G1 X101.529 Y89.843 E36.22173
G1 X100.879 Y89.843 E36.24654
G1 X130.157 Y119.121 E37.82695
G1 X130.157 Y119.77 E37.85172
G1 X100.23 Y89.843 E39.46717
G1 X99.581 Y89.843 E39.49194
G1 X130.157 Y120.419 E41.14242
G1 X130.157 Y121.068 E41.16719
G1 X98.932 Y89.843 E42.8527
G1 X98.283 Y89.843 E42.87747
G1 X130.157 Y121.717 E44.59802
G1 X130.157 Y122.367 E44.62283
G1 X97.633 Y89.843 E46.37846
G1 X96.984 Y89.843 E46.40323
G1 X130.157 Y123.016 E48.19389
G1 X130.157 Y123.665 E48.21866
G1 X96.335 Y89.843 E50.04436
G1 X95.686 Y89.843 E50.06913
G1 X130.157 Y124.314 E51.92986
G1 X130.157 Y124.963 E51.95463
G1 X95.037 Y89.843 E53.85039
G1 X94.388 Y89.843 E53.87516
G1 X130.157 Y125.612 E55.80596
G1 X130.157 Y126.262 E55.83077
G1 X93.738 Y89.843 E57.79665
G1 X93.101 Y89.855 E57.82097
G1 X130.145 Y126.899 E59.82059
G1 X130.121 Y127.234 E59.83341
G1 X130.069 Y127.472 E59.84271
G1 X92.528 Y89.931 E61.86916
G1 X92.291 Y89.983 E61.87842
G1 X92.028 Y90.081 E61.88913
G1 X129.919 Y127.972 E63.93447
G1 X129.847 Y128.164 E63.9423
G1 X129.712 Y128.413 E63.95311
G1 X91.587 Y90.288 E66.01108
G1 X91.409 Y90.385 E66.01882
G1 X91.195 Y90.546 E66.02904
G1 X129.454 Y128.805 E68.09424
G1 X129.324 Y128.98 E68.10256
G1 X129.151 Y129.151 E68.11184
G1 X90.849 Y90.849 E70.17937
G1 X90.676 Y91.02 E70.18865
G1 X90.546 Y91.195 E70.19697
G1 X128.805 Y129.454 E72.26217
G1 X128.591 Y129.615 E72.27239
G1 X128.413 Y129.712 E72.28013
G1 X90.288 Y91.587 E74.3381
G1 X90.153 Y91.836 E74.34891
G1 X90.081 Y92.028 E74.35674
G1 X127.972 Y129.919 E76.40208
G1 X127.709 Y130.017 E76.41279
G1 X127.472 Y130.069 E76.42205
G1 X89.931 Y92.528 E78.4485
G1 X89.879 Y92.766 E78.4578
G1 X89.855 Y93.101 E78.47062
G1 X126.899 Y130.145 E80.47024
G1 X126.262 Y130.157 E80.49456
G1 X89.843 Y93.738 E82.46044
G1 X89.843 Y94.388 E82.48525
G1 X125.612 Y130.157 E84.41605
G1 X124.963 Y130.157 E84.44082
G1 X89.843 Y95.037 E86.33658
G1 X89.843 Y95.686 E86.36135
G1 X124.314 Y130.157 E88.22208
G1 X123.665 Y130.157 E88.24685
G1 X89.843 Y96.335 E90.07255
G1 X89.843 Y96.984 E90.09732
G1 X123.016 Y130.157 E91.88798
G1 X122.366 Y130.157 E91.91279
G1 X89.843 Y97.634 E93.66837
G1 X89.843 Y98.283 E93.69314
G1 X121.717 Y130.157 E95.41369
G1 X121.068 Y130.157 E95.43846
G1 X89.843 Y98.932 E97.12397
G1 X89.843 Y99.581 E97.14874
G1 X120.419 Y130.157 E98.79922
G1 X119.77 Y130.157 E98.82399
G1 X89.843 Y100.23 E100.43944
G1 X89.843 Y100.879 E100.46421
G1 X119.121 Y130.157 E102.04462
G1 X118.471 Y130.157 E102.06943
G1 X89.843 Y101.529 E103.61476
G1 X89.843 Y102.178 E103.63953
G1 X117.822 Y130.157 E105.14982
G1 X117.173 Y130.157 E105.17459
G1 X89.843 Y102.827 E106.64985
G1 X89.843 Y103.476 E106.67462
G1 X116.524 Y130.157 E108.11485
G1 X115.875 Y130.157 E108.13962
G1 X89.843 Y104.125 E109.54482
G1 X89.843 Y104.774 E109.56959
G1 X115.226 Y130.157 E110.93975
G1 X114.576 Y130.157 E110.96456
G1 X89.843 Y105.424 E112.29964
G1 X89.843 Y106.073 E112.32441
G1 X113.927 Y130.157 E113.62445
G1 X113.278 Y130.157 E113.64922
G1 X89.843 Y106.722 E114.91423
G1 X89.843 Y107.371 E114.939
G1 X112.629 Y130.157 E116.16898
G1 X111.98 Y130.157 E116.19375
G1 X89.843 Y108.02 E117.3887
G1 X89.843 Y108.67 E117.41351
G1 X111.33 Y130.157 E118.57337
G1 X110.681 Y130.157 E118.59814
G1 X89.843 Y109.319 E119.72297
G1 X89.843 Y109.968 E119.74774
G1 X110.032 Y130.157 E120.83753
G1 X109.383 Y130.157 E120.8623
G1 X89.843 Y110.617 E121.91706
G1 X89.843 Y111.266 E121.94183
G1 X108.734 Y130.157 E122.96156
G1 X108.085 Y130.157 E122.98633
G1 X89.843 Y111.915 E123.97103
G1 X89.843 Y112.565 E123.99584
G1 X107.435 Y130.157 E124.94545
G1 X106.786 Y130.157 E124.97022
G1 X89.843 Y113.214 E125.8848
G1 X89.843 Y113.863 E125.90957
G1 X106.137 Y130.157 E126.78911
G1 X105.488 Y130.157 E126.81388
G1 X89.843 Y114.512 E127.65839
G1 X89.843 Y115.161 E127.68316
G1 X104.839 Y130.157 E128.49264
G1 X104.189 Y130.157 E128.51745
G1 X89.843 Y115.811 E129.29184
G1 X89.843 Y116.46 E129.31661
G1 X103.54 Y130.157 E130.05597
G1 X102.891 Y130.157 E130.08074
G1 X89.843 Y117.109 E130.78507
G1 X89.843 Y117.758 E130.80984
G1 X102.242 Y130.157 E131.47913
G1 X101.593 Y130.157 E131.5039
G1 X89.843 Y118.407 E132.13816
G1 X89.843 Y119.056 E132.16293
G1 X100.944 Y130.157 E132.76216
G1 X100.294 Y130.157 E132.78697
G1 X89.843 Y119.706 E133.35111
G1 X89.843 Y120.355 E133.37588
G1 X99.645 Y130.157 E133.90499
G1 X98.996 Y130.157 E133.92976
G1 X89.843 Y121.004 E134.42384
G1 X89.843 Y121.653 E134.44861
G1 X98.347 Y130.157 E134.90765
G1 X97.698 Y130.157 E134.93242
G1 X89.843 Y122.302 E135.35643
G1 X89.843 Y122.952 E135.38124
G1 X97.048 Y130.157 E135.77016
G1 X96.399 Y130.157 E135.79493
G1 X89.843 Y123.601 E136.14882
G1 X89.843 Y124.25 E136.17359
G1 X95.75 Y130.157 E136.49245
G1 X95.101 Y130.157 E136.51722
G1 X89.843 Y124.899 E136.80104
G1 X89.843 Y125.548 E136.82581
G1 X94.452 Y130.157 E137.0746
G1 X93.803 Y130.157 E137.09937
G1 X89.843 Y126.197 E137.31313
G1 X89.852 Y126.856 E137.33829
G1 X93.144 Y130.148 E137.51599
G1 X92.766 Y130.121 E137.53045
G1 X92.385 Y130.038 E137.54533
G1 X89.962 Y127.615 E137.67612
G1 X90.153 Y128.164 E137.69831
G1 X90.385 Y128.591 E137.71686
G1 X90.673 Y128.974 E137.73515
G1 X91.713 Y130.015 E137.79132
M106 S255
;LAYER_CHANGE
;Z:0.4
;HEIGHT:0.2
;BEFORE_LAYER_CHANGE
;0.4


G1 Z.4 F18000
;AFTER_LAYER_CHANGE
;0.4
G1 X91.647 Y130.135
;TYPE:External perimeter
;WIDTH:0.499999
G1 F7500
G1 X91.223 Y129.904 E137.80967
G1 F7499.977
G1 X90.795 Y129.583 E137.83
G1 X90.412 Y129.199 E137.85061
G1 X90.096 Y128.777 E137.87065
G1 X89.84 Y128.307 E137.89099
G1 X89.653 Y127.806 E137.91131
G1 X89.54 Y127.286 E137.93153
G1 X89.501 Y126.74 E137.95233
G1 F7500
G1 X89.501 Y126.24 E137.97133
G1 X89.501 Y93.759 E139.20581
G1 F7499.957
G1 X89.501 Y93.259 E139.22481
G1 X89.539 Y92.717 E139.24546
G1 X89.653 Y92.194 E139.2658
G1 X89.837 Y91.7 E139.28584
G1 X90.096 Y91.223 E139.30647
G1 X90.417 Y90.795 E139.3268
G1 X90.797 Y90.415 E139.34722
G1 F7500
G1 X91.223 Y90.096 E139.36745
G1 F7499.99
G1 X91.693 Y89.84 E139.38779
G1 X92.204 Y89.651 E139.4085
G1 X92.717 Y89.539 E139.42846
G1 X93.259 Y89.501 E139.44911
G1 F7500
G1 X126.748 Y89.501 E140.7219
G1 F7499.967
G1 X127.283 Y89.539 E140.74228
G1 X127.806 Y89.653 E140.76262
G1 X128.307 Y89.84 E140.78294
G1 X128.777 Y90.096 E140.80328
G1 F7500
G1 X129.205 Y90.417 E140.82361
G1 X129.583 Y90.795 E140.84393
G1 X129.904 Y91.223 E140.86426
G1 F7499.997
G1 X130.16 Y91.693 E140.8846
G1 X130.343 Y92.184 E140.90452
G1 F7500
G1 X130.461 Y92.717 E140.92527
G1 F7499.97
G1 X130.5 Y93.399 E140.95123
G1 X130.5 Y93.899 E140.97023
G1 X130.5 Y126.241 E142.19943
G1 X130.5 Y126.741 E142.21843
G1 X130.461 Y127.283 E142.23908
G1 X130.347 Y127.806 E142.25942
G1 X130.163 Y128.3 E142.27946
G1 X129.904 Y128.777 E142.30009
G1 X129.583 Y129.205 E142.32042
G1 X129.203 Y129.585 E142.34084
G1 X128.777 Y129.904 E142.36107
G1 X128.307 Y130.16 E142.38141
G1 X127.806 Y130.347 E142.40173
G1 X127.283 Y130.461 E142.42207
G1 X126.741 Y130.499 E142.44272
G1 F7500
G1 X126.241 Y130.499 E142.46172
G1 X93.759 Y130.5 E143.69624
G1 F7499.969
G1 X93.259 Y130.5 E143.71524
G1 X92.717 Y130.461 E143.73589
G1 X92.194 Y130.347 E143.75623
G1 X91.701 Y130.163 E143.77623
G1 F7500
;WIPE_START
G1 F14400
G1 X91.223 Y129.904 E143.67939
G1 X90.795 Y129.583 E143.58409
G1 X90.412 Y129.199 E143.48748
G1 X90.096 Y128.777 E143.39357
G1 X89.84 Y128.307 E143.29824
G1 X89.797 Y128.191 E143.27623
;WIPE_END
G92 E0
G1 Z.6 F18000
G1 X128.287 Y130.015
G1 Z.4
G1 E.5 F2700
;TYPE:Top solid infill
;WIDTH:0.50196
G1 F9000
G1 X129.328 Y128.974 E.55619
G1 X129.614 Y128.591 E.57443
G1 X129.85 Y128.157 E.59329
G1 X130.038 Y127.615 E.61519
G1 X127.615 Y130.038 E.74598
G1 X127.234 Y130.121 E.76086
G1 X126.856 Y130.148 E.77532
G1 X130.148 Y126.856 E.95302
G1 X130.157 Y126.197 E.97818
G1 X126.197 Y130.157 E1.19194
G1 X125.548 Y130.157 E1.21671
G1 X130.157 Y125.548 E1.4655
G1 X130.157 Y124.899 E1.49027
G1 X124.899 Y130.157 E1.77409
