; generated by PrusaSlicer 2.6.0-alpha5+win64 on 2023-03-15 at 19:16:21 UTC

; 

; external perimeters extrusion width = 0.50mm
; perimeters extrusion width = 0.50mm
; infill extrusion width = 0.50mm
; solid infill extrusion width = 0.50mm
; top infill extrusion width = 0.50mm
; first layer extrusion width = 0.50mm

M107
M190 S60 ; set bed temperature and wait for it to be reached
M104 S215 ; set temperature
;TYPE:Custom
SET_GCODE_VARIABLE MACRO=START_PRINT VARIABLE=bed_temp VALUE=60
SET_GCODE_VARIABLE MACRO=START_PRINT VARIABLE=extruder_temp VALUE=215
START_PRINT
M109 S215 ; set temperature and wait for it to be reached
G21 ; set units to millimeters
G90 ; use absolute coordinates
M82 ; use absolute distances for extrusion
G92 E0
; Filament gcode
M107
;LAYER_CHANGE
;Z:0.2
;HEIGHT:0.2
;BEFORE_LAYER_CHANGE
;0.2


G1 Z.2 F18000
;AFTER_LAYER_CHANGE
;0.2
G1 E-.5 F2700
G92 E0
G1 Z.4 F18000
G1 X86.449 Y86.046
G1 Z.2
G1 E.5 F2700
;TYPE:Skirt/Brim
;WIDTH:0.5
G1 F3600
G1 X87.087 Y85.493 E.53209
G1 X88.754 Y84.421 E.60742
G1 X90.057 Y83.871 E.66117
G1 X90.866 Y83.634 E.69321
G1 X92.259 Y83.392 E.74695
G1 X93.25 Y83.336 E.78467
G1 X127.171 Y83.351 E2.07388
G1 X128.575 Y83.512 E2.12759
G1 X129.943 Y83.871 E2.18134
G1 X131.745 Y84.694 E2.25663
G1 X132.913 Y85.493 E2.31041
G1 X133.954 Y86.449 E2.36413
G1 X134.507 Y87.087 E2.39622
G1 X135.303 Y88.25 E2.44978
G1 X136.127 Y90.053 E2.52512
G1 X136.487 Y91.42 E2.57885
G1 X136.664 Y93.251 E2.64876
G1 X136.649 Y127.171 E3.93793
G1 X136.488 Y128.576 E3.99168
G1 X136.129 Y129.943 E4.0454
G1 X135.579 Y131.246 E4.09915
G1 X134.508 Y132.912 E4.17442
G1 X133.954 Y133.551 E4.20656
G1 X132.913 Y134.507 E4.26028
G1 X131.246 Y135.579 E4.33561
G1 X130.478 Y135.929 E4.36769
G1 X129.134 Y136.366 E4.4214
G1 X127.741 Y136.608 E4.47514
G1 X126.75 Y136.664 E4.51286
G1 X92.829 Y136.649 E5.80207
G1 X91.424 Y136.488 E5.85582
G1 X90.057 Y136.129 E5.90954
G1 X88.754 Y135.579 E5.96329
G1 X87.087 Y134.507 E6.03862
G1 X86.449 Y133.954 E6.07071
G1 X85.493 Y132.913 E6.12443
G1 X84.421 Y131.246 E6.19976
G1 X84.071 Y130.478 E6.23184
G1 X83.634 Y129.134 E6.28555
G1 X83.392 Y127.742 E6.33925
G1 X83.336 Y126.75 E6.37701
G1 X83.351 Y92.829 E7.66622
G1 X83.512 Y91.424 E7.71997
G1 X84.07 Y89.525 E7.7952
G1 X84.694 Y88.255 E7.84898
G1 X85.493 Y87.087 E7.90276
G1 X86.409 Y86.09 E7.95422
G1 X86.73 Y86.439 F18000
G1 F3600
G1 X87.361 Y85.859 E7.98679
G1 X88.974 Y84.822 E8.05967
G1 X90.217 Y84.3 E8.11091
G1 X90.964 Y84.08 E8.14051
G1 X92.292 Y83.848 E8.19175
G1 X93.25 Y83.793 E8.22822
G1 X127.139 Y83.807 E9.51622
G1 X129.036 Y84.08 E9.58906
G1 X130.318 Y84.499 E9.64032
G1 X131.526 Y85.095 E9.69152
G1 X132.181 Y85.516 E9.72111
G1 X133.228 Y86.369 E9.77244
G1 X134.141 Y87.361 E9.82368
G1 X135.176 Y88.97 E9.89639
G1 X135.699 Y90.213 E9.94764
G1 X135.919 Y90.96 E9.97724
G1 X136.151 Y92.288 E10.02848
G1 X136.207 Y93.251 E10.06514
G1 X136.193 Y127.139 E11.3531
G1 X136.041 Y128.479 E11.40436
G1 X135.7 Y129.783 E11.45559
G1 X135.178 Y131.026 E11.50683
G1 X134.142 Y132.638 E11.57966
G1 X133.631 Y133.228 E11.60932
G1 X132.639 Y134.141 E11.66056
G1 X131.026 Y135.178 E11.73344
G1 X130.318 Y135.501 E11.76302
G1 X129.036 Y135.92 E11.81428
G1 X127.708 Y136.152 E11.86552
G1 X126.75 Y136.207 E11.90199
G1 X92.861 Y136.193 E13.18999
G1 X91.521 Y136.041 E13.24125
G1 X90.217 Y135.7 E13.29248
G1 X88.974 Y135.178 E13.34372
G1 X87.361 Y134.141 E13.4166
G1 X86.772 Y133.631 E13.44621
G1 X85.859 Y132.639 E13.49745
G1 X84.822 Y131.026 E13.57033
G1 X84.499 Y130.318 E13.59991
G1 X84.08 Y129.037 E13.65113
G1 X83.848 Y127.709 E13.70237
G1 X83.793 Y126.75 E13.73888
G1 X83.807 Y92.861 E15.02688
G1 X83.959 Y91.521 E15.07814
G1 X84.498 Y89.684 E15.1509
G1 X85.095 Y88.474 E15.20218
G1 X85.859 Y87.361 E15.25349
G1 X86.369 Y86.772 E15.2831
G1 X86.686 Y86.48 E15.29948
;WIPE_START
G1 F14400
G1 X87.361 Y85.859 E15.1361
G1 X88.951 Y84.837 E14.79948
;WIPE_END
G92 E0
G1 Z.4 F18000
G1 X90.708 Y90.505
G1 Z.2
G1 E.5 F2700
;TYPE:External perimeter
;WIDTH:0.499999
G1 F3600
G1 X90.796 Y90.416 E.50476
G1 X91.223 Y90.096 E.52504
G1 X91.693 Y89.84 E.54538
G1 X92.195 Y89.653 E.56574
G1 X92.717 Y89.539 E.58605
G1 X93.259 Y89.501 E.6067
G1 X126.742 Y89.501 E1.87926
G1 X127.283 Y89.539 E1.89987
G1 X127.806 Y89.653 E1.92021
G1 X128.307 Y89.84 E1.94053
G1 X128.777 Y90.096 E1.96087
G1 X129.205 Y90.417 E1.9812
G1 X129.583 Y90.795 E2.00152
G1 X129.904 Y91.223 E2.02185
G1 X130.16 Y91.693 E2.04219
G1 X130.346 Y92.193 E2.06247
G1 X130.461 Y92.717 E2.08286
G1 X130.5 Y93.399 E2.10882
G1 X130.5 Y126.741 E3.37603
G1 X130.461 Y127.283 E3.39668
G1 X130.347 Y127.806 E3.41702
G1 X130.16 Y128.307 E3.43734
G1 X129.904 Y128.777 E3.45768
G1 X129.583 Y129.205 E3.47801
G1 X129.204 Y129.584 E3.49838
G1 X128.777 Y129.904 E3.51866
G1 X128.307 Y130.16 E3.539
G1 X127.806 Y130.347 E3.55932
G1 X127.283 Y130.461 E3.57966
G1 X126.741 Y130.499 E3.60031
G1 X93.259 Y130.5 E4.87284
G1 X92.717 Y130.461 E4.89349
G1 X92.194 Y130.347 E4.91383
G1 X91.693 Y130.16 E4.93415
G1 X91.223 Y129.904 E4.95449
G1 X90.795 Y129.583 E4.97482
G1 X90.417 Y129.205 E4.99514
G1 X90.096 Y128.777 E5.01547
G1 X89.84 Y128.307 E5.03581
G1 X89.653 Y127.806 E5.05613
G1 X89.539 Y127.283 E5.07647
G1 X89.501 Y126.741 E5.09712
G1 X89.501 Y93.259 E6.36965
G1 X89.539 Y92.717 E6.3903
G1 X89.653 Y92.194 E6.41064
G1 X89.84 Y91.693 E6.43096
G1 X90.096 Y91.223 E6.4513
G1 X90.417 Y90.795 E6.47163
G1 X90.665 Y90.547 E6.48496
;WIPE_START
G1 F14400
G1 X90.796 Y90.416 E6.45196
G1 X91.223 Y90.096 E6.35691
G1 X91.693 Y89.84 E6.26158
G1 X92.195 Y89.653 E6.16616
G1 X92.717 Y89.539 E6.07099
G1 X93.199 Y89.505 E5.98496
;WIPE_END
G92 E0
G1 Z.4 F18000
G1 X128.287 Y89.985
G1 Z.2
G1 E.5 F2700
;TYPE:Solid infill
;WIDTH:0.50196
G1 F3600
G1 X129.328 Y91.026 E.55619
G1 X129.615 Y91.409 E.57446
G1 X129.847 Y91.836 E.59301
G1 X130.038 Y92.385 E.6152
G1 X127.615 Y89.962 E.74599
G1 X127.234 Y89.879 E.76087
G1 X126.856 Y89.852 E.77533
G1 X130.148 Y93.144 E.95303
G1 X130.157 Y93.803 E.97819
G1 X126.197 Y89.843 E1.19195
G1 X125.548 Y89.843 E1.21672
G1 X130.157 Y94.452 E1.46551
G1 X130.157 Y95.101 E1.49028
G1 X124.899 Y89.843 E1.7741
G1 X124.25 Y89.843 E1.79887
G1 X130.157 Y95.75 E2.11773
G1 X130.157 Y96.399 E2.1425
G1 X123.601 Y89.843 E2.49639
G1 X122.952 Y89.843 E2.52116
G1 X130.157 Y97.049 E2.91011
G1 X130.157 Y97.698 E2.93488
G1 X122.302 Y89.843 E3.35889
G1 X121.653 Y89.843 E3.38366
G1 X130.157 Y98.347 E3.8427
G1 X130.157 Y98.996 E3.86747
G1 X121.004 Y89.843 E4.36155
G1 X120.355 Y89.843 E4.38632
G1 X130.157 Y99.645 E4.91543
G1 X130.157 Y100.294 E4.9402
G1 X119.706 Y89.843 E5.50434
G1 X119.056 Y89.843 E5.52915
G1 X130.157 Y100.944 E6.12838
G1 X130.157 Y101.593 E6.15315
G1 X118.407 Y89.843 E6.78741
G1 X117.758 Y89.843 E6.81218
G1 X130.157 Y102.242 E7.48147
G1 X130.157 Y102.891 E7.50624
G1 X117.109 Y89.843 E8.21057
G1 X116.46 Y89.843 E8.23534
G1 X130.157 Y103.54 E8.9747
G1 X130.157 Y104.189 E8.99947
G1 X115.811 Y89.843 E9.77386
G1 X115.161 Y89.843 E9.79867
G1 X130.157 Y104.839 E10.60815
G1 X130.157 Y105.488 E10.63292
G1 X114.512 Y89.843 E11.47743
G1 X113.863 Y89.843 E11.5022
G1 X130.157 Y106.137 E12.38174
G1 X130.157 Y106.786 E12.40651
G1 X113.214 Y89.843 E13.32109
G1 X112.565 Y89.843 E13.34586
G1 X130.157 Y107.435 E14.29547
G1 X130.157 Y108.085 E14.32028
G1 X111.915 Y89.843 E15.30498
G1 X111.266 Y89.843 E15.32975
G1 X130.157 Y108.734 E16.34948
G1 X130.157 Y109.383 E16.37425
G1 X110.617 Y89.843 E17.42901
G1 X109.968 Y89.843 E17.45378
G1 X130.157 Y110.032 E18.54357
G1 X130.157 Y110.681 E18.56834
G1 X109.319 Y89.843 E19.69317
G1 X108.67 Y89.843 E19.71794
G1 X130.157 Y111.33 E20.8778
G1 X130.157 Y111.98 E20.90261
G1 X108.02 Y89.843 E22.09756
G1 X107.371 Y89.843 E22.12233
G1 X130.157 Y112.629 E23.35231
G1 X130.157 Y113.278 E23.37708
G1 X106.722 Y89.843 E24.64209
G1 X106.073 Y89.843 E24.66686
G1 X130.157 Y113.927 E25.9669
G1 X130.157 Y114.576 E25.99167
G1 X105.424 Y89.843 E27.32675
G1 X104.774 Y89.843 E27.35156
G1 X130.157 Y115.226 E28.72172
G1 X130.157 Y115.875 E28.74649
G1 X104.125 Y89.843 E30.15169
G1 X103.476 Y89.843 E30.17646
G1 X130.157 Y116.524 E31.61669
G1 X130.157 Y117.173 E31.64146
G1 X102.827 Y89.843 E33.11672
G1 X102.178 Y89.843 E33.14149
G1 X130.157 Y117.822 E34.65178
G1 X130.157 Y118.471 E34.67655
G1 X101.529 Y89.843 E36.22188
G1 X100.879 Y89.843 E36.24669
G1 X130.157 Y119.121 E37.8271
G1 X130.157 Y119.77 E37.85187
G1 X100.23 Y89.843 E39.46732
G1 X99.581 Y89.843 E39.49209
G1 X130.157 Y120.419 E41.14257
G1 X130.157 Y121.068 E41.16734
G1 X98.932 Y89.843 E42.85285
G1 X98.283 Y89.843 E42.87762
G1 X130.157 Y121.717 E44.59817
G1 X130.157 Y122.367 E44.62298
G1 X97.633 Y89.843 E46.37861
G1 X96.984 Y89.843 E46.40338
G1 X130.157 Y123.016 E48.19404
G1 X130.157 Y123.665 E48.21881
G1 X96.335 Y89.843 E50.04451
G1 X95.686 Y89.843 E50.06928
G1 X130.157 Y124.314 E51.93001
G1 X130.157 Y124.963 E51.95478
G1 X95.037 Y89.843 E53.85054
G1 X94.388 Y89.843 E53.87531
G1 X130.157 Y125.612 E55.80611
G1 X130.157 Y126.262 E55.83092
G1 X93.738 Y89.843 E57.7968
G1 X93.101 Y89.855 E57.82112
G1 X130.145 Y126.899 E59.82074
G1 X130.121 Y127.234 E59.83356
G1 X130.069 Y127.472 E59.84286
G1 X92.528 Y89.931 E61.86931
G1 X92.291 Y89.983 E61.87857
G1 X92.028 Y90.081 E61.88928
G1 X129.919 Y127.972 E63.93462
G1 X129.847 Y128.164 E63.94245
G1 X129.712 Y128.413 E63.95326
G1 X91.587 Y90.288 E66.01123
G1 X91.409 Y90.385 E66.01897
G1 X91.195 Y90.546 E66.02919
G1 X129.454 Y128.805 E68.09439
G1 X129.323 Y128.98 E68.10273
G1 X129.151 Y129.151 E68.11199
G1 X90.849 Y90.849 E70.17952
G1 X90.677 Y91.02 E70.18878
G1 X90.546 Y91.195 E70.19712
G1 X128.805 Y129.454 E72.26232
G1 X128.591 Y129.615 E72.27254
G1 X128.413 Y129.712 E72.28028
G1 X90.288 Y91.587 E74.33825
G1 X90.153 Y91.836 E74.34906
G1 X90.081 Y92.028 E74.35689
G1 X127.972 Y129.919 E76.40223
G1 X127.709 Y130.017 E76.41294
G1 X127.472 Y130.069 E76.4222
G1 X89.931 Y92.528 E78.44865
G1 X89.879 Y92.766 E78.45795
G1 X89.855 Y93.101 E78.47077
G1 X126.899 Y130.145 E80.47039
G1 X126.262 Y130.157 E80.49471
G1 X89.843 Y93.738 E82.46059
G1 X89.843 Y94.388 E82.4854
G1 X125.612 Y130.157 E84.4162
G1 X124.963 Y130.157 E84.44097
G1 X89.843 Y95.037 E86.33673
G1 X89.843 Y95.686 E86.3615
G1 X124.314 Y130.157 E88.22223
G1 X123.665 Y130.157 E88.247
G1 X89.843 Y96.335 E90.0727
G1 X89.843 Y96.984 E90.09747
G1 X123.016 Y130.157 E91.88813
G1 X122.366 Y130.157 E91.91294
G1 X89.843 Y97.634 E93.66852
G1 X89.843 Y98.283 E93.69329
G1 X121.717 Y130.157 E95.41384
G1 X121.068 Y130.157 E95.43861
G1 X89.843 Y98.932 E97.12412
G1 X89.843 Y99.581 E97.14889
G1 X120.419 Y130.157 E98.79937
G1 X119.77 Y130.157 E98.82414
G1 X89.843 Y100.23 E100.43959
G1 X89.843 Y100.879 E100.46436
G1 X119.121 Y130.157 E102.04477
G1 X118.471 Y130.157 E102.06958
G1 X89.843 Y101.529 E103.61491
G1 X89.843 Y102.178 E103.63968
G1 X117.822 Y130.157 E105.14997
G1 X117.173 Y130.157 E105.17474
G1 X89.843 Y102.827 E106.65
G1 X89.843 Y103.476 E106.67477
G1 X116.524 Y130.157 E108.115
G1 X115.875 Y130.157 E108.13977
G1 X89.843 Y104.125 E109.54497
G1 X89.843 Y104.774 E109.56974
G1 X115.226 Y130.157 E110.9399
G1 X114.576 Y130.157 E110.96471
G1 X89.843 Y105.424 E112.29979
G1 X89.843 Y106.073 E112.32456
G1 X113.927 Y130.157 E113.6246
G1 X113.278 Y130.157 E113.64937
G1 X89.843 Y106.722 E114.91438
G1 X89.843 Y107.371 E114.93915
G1 X112.629 Y130.157 E116.16913
G1 X111.98 Y130.157 E116.1939
G1 X89.843 Y108.02 E117.38885
G1 X89.843 Y108.67 E117.41366
G1 X111.33 Y130.157 E118.57352
G1 X110.681 Y130.157 E118.59829
G1 X89.843 Y109.319 E119.72312
G1 X89.843 Y109.968 E119.74789
G1 X110.032 Y130.157 E120.83768
G1 X109.383 Y130.157 E120.86245
G1 X89.843 Y110.617 E121.91721
G1 X89.843 Y111.266 E121.94198
G1 X108.734 Y130.157 E122.96171
G1 X108.085 Y130.157 E122.98648
G1 X89.843 Y111.915 E123.97118
G1 X89.843 Y112.565 E123.99599
G1 X107.435 Y130.157 E124.9456
G1 X106.786 Y130.157 E124.97037
G1 X89.843 Y113.214 E125.88495
G1 X89.843 Y113.863 E125.90972
G1 X106.137 Y130.157 E126.78926
G1 X105.488 Y130.157 E126.81403
G1 X89.843 Y114.512 E127.65854
G1 X89.843 Y115.161 E127.68331
G1 X104.839 Y130.157 E128.49279
G1 X104.189 Y130.157 E128.5176
G1 X89.843 Y115.811 E129.29199
G1 X89.843 Y116.46 E129.31676
G1 X103.54 Y130.157 E130.05612
G1 X102.891 Y130.157 E130.08089
G1 X89.843 Y117.109 E130.78522
G1 X89.843 Y117.758 E130.80999
G1 X102.242 Y130.157 E131.47928
G1 X101.593 Y130.157 E131.50405
G1 X89.843 Y118.407 E132.13831
G1 X89.843 Y119.056 E132.16308
G1 X100.944 Y130.157 E132.76231
G1 X100.294 Y130.157 E132.78712
G1 X89.843 Y119.706 E133.35126
G1 X89.843 Y120.355 E133.37603
G1 X99.645 Y130.157 E133.90514
G1 X98.996 Y130.157 E133.92991
G1 X89.843 Y121.004 E134.42399
G1 X89.843 Y121.653 E134.44876
G1 X98.347 Y130.157 E134.9078
G1 X97.698 Y130.157 E134.93257
G1 X89.843 Y122.302 E135.35658
G1 X89.843 Y122.952 E135.38139
G1 X97.048 Y130.157 E135.77031
G1 X96.399 Y130.157 E135.79508
G1 X89.843 Y123.601 E136.14897
G1 X89.843 Y124.25 E136.17374
G1 X95.75 Y130.157 E136.4926
G1 X95.101 Y130.157 E136.51737
G1 X89.843 Y124.899 E136.80119
G1 X89.843 Y125.548 E136.82596
G1 X94.452 Y130.157 E137.07475
G1 X93.803 Y130.157 E137.09952
G1 X89.843 Y126.197 E137.31328
G1 X89.852 Y126.856 E137.33844
G1 X93.144 Y130.148 E137.51614
G1 X92.766 Y130.121 E137.5306
G1 X92.385 Y130.038 E137.54548
G1 X89.962 Y127.615 E137.67627
G1 X90.153 Y128.164 E137.69846
G1 X90.385 Y128.591 E137.71701
G1 X90.672 Y128.974 E137.73528
G1 X91.713 Y130.015 E137.79147
M106 S255
;LAYER_CHANGE
;Z:0.4
;HEIGHT:0.2
;BEFORE_LAYER_CHANGE
;0.4


G1 Z.4 F18000
;AFTER_LAYER_CHANGE
;0.4
G1 X91.647 Y130.135
;TYPE:External perimeter
;WIDTH:0.499999
G1 F7499.991
G1 X91.223 Y129.904 E137.80982
G1 F7500
G1 X90.795 Y129.583 E137.83015
G1 X90.417 Y129.205 E137.85047
G1 F7499.975
G1 X90.096 Y128.777 E137.8708
G1 X89.84 Y128.307 E137.89114
G1 X89.653 Y127.806 E137.91146
G1 X89.54 Y127.284 E137.93176
G1 X89.501 Y126.741 E137.95245
G1 F7500
G1 X89.501 Y93.259 E139.22498
G1 F7499.952
G1 X89.54 Y92.716 E139.24567
G1 X89.653 Y92.194 E139.26597
G1 X89.839 Y91.696 E139.28617
G1 F7500
G1 X90.096 Y91.223 E139.30663
G1 X90.417 Y90.795 E139.32696
G1 F7499.989
G1 X90.796 Y90.416 E139.34733
G1 X91.223 Y90.096 E139.36761
G1 X91.693 Y89.84 E139.38795
G1 X92.195 Y89.653 E139.40831
G1 X92.717 Y89.539 E139.42862
G1 X93.259 Y89.501 E139.44927
G1 F7500
G1 X126.744 Y89.501 E140.72191
G1 X127.283 Y89.539 E140.74245
G1 F7499.902
G1 X127.806 Y89.653 E140.76279
G1 X128.307 Y89.84 E140.78311
G1 X128.777 Y90.096 E140.80345
G1 X129.205 Y90.417 E140.82378
G1 X129.583 Y90.795 E140.8441
G1 X129.904 Y91.223 E140.86443
G1 X130.16 Y91.693 E140.88477
G1 X130.345 Y92.19 E140.90493
G1 X130.461 Y92.717 E140.92544
G1 X130.5 Y93.399 E140.9514
G1 X130.5 Y93.899 E140.9704
G1 X130.5 Y126.241 E142.1996
G1 X130.5 Y126.741 E142.2186
G1 X130.461 Y127.283 E142.23925
G1 X130.347 Y127.806 E142.25959
G1 X130.16 Y128.307 E142.27991
G1 X129.904 Y128.777 E142.30025
G1 X129.583 Y129.205 E142.32058
G1 X129.204 Y129.584 E142.34095
G1 X128.777 Y129.904 E142.36123
G1 X128.307 Y130.16 E142.38157
G1 X127.806 Y130.347 E142.40189
G1 X127.283 Y130.461 E142.42223
G1 X126.741 Y130.5 E142.44288
G1 X126.241 Y130.5 E142.46188
G1 X93.76 Y130.5 E143.69636
G1 X93.26 Y130.5 E143.71536
G1 X92.714 Y130.46 E143.73617
G1 X92.194 Y130.347 E143.75639
G1 X91.701 Y130.163 E143.77639
;WIPE_START
G1 F14400
G1 X91.223 Y129.904 E143.67955
G1 X90.795 Y129.583 E143.58425
G1 X90.417 Y129.205 E143.48903
G1 X90.096 Y128.777 E143.39373
G1 X89.84 Y128.307 E143.2984
G1 X89.797 Y128.191 E143.27639
;WIPE_END
G92 E0
G1 Z.6 F18000
G1 X128.287 Y130.015
G1 Z.4
G1 E.5 F2700
;TYPE:Top solid infill
;WIDTH:0.50196
G1 F9000
G1 X129.328 Y128.974 E.55619
G1 X129.615 Y128.591 E.57446
G1 X129.847 Y128.164 E.59301
G1 X130.038 Y127.615 E.6152
G1 X127.615 Y130.038 E.74599
G1 X127.234 Y130.121 E.76087
G1 X126.856 Y130.148 E.77533
G1 X130.148 Y126.856 E.95303
G1 X130.157 Y126.197 E.97819
G1 X126.197 Y130.157 E1.19195
G1 X125.548 Y130.157 E1.21672
G1 X130.157 Y125.548 E1.46551
G1 X130.157 Y124.899 E1.49028
G1 X124.899 Y130.157 E1.7741
G1 X124.25 Y130.157 E1.79887
G1 X130.157 Y124.25 E2.11773
G1 X130.157 Y123.601 E2.1425
