; generated by PrusaSlicer 2.6.0-alpha5+win64 on 2023-03-16 at 10:45:54 UTC

; 

; external perimeters extrusion width = 0.50mm
; perimeters extrusion width = 0.50mm
; infill extrusion width = 0.50mm
; solid infill extrusion width = 0.50mm
; top infill extrusion width = 0.50mm
; first layer extrusion width = 0.50mm

M107
M190 S60 ; set bed temperature and wait for it to be reached
M104 S215 ; set temperature
;TYPE:Custom
SET_GCODE_VARIABLE MACRO=START_PRINT VARIABLE=bed_temp VALUE=60
SET_GCODE_VARIABLE MACRO=START_PRINT VARIABLE=extruder_temp VALUE=215
START_PRINT
M109 S215 ; set temperature and wait for it to be reached
G21 ; set units to millimeters
G90 ; use absolute coordinates
M82 ; use absolute distances for extrusion
G92 E0
; Filament gcode
M107
;LAYER_CHANGE
;Z:0.2
;HEIGHT:0.2
;BEFORE_LAYER_CHANGE
;0.2


G1 Z.2 F18000
;AFTER_LAYER_CHANGE
;0.2
G1 E-.5 F2700
G92 E0
G1 Z.4 F18000
G1 X66.087 Y85.493
G1 Z.2
G1 E.5 F2700
;TYPE:Skirt/Brim
;WIDTH:0.5
G1 F3600
G1 X67.254 Y84.695 E.55373
G1 X68.522 Y84.071 E.60744
G1 X69.866 Y83.634 E.66115
G1 X71.259 Y83.392 E.71489
G1 X72.25 Y83.336 E.75261
G1 X148.171 Y83.351 E3.63809
G1 X150.133 Y83.633 E3.71342
G1 X151.477 Y84.07 E3.76713
G1 X152.745 Y84.694 E3.82084
G1 X153.455 Y85.15 E3.85291
G1 X154.55 Y86.044 E3.90664
G1 X155.507 Y87.087 E3.96044
G1 X156.577 Y88.751 E4.03563
G1 X157.128 Y90.056 E4.08947
G1 X157.366 Y90.866 E4.12156
G1 X157.607 Y92.253 E4.17506
G1 X157.664 Y93.25 E4.21301
G1 X157.664 Y126.75 E5.48622
G1 X157.608 Y127.741 E5.52394
G1 X157.488 Y128.576 E5.556
G1 X157.129 Y129.943 E5.60972
G1 X156.579 Y131.246 E5.66347
G1 X155.852 Y132.453 E5.71702
G1 X154.553 Y133.953 E5.79244
G1 X153.459 Y134.847 E5.84614
G1 X152.746 Y135.305 E5.87835
G1 X151.478 Y135.929 E5.93206
G1 X150.134 Y136.366 E5.98577
G1 X148.741 Y136.608 E6.03951
G1 X147.75 Y136.664 E6.07723
G1 X71.829 Y136.649 E8.96271
G1 X69.866 Y136.366 E9.03809
G1 X68.522 Y135.929 E9.0918
G1 X67.254 Y135.305 E9.14551
G1 X66.087 Y134.507 E9.19924
G1 X65.046 Y133.552 E9.25293
G1 X64.493 Y132.913 E9.28505
G1 X63.696 Y131.748 E9.3387
G1 X63.071 Y130.479 E9.39246
G1 X62.634 Y129.135 E9.44617
G1 X62.392 Y127.742 E9.49991
G1 X62.336 Y126.75 E9.53767
G1 X62.336 Y93.251 E10.81084
G1 X62.392 Y92.259 E10.8486
G1 X62.633 Y90.868 E10.90225
G1 X63.069 Y89.526 E10.95588
G1 X63.693 Y88.256 E11.00966
G1 X64.151 Y87.544 E11.04184
G1 X65.447 Y86.047 E11.11709
G1 X66.042 Y85.532 E11.147
G1 X66.34 Y85.877 F18000
G1 F3600
G1 X67.473 Y85.096 E11.1993
G1 X68.682 Y84.499 E11.25055
G1 X69.964 Y84.08 E11.30181
G1 X71.292 Y83.848 E11.35305
G1 X72.25 Y83.793 E11.38952
G1 X148.139 Y83.807 E14.27378
G1 X150.036 Y84.08 E14.34662
G1 X151.318 Y84.499 E14.39788
G1 X152.526 Y85.095 E14.44908
G1 X153.181 Y85.516 E14.47867
G1 X154.227 Y86.368 E14.52994
G1 X155.141 Y87.361 E14.58123
G1 X156.176 Y88.97 E14.65394
G1 X156.7 Y90.216 E14.70531
G1 X156.92 Y90.964 E14.73494
G1 X157.151 Y92.286 E14.78595
G1 X157.207 Y93.25 E14.82265
G1 X157.207 Y126.75 E16.09586
G1 X157.152 Y127.708 E16.13233
G1 X157.041 Y128.479 E16.16194
G1 X156.7 Y129.783 E16.21317
G1 X156.178 Y131.026 E16.26441
G1 X155.486 Y132.179 E16.31552
G1 X154.229 Y133.629 E16.38845
G1 X153.185 Y134.481 E16.43966
G1 X152.527 Y134.904 E16.46939
G1 X151.318 Y135.501 E16.52064
G1 X150.036 Y135.92 E16.5719
G1 X148.708 Y136.152 E16.62314
G1 X147.75 Y136.207 E16.65961
G1 X71.861 Y136.193 E19.54387
G1 X70.521 Y136.041 E19.59513
G1 X69.217 Y135.7 E19.64636
G1 X67.473 Y134.904 E19.71922
G1 X66.361 Y134.142 E19.77045
G1 X65.369 Y133.228 E19.82172
G1 X64.859 Y132.639 E19.85133
G1 X64.097 Y131.529 E19.9025
G1 X63.5 Y130.32 E19.95375
G1 X63.081 Y129.038 E20.00501
G1 X62.848 Y127.709 E20.05629
G1 X62.793 Y126.75 E20.0928
G1 X62.793 Y93.251 E21.36597
G1 X62.848 Y92.292 E21.40248
G1 X63.08 Y90.965 E21.45368
G1 X63.497 Y89.686 E21.50481
G1 X64.095 Y88.475 E21.55614
G1 X64.517 Y87.818 E21.58582
G1 X65.771 Y86.371 E21.65859
G1 X66.295 Y85.916 E21.68497
;WIPE_START
G1 F14400
G1 X67.473 Y85.096 E21.42931
G1 X68.682 Y84.499 E21.18913
G1 X68.704 Y84.492 E21.18497
;WIPE_END
G92 E0
G1 Z.4 F18000
G1 X69.795 Y90.417
G1 Z.2
G1 E.5 F2700
;TYPE:External perimeter
;WIDTH:0.499999
G1 F3600
G1 X70.223 Y90.096 E.52033
G1 X70.693 Y89.84 E.54067
G1 X71.194 Y89.653 E.56099
G1 X71.717 Y89.539 E.58133
G1 X72.259 Y89.501 E.60198
G1 X147.742 Y89.501 E3.47081
G1 X148.283 Y89.539 E3.49142
G1 X148.806 Y89.653 E3.51176
G1 X149.307 Y89.84 E3.53208
G1 X149.777 Y90.096 E3.55242
G1 X150.204 Y90.417 E3.57272
G1 X150.583 Y90.795 E3.59306
G1 X150.904 Y91.223 E3.61339
G1 X151.16 Y91.692 E3.6337
G1 X151.347 Y92.194 E3.65406
G1 X151.461 Y92.717 E3.6744
G1 X151.5 Y93.399 E3.70036
G1 X151.5 Y126.741 E4.96757
G1 X151.461 Y127.283 E4.98822
G1 X151.347 Y127.806 E5.00856
G1 X151.16 Y128.307 E5.02888
G1 X150.904 Y128.777 E5.04922
G1 X150.583 Y129.205 E5.06955
G1 X150.205 Y129.583 E5.08987
G1 X149.777 Y129.904 E5.1102
G1 X149.307 Y130.16 E5.13054
G1 X148.806 Y130.347 E5.15086
G1 X148.283 Y130.461 E5.1712
G1 X147.741 Y130.5 E5.19185
G1 X72.259 Y130.5 E8.06064
G1 X71.717 Y130.461 E8.08129
G1 X71.194 Y130.347 E8.10163
G1 X70.693 Y130.16 E8.12195
G1 X70.223 Y129.904 E8.14229
G1 X69.795 Y129.583 E8.16262
G1 X69.417 Y129.205 E8.18294
G1 X69.096 Y128.777 E8.20327
G1 X68.84 Y128.307 E8.22361
G1 X68.653 Y127.806 E8.24393
G1 X68.539 Y127.284 E8.26424
G1 X68.501 Y126.741 E8.28493
G1 X68.501 Y93.259 E9.55746
G1 X68.539 Y92.717 E9.57811
G1 X68.653 Y92.194 E9.59845
G1 X68.84 Y91.693 E9.61877
G1 X69.096 Y91.223 E9.63911
G1 X69.417 Y90.795 E9.65944
G1 X69.753 Y90.459 E9.6775
;WIPE_START
G1 F14400
G1 X70.223 Y90.096 E9.57172
G1 X70.693 Y89.84 E9.47639
G1 X71.194 Y89.653 E9.38114
G1 X71.717 Y89.539 E9.28579
G1 X72.259 Y89.501 E9.18901
G1 X72.324 Y89.501 E9.1775
;WIPE_END
G92 E0
G1 Z.4 F18000
G1 X151.014 Y91.712
G1 Z.2
G1 E.5 F2700
;TYPE:Solid infill
;WIDTH:0.501204
G1 F3600
G1 X149.976 Y90.674 E.55594
G1 X149.591 Y90.385 E.57428
G1 X149.164 Y90.153 E.5928
G1 X148.617 Y89.963 E.61487
G1 X151.037 Y92.383 E.74529
G1 X151.121 Y92.766 E.76023
G1 X151.147 Y93.141 E.77455
G1 X147.859 Y89.853 E.95174
G1 X147.201 Y89.843 E.97682
G1 X151.157 Y93.799 E1.19001
G1 X151.157 Y94.447 E1.2147
G1 X146.553 Y89.843 E1.46281
G1 X145.905 Y89.843 E1.4875
G1 X151.157 Y95.095 E1.77053
G1 X151.157 Y95.743 E1.79522
G1 X145.257 Y89.843 E2.11318
G1 X144.609 Y89.843 E2.13787
G1 X151.157 Y96.391 E2.49075
G1 X151.157 Y97.039 E2.51544
G1 X143.961 Y89.843 E2.90324
G1 X143.313 Y89.843 E2.92793
G1 X151.157 Y97.688 E3.35068
G1 X151.157 Y98.336 E3.37537
G1 X142.664 Y89.843 E3.83306
G1 X142.016 Y89.843 E3.85775
G1 X151.157 Y98.984 E4.35036
G1 X151.157 Y99.632 E4.37505
G1 X141.368 Y89.843 E4.90259
G1 X140.72 Y89.843 E4.92728
G1 X151.157 Y100.28 E5.48974
G1 X151.157 Y100.928 E5.51443
G1 X140.072 Y89.843 E6.11181
G1 X139.424 Y89.843 E6.1365
G1 X151.157 Y101.576 E6.7688
G1 X151.157 Y102.224 E6.79349
G1 X138.776 Y89.843 E7.46071
G1 X138.128 Y89.843 E7.4854
G1 X151.157 Y102.872 E8.18754
G1 X151.157 Y103.521 E8.21227
G1 X137.48 Y89.843 E8.94936
G1 X136.831 Y89.843 E8.97409
G1 X151.157 Y104.169 E9.74613
G1 X151.157 Y104.817 E9.77082
G1 X136.183 Y89.843 E10.57778
G1 X135.535 Y89.843 E10.60247
G1 X151.157 Y105.465 E11.44435
G1 X151.157 Y106.113 E11.46904
G1 X134.887 Y89.843 E12.34584
G1 X134.239 Y89.843 E12.37053
G1 X151.157 Y106.761 E13.28225
G1 X151.157 Y107.409 E13.30694
G1 X133.591 Y89.843 E14.25358
G1 X132.943 Y89.843 E14.27827
G1 X151.157 Y108.057 E15.25983
G1 X151.157 Y108.705 E15.28452
G1 X132.295 Y89.843 E16.30101
G1 X131.647 Y89.843 E16.3257
G1 X151.157 Y109.354 E17.37713
G1 X151.157 Y110.002 E17.40182
G1 X130.998 Y89.843 E18.4882
G1 X130.35 Y89.843 E18.51289
G1 X151.157 Y110.65 E19.63419
G1 X151.157 Y111.298 E19.65888
G1 X129.702 Y89.843 E20.8151
G1 X129.054 Y89.843 E20.83979
G1 X151.157 Y111.946 E22.03094
G1 X151.157 Y112.594 E22.05563
G1 X128.406 Y89.843 E23.2817
G1 X127.758 Y89.843 E23.30639
G1 X151.157 Y113.242 E24.56738
G1 X151.157 Y113.89 E24.59207
G1 X127.11 Y89.843 E25.88798
G1 X126.462 Y89.843 E25.91267
G1 X151.157 Y114.538 E27.2435
G1 X151.157 Y115.187 E27.26823
G1 X125.814 Y89.843 E28.63401
G1 X125.165 Y89.843 E28.65874
G1 X151.157 Y115.835 E30.05947
G1 X151.157 Y116.483 E30.08416
G1 X124.517 Y89.843 E31.51981
G1 X123.869 Y89.843 E31.5445
G1 X151.157 Y117.131 E33.01507
G1 X151.157 Y117.779 E33.03976
G1 X123.221 Y89.843 E34.54525
G1 X122.573 Y89.843 E34.56994
G1 X151.157 Y118.427 E36.11035
G1 X151.157 Y119.075 E36.13504
G1 X121.925 Y89.843 E37.71037
G1 X121.277 Y89.843 E37.73506
G1 X151.157 Y119.723 E39.34531
G1 X151.157 Y120.371 E39.37
G1 X120.629 Y89.843 E41.01517
G1 X119.981 Y89.843 E41.03986
G1 X151.157 Y121.02 E42.71998
G1 X151.157 Y121.668 E42.74467
G1 X119.332 Y89.843 E44.45974
G1 X118.684 Y89.843 E44.48443
G1 X151.157 Y122.316 E46.23442
G1 X151.157 Y122.964 E46.25911
G1 X118.036 Y89.843 E48.04402
G1 X117.388 Y89.843 E48.06871
G1 X151.157 Y123.612 E49.88854
G1 X151.157 Y124.26 E49.91323
G1 X116.74 Y89.843 E51.76799
G1 X116.092 Y89.843 E51.79268
G1 X151.157 Y124.908 E53.68236
G1 X151.157 Y125.556 E53.70705
G1 X115.444 Y89.843 E55.63165
G1 X114.796 Y89.843 E55.65634
G1 X151.157 Y126.204 E57.61586
G1 X151.148 Y126.844 E57.64025
G1 X114.148 Y89.843 E59.63423
G1 X113.499 Y89.843 E59.65896
G1 X151.079 Y127.423 E61.68417
G1 X151.017 Y127.709 E61.69532
G1 X150.936 Y127.928 E61.70422
G1 X112.851 Y89.843 E63.75665
G1 X112.203 Y89.843 E63.78134
G1 X150.733 Y128.373 E65.85775
G1 X150.615 Y128.591 E65.8672
G1 X150.481 Y128.769 E65.87569
G1 X111.555 Y89.843 E67.97344
G1 X110.907 Y89.843 E67.99813
G1 X150.183 Y129.12 E70.11477
G1 X149.98 Y129.323 E70.12571
G1 X149.842 Y129.426 E70.13227
G1 X110.259 Y89.843 E72.26543
G1 X109.611 Y89.843 E72.29012
G1 X149.456 Y129.688 E74.43739
G1 X149.164 Y129.847 E74.45006
G1 X149.02 Y129.901 E74.45592
G1 X108.963 Y89.843 E76.61465
G1 X108.315 Y89.843 E76.63934
G1 X148.528 Y130.057 E78.80647
G1 X148.234 Y130.121 E78.81794
G1 X147.963 Y130.14 E78.82829
G1 X107.666 Y89.843 E80.99992
G1 X107.018 Y89.843 E81.02461
G1 X147.332 Y130.157 E83.19716
G1 X146.683 Y130.157 E83.22189
G1 X106.37 Y89.843 E85.39441
G1 X105.722 Y89.843 E85.4191
G1 X146.035 Y130.157 E87.59162
G1 X145.387 Y130.157 E87.61631
G1 X105.074 Y89.843 E89.78883
G1 X104.426 Y89.843 E89.81352
G1 X144.739 Y130.157 E91.98604
G1 X144.091 Y130.157 E92.01073
G1 X103.778 Y89.843 E94.18325
G1 X103.13 Y89.843 E94.20794
G1 X143.443 Y130.157 E96.38046
G1 X142.795 Y130.157 E96.40515
G1 X102.481 Y89.843 E98.5777
G1 X101.833 Y89.843 E98.60239
G1 X142.147 Y130.157 E100.77494
G1 X141.499 Y130.157 E100.79963
G1 X101.185 Y89.843 E102.97218
G1 X100.537 Y89.843 E102.99687
G1 X140.85 Y130.157 E105.16939
G1 X140.202 Y130.157 E105.19408
G1 X99.889 Y89.843 E107.3666
G1 X99.241 Y89.843 E107.39129
G1 X139.554 Y130.157 E109.56381
G1 X138.906 Y130.157 E109.5885
G1 X98.593 Y89.843 E111.76102
G1 X97.945 Y89.843 E111.78571
G1 X138.258 Y130.157 E113.95823
G1 X137.61 Y130.157 E113.98292
G1 X97.297 Y89.843 E116.15544
G1 X96.648 Y89.843 E116.18017
G1 X136.962 Y130.157 E118.35272
G1 X136.314 Y130.157 E118.37741
G1 X96 Y89.843 E120.54996
G1 X95.352 Y89.843 E120.57465
G1 X135.666 Y130.157 E122.7472
G1 X135.017 Y130.157 E122.77193
G1 X94.704 Y89.843 E124.94445
G1 X94.056 Y89.843 E124.96914
G1 X134.369 Y130.157 E127.14166
G1 X133.721 Y130.157 E127.16635
G1 X93.408 Y89.843 E129.33887
G1 X92.76 Y89.843 E129.36356
G1 X133.073 Y130.157 E131.53608
G1 X132.425 Y130.157 E131.56077
G1 X92.112 Y89.843 E133.73329
G1 X91.464 Y89.843 E133.75798
G1 X131.777 Y130.157 E135.9305
G1 X131.129 Y130.157 E135.95519
G1 X90.815 Y89.843 E138.12774
G1 X90.167 Y89.843 E138.15243
G1 X130.481 Y130.157 E140.32498
G1 X129.833 Y130.157 E140.34967
G1 X89.519 Y89.843 E142.52222
G1 X88.871 Y89.843 E142.54691
G1 X129.184 Y130.157 E144.71943
G1 X128.536 Y130.157 E144.74412
G1 X88.223 Y89.843 E146.91664
G1 X87.575 Y89.843 E146.94133
G1 X127.888 Y130.157 E149.11385
G1 X127.24 Y130.157 E149.13854
G1 X86.927 Y89.843 E151.31106
G1 X86.279 Y89.843 E151.33575
G1 X126.592 Y130.157 E153.50827
G1 X125.944 Y130.157 E153.53296
G1 X85.631 Y89.843 E155.70548
G1 X84.982 Y89.843 E155.73021
G1 X125.296 Y130.157 E157.90276
G1 X124.648 Y130.157 E157.92745
G1 X84.334 Y89.843 E160.1
G1 X83.686 Y89.843 E160.12469
G1 X124 Y130.157 E162.29724
G1 X123.351 Y130.157 E162.32197
G1 X83.038 Y89.843 E164.49449
G1 X82.39 Y89.843 E164.51918
G1 X122.703 Y130.157 E166.6917
G1 X122.055 Y130.157 E166.71639
G1 X81.742 Y89.843 E168.88891
G1 X81.094 Y89.843 E168.9136
G1 X121.407 Y130.157 E171.08612
G1 X120.759 Y130.157 E171.11081
G1 X80.446 Y89.843 E173.28333
G1 X79.798 Y89.843 E173.30802
G1 X120.111 Y130.157 E175.48054
G1 X119.463 Y130.157 E175.50523
G1 X79.149 Y89.843 E177.67778
G1 X78.501 Y89.843 E177.70247
G1 X118.815 Y130.157 E179.87502
G1 X118.167 Y130.157 E179.89971
G1 X77.853 Y89.843 E182.07226
G1 X77.205 Y89.843 E182.09695
G1 X117.518 Y130.157 E184.26947
G1 X116.87 Y130.157 E184.29416
G1 X76.557 Y89.843 E186.46668
G1 X75.909 Y89.843 E186.49137
G1 X116.222 Y130.157 E188.66389
G1 X115.574 Y130.157 E188.68858
G1 X75.261 Y89.843 E190.8611
G1 X74.613 Y89.843 E190.88579
G1 X114.926 Y130.157 E193.05831
G1 X114.278 Y130.157 E193.083
G1 X73.965 Y89.843 E195.25552
G1 X73.316 Y89.843 E195.28025
G1 X113.63 Y130.157 E197.4528
G1 X112.982 Y130.157 E197.47749
G1 X72.668 Y89.843 E199.65004
G1 X72.037 Y89.86 E199.67409
G1 X112.334 Y130.157 E201.84572
G1 X111.685 Y130.157 E201.87045
G1 X71.472 Y89.943 E204.03758
G1 X71.291 Y89.983 E204.04464
G1 X70.98 Y90.099 E204.05729
G1 X111.037 Y130.157 E206.21602
G1 X110.389 Y130.157 E206.24071
G1 X70.544 Y90.312 E208.38798
G1 X70.409 Y90.385 E208.39383
G1 X70.158 Y90.574 E208.4058
G1 X109.741 Y130.157 E210.53896
G1 X109.093 Y130.157 E210.56365
G1 X69.817 Y90.88 E212.68029
G1 X69.677 Y91.02 E212.68783
G1 X69.519 Y91.231 E212.69787
G1 X108.445 Y130.157 E214.79562
G1 X107.797 Y130.157 E214.82031
G1 X69.267 Y91.627 E216.89672
G1 X69.153 Y91.836 E216.90579
G1 X69.064 Y92.072 E216.9154
G1 X107.149 Y130.157 E218.96783
G1 X106.501 Y130.157 E218.99252
G1 X68.921 Y92.577 E221.01773
G1 X68.879 Y92.766 E221.02511
G1 X68.852 Y93.156 E221.04001
G1 X105.852 Y130.157 E223.03399
G1 X105.204 Y130.157 E223.05868
G1 X68.843 Y93.796 E225.0182
G1 X68.843 Y94.444 E225.04289
G1 X104.556 Y130.157 E226.96749
G1 X103.908 Y130.157 E226.99218
G1 X68.843 Y95.092 E228.88186
G1 X68.843 Y95.74 E228.90655
G1 X103.26 Y130.157 E230.76131
G1 X102.612 Y130.157 E230.786
G1 X68.843 Y96.388 E232.60583
G1 X68.843 Y97.036 E232.63052
G1 X101.964 Y130.157 E234.41543
G1 X101.316 Y130.157 E234.44012
G1 X68.843 Y97.684 E236.19011
G1 X68.843 Y98.332 E236.2148
G1 X100.668 Y130.157 E237.92987
G1 X100.019 Y130.157 E237.9546
G1 X68.843 Y98.981 E239.6347
G1 X68.843 Y99.629 E239.65939
G1 X99.371 Y130.157 E241.30456
G1 X98.723 Y130.157 E241.32925
G1 X68.843 Y100.277 E242.9395
G1 X68.843 Y100.925 E242.96419
G1 X98.075 Y130.157 E244.53952
G1 X97.427 Y130.157 E244.56421
G1 X68.843 Y101.573 E246.10462
G1 X68.843 Y102.221 E246.12931
G1 X96.779 Y130.157 E247.6348
G1 X96.131 Y130.157 E247.65949
G1 X68.843 Y102.869 E249.13006
G1 X68.843 Y103.517 E249.15475
G1 X95.483 Y130.157 E250.5904
G1 X94.835 Y130.157 E250.61509
G1 X68.843 Y104.165 E252.01582
G1 X68.843 Y104.814 E252.04055
G1 X94.186 Y130.157 E253.4063
G1 X93.538 Y130.157 E253.43099
G1 X68.843 Y105.462 E254.76182
G1 X68.843 Y106.11 E254.78651
G1 X92.89 Y130.157 E256.08242
G1 X92.242 Y130.157 E256.10711
G1 X68.843 Y106.758 E257.3681
G1 X68.843 Y107.406 E257.39279
G1 X91.594 Y130.157 E258.61886
G1 X90.946 Y130.157 E258.64355
G1 X68.843 Y108.054 E259.8347
G1 X68.843 Y108.702 E259.85939
G1 X90.298 Y130.157 E261.01561
G1 X89.65 Y130.157 E261.0403
G1 X68.843 Y109.35 E262.1616
G1 X68.843 Y109.998 E262.18629
G1 X89.002 Y130.157 E263.27267
G1 X88.353 Y130.157 E263.2974
G1 X68.843 Y110.647 E264.34881
G1 X68.843 Y111.295 E264.3735
G1 X87.705 Y130.157 E265.38999
G1 X87.057 Y130.157 E265.41468
G1 X68.843 Y111.943 E266.39624
G1 X68.843 Y112.591 E266.42093
G1 X86.409 Y130.157 E267.36757
G1 X85.761 Y130.157 E267.39226
G1 X68.843 Y113.239 E268.30398
G1 X68.843 Y113.887 E268.32867
