; generated by PrusaSlicer 2.6.0-alpha5+win64 on 2023-03-15 at 19:24:36 UTC

; 

; external perimeters extrusion width = 0.50mm
; perimeters extrusion width = 0.50mm
; infill extrusion width = 0.50mm
; solid infill extrusion width = 0.50mm
; top infill extrusion width = 0.50mm
; first layer extrusion width = 0.50mm

M107
M190 S60 ; set bed temperature and wait for it to be reached
M104 S215 ; set temperature
;TYPE:Custom
SET_GCODE_VARIABLE MACRO=START_PRINT VARIABLE=bed_temp VALUE=60
SET_GCODE_VARIABLE MACRO=START_PRINT VARIABLE=extruder_temp VALUE=215
START_PRINT
M109 S215 ; set temperature and wait for it to be reached
G21 ; set units to millimeters
G90 ; use absolute coordinates
M82 ; use absolute distances for extrusion
G92 E0
; Filament gcode
M107
;LAYER_CHANGE
;Z:0.2
;HEIGHT:0.2
;BEFORE_LAYER_CHANGE
;0.2


G1 Z.2 F18000
;AFTER_LAYER_CHANGE
;0.2
G1 E-.5 F2700
G92 E0
G1 Z.4 F18000
G1 X66.087 Y85.493
G1 Z.2
G1 E.5 F2700
;TYPE:Skirt/Brim
;WIDTH:0.5
G1 F3600
G1 X67.254 Y84.695 E.55373
G1 X68.522 Y84.071 E.60744
G1 X69.866 Y83.634 E.66115
G1 X71.259 Y83.392 E.71489
G1 X72.25 Y83.336 E.75261
G1 X148.171 Y83.351 E3.63809
G1 X150.132 Y83.633 E3.71339
G1 X151.477 Y84.07 E3.76714
G1 X152.744 Y84.694 E3.82082
G1 X153.454 Y85.15 E3.85289
G1 X154.549 Y86.044 E3.90662
G1 X155.507 Y87.087 E3.96044
G1 X156.578 Y88.754 E4.03575
G1 X156.928 Y89.52 E4.06776
G1 X157.364 Y90.858 E4.12124
G1 X157.608 Y92.259 E4.17529
G1 X157.664 Y93.251 E4.21305
G1 X157.664 Y126.75 E5.48622
G1 X157.608 Y127.741 E5.52394
G1 X157.488 Y128.576 E5.556
G1 X157.129 Y129.943 E5.60972
G1 X156.305 Y131.746 E5.68506
G1 X155.507 Y132.913 E5.73879
G1 X154.553 Y133.952 E5.7924
G1 X153.46 Y134.846 E5.84607
G1 X152.746 Y135.305 E5.87833
G1 X151.478 Y135.929 E5.93204
G1 X150.134 Y136.366 E5.98575
G1 X148.741 Y136.608 E6.03949
G1 X147.75 Y136.664 E6.07721
G1 X71.829 Y136.649 E8.96269
G1 X69.866 Y136.366 E9.03807
G1 X68.522 Y135.929 E9.09178
G1 X67.254 Y135.305 E9.14549
G1 X66.088 Y134.508 E9.19917
G1 X65.047 Y133.552 E9.25289
G1 X64.493 Y132.913 E9.28503
G1 X63.695 Y131.746 E9.33876
G1 X63.071 Y130.478 E9.39247
G1 X62.634 Y129.134 E9.44618
G1 X62.392 Y127.743 E9.49984
G1 X62.336 Y126.75 E9.53764
G1 X62.336 Y93.251 E10.81081
G1 X62.392 Y92.259 E10.84857
G1 X62.512 Y91.424 E10.88063
G1 X62.869 Y90.063 E10.93411
G1 X63.695 Y88.254 E11.00969
G1 X64.491 Y87.089 E11.06332
G1 X65.446 Y86.048 E11.11701
G1 X66.042 Y85.532 E11.14697
G1 X66.34 Y85.877 F18000
G1 F3600
G1 X67.473 Y85.096 E11.19927
G1 X68.682 Y84.499 E11.25052
G1 X69.964 Y84.08 E11.30178
G1 X71.292 Y83.848 E11.35302
G1 X72.25 Y83.793 E11.38949
G1 X148.139 Y83.807 E14.27375
G1 X150.035 Y84.08 E14.34655
G1 X151.317 Y84.499 E14.39781
G1 X152.525 Y85.095 E14.44901
G1 X153.181 Y85.516 E14.47863
G1 X154.226 Y86.367 E14.52985
G1 X155.141 Y87.361 E14.5812
G1 X156.177 Y88.973 E14.65403
G1 X156.5 Y89.68 E14.68357
G1 X156.918 Y90.956 E14.7346
G1 X157.152 Y92.292 E14.78615
G1 X157.207 Y93.251 E14.82266
G1 X157.207 Y126.75 E16.09583
G1 X157.152 Y127.708 E16.1323
G1 X157.041 Y128.479 E16.16191
G1 X156.7 Y129.783 E16.21314
G1 X155.904 Y131.527 E16.286
G1 X155.141 Y132.639 E16.33726
G1 X154.23 Y133.629 E16.38839
G1 X153.186 Y134.48 E16.43958
G1 X152.527 Y134.904 E16.46936
G1 X151.318 Y135.501 E16.52061
G1 X150.036 Y135.92 E16.57187
G1 X148.708 Y136.152 E16.62311
G1 X147.75 Y136.207 E16.65958
G1 X71.861 Y136.193 E19.54384
G1 X69.964 Y135.92 E19.61668
G1 X68.682 Y135.501 E19.66794
G1 X67.473 Y134.904 E19.71919
G1 X66.362 Y134.142 E19.77039
G1 X65.37 Y133.229 E19.82163
G1 X64.859 Y132.639 E19.85129
G1 X64.096 Y131.527 E19.90255
G1 X63.499 Y130.318 E19.9538
G1 X63.08 Y129.036 E20.00506
G1 X62.848 Y127.71 E20.05622
G1 X62.793 Y126.75 E20.09277
G1 X62.793 Y93.251 E21.36594
G1 X62.848 Y92.292 E21.40245
G1 X62.959 Y91.521 E21.43206
G1 X63.298 Y90.222 E21.48308
G1 X64.096 Y88.473 E21.55615
G1 X64.857 Y87.363 E21.6073
G1 X65.77 Y86.371 E21.65854
G1 X66.295 Y85.916 E21.68494
;WIPE_START
G1 F14400
G1 X67.473 Y85.096 E21.42928
G1 X68.682 Y84.499 E21.1891
G1 X68.704 Y84.492 E21.18494
;WIPE_END
G92 E0
G1 Z.4 F18000
G1 X69.795 Y90.417
G1 Z.2
G1 E.5 F2700
;TYPE:External perimeter
;WIDTH:0.499999
G1 F3600
G1 X70.223 Y90.096 E.52033
G1 X70.693 Y89.84 E.54067
G1 X71.194 Y89.653 E.56099
G1 X71.717 Y89.539 E.58133
G1 X72.259 Y89.501 E.60198
G1 X147.743 Y89.501 E3.47085
G1 X148.283 Y89.539 E3.49142
G1 X148.806 Y89.653 E3.51176
G1 X149.307 Y89.84 E3.53208
G1 X149.777 Y90.096 E3.55242
G1 X150.204 Y90.416 E3.5727
G1 X150.583 Y90.795 E3.59307
G1 X150.904 Y91.223 E3.6134
G1 X151.16 Y91.693 E3.63374
G1 X151.346 Y92.191 E3.65394
G1 X151.461 Y92.717 E3.6744
G1 X151.5 Y93.399 E3.70036
G1 X151.5 Y126.741 E4.96757
G1 X151.461 Y127.283 E4.98822
G1 X151.347 Y127.806 E5.00856
G1 X151.16 Y128.307 E5.02888
G1 X150.904 Y128.777 E5.04922
G1 X150.583 Y129.205 E5.06955
G1 X150.205 Y129.583 E5.08987
G1 X149.777 Y129.904 E5.1102
G1 X149.307 Y130.16 E5.13054
G1 X148.806 Y130.347 E5.15086
G1 X148.283 Y130.461 E5.1712
G1 X147.741 Y130.499 E5.19185
G1 X72.259 Y130.5 E8.06064
G1 X71.717 Y130.461 E8.08129
G1 X71.194 Y130.347 E8.10163
G1 X70.693 Y130.16 E8.12195
G1 X70.223 Y129.904 E8.14229
G1 X69.795 Y129.583 E8.16262
G1 X69.417 Y129.205 E8.18294
G1 X69.096 Y128.777 E8.20327
G1 X68.84 Y128.307 E8.22361
G1 X68.653 Y127.806 E8.24393
G1 X68.539 Y127.284 E8.26424
G1 X68.501 Y126.741 E8.28493
G1 X68.501 Y93.259 E9.55746
G1 X68.539 Y92.717 E9.57811
G1 X68.653 Y92.194 E9.59845
G1 X68.84 Y91.693 E9.61877
G1 X69.096 Y91.223 E9.63911
G1 X69.417 Y90.795 E9.65944
G1 X69.753 Y90.459 E9.6775
;WIPE_START
G1 F14400
G1 X70.223 Y90.096 E9.57172
G1 X70.693 Y89.84 E9.47639
G1 X71.194 Y89.653 E9.38114
G1 X71.717 Y89.539 E9.28579
G1 X72.259 Y89.501 E9.18901
G1 X72.324 Y89.501 E9.1775
;WIPE_END
G92 E0
G1 Z.4 F18000
G1 X149.288 Y89.986
G1 Z.2
G1 E.5 F2700
;TYPE:Solid infill
;WIDTH:0.501204
G1 F3600
G1 X150.326 Y91.024 E.55594
G1 X150.615 Y91.409 E.57428
G1 X150.847 Y91.836 E.5928
G1 X151.037 Y92.383 E.61487
G1 X148.617 Y89.963 E.74529
G1 X148.234 Y89.879 E.76023
G1 X147.859 Y89.853 E.77455
G1 X151.147 Y93.141 E.95174
G1 X151.157 Y93.799 E.97682
G1 X147.201 Y89.843 E1.19001
G1 X146.553 Y89.843 E1.2147
G1 X151.157 Y94.447 E1.46281
G1 X151.157 Y95.095 E1.4875
G1 X145.905 Y89.843 E1.77053
G1 X145.257 Y89.843 E1.79522
G1 X151.157 Y95.743 E2.11318
G1 X151.157 Y96.391 E2.13787
G1 X144.609 Y89.843 E2.49075
G1 X143.961 Y89.843 E2.51544
G1 X151.157 Y97.039 E2.90324
G1 X151.157 Y97.688 E2.92797
G1 X143.313 Y89.843 E3.35072
G1 X142.665 Y89.843 E3.37541
G1 X151.157 Y98.336 E3.83308
G1 X151.157 Y98.984 E3.85777
G1 X142.016 Y89.843 E4.35038
G1 X141.368 Y89.843 E4.37507
G1 X151.157 Y99.632 E4.90261
G1 X151.157 Y100.28 E4.9273
G1 X140.72 Y89.843 E5.48976
G1 X140.072 Y89.843 E5.51445
G1 X151.157 Y100.928 E6.11183
G1 X151.157 Y101.576 E6.13652
G1 X139.424 Y89.843 E6.76882
G1 X138.776 Y89.843 E6.79351
G1 X151.157 Y102.224 E7.46073
G1 X151.157 Y102.872 E7.48542
G1 X138.128 Y89.843 E8.18756
G1 X137.48 Y89.843 E8.21225
G1 X151.157 Y103.521 E8.94934
G1 X151.157 Y104.169 E8.97403
G1 X136.832 Y89.843 E9.74604
G1 X136.183 Y89.843 E9.77077
G1 X151.157 Y104.817 E10.57773
G1 X151.157 Y105.465 E10.60242
G1 X135.535 Y89.843 E11.4443
G1 X134.887 Y89.843 E11.46899
G1 X151.157 Y106.113 E12.34579
G1 X151.157 Y106.761 E12.37048
G1 X134.239 Y89.843 E13.2822
G1 X133.591 Y89.843 E13.30689
G1 X151.157 Y107.409 E14.25353
G1 X151.157 Y108.057 E14.27822
G1 X132.943 Y89.843 E15.25978
G1 X132.295 Y89.843 E15.28447
G1 X151.157 Y108.705 E16.30096
G1 X151.157 Y109.354 E16.32569
G1 X131.647 Y89.843 E17.37712
G1 X130.998 Y89.843 E17.40185
G1 X151.157 Y110.002 E18.48823
G1 X151.157 Y110.65 E18.51292
G1 X130.35 Y89.843 E19.63422
G1 X129.702 Y89.843 E19.65891
G1 X151.157 Y111.298 E20.81513
G1 X151.157 Y111.946 E20.83982
G1 X129.054 Y89.843 E22.03097
G1 X128.406 Y89.843 E22.05566
G1 X151.157 Y112.594 E23.28173
G1 X151.157 Y113.242 E23.30642
G1 X127.758 Y89.843 E24.56741
G1 X127.11 Y89.843 E24.5921
G1 X151.157 Y113.89 E25.88801
G1 X151.157 Y114.538 E25.9127
G1 X126.462 Y89.843 E27.24353
G1 X125.814 Y89.843 E27.26822
G1 X151.157 Y115.187 E28.634
G1 X151.157 Y115.835 E28.65869
G1 X125.165 Y89.843 E30.05942
G1 X124.517 Y89.843 E30.08411
G1 X151.157 Y116.483 E31.51976
G1 X151.157 Y117.131 E31.54445
G1 X123.869 Y89.843 E33.01502
G1 X123.221 Y89.843 E33.03971
G1 X151.157 Y117.779 E34.5452
G1 X151.157 Y118.427 E34.56989
G1 X122.573 Y89.843 E36.1103
G1 X121.925 Y89.843 E36.13499
G1 X151.157 Y119.075 E37.71032
G1 X151.157 Y119.723 E37.73501
G1 X121.277 Y89.843 E39.34526
G1 X120.629 Y89.843 E39.36995
G1 X151.157 Y120.371 E41.01512
G1 X151.157 Y121.02 E41.03985
G1 X119.981 Y89.843 E42.71997
G1 X119.332 Y89.843 E42.7447
G1 X151.157 Y121.668 E44.45977
G1 X151.157 Y122.316 E44.48446
G1 X118.684 Y89.843 E46.23445
G1 X118.036 Y89.843 E46.25914
G1 X151.157 Y122.964 E48.04405
G1 X151.157 Y123.612 E48.06874
G1 X117.388 Y89.843 E49.88857
G1 X116.74 Y89.843 E49.91326
G1 X151.157 Y124.26 E51.76802
G1 X151.157 Y124.908 E51.79271
G1 X116.092 Y89.843 E53.68239
G1 X115.444 Y89.843 E53.70708
G1 X151.157 Y125.556 E55.63168
G1 X151.157 Y126.204 E55.65637
G1 X114.796 Y89.843 E57.61589
G1 X114.148 Y89.843 E57.64058
G1 X151.148 Y126.844 E59.63456
G1 X151.121 Y127.234 E59.64946
G1 X151.079 Y127.423 E59.65684
G1 X113.499 Y89.843 E61.68205
G1 X112.851 Y89.843 E61.70674
G1 X150.936 Y127.928 E63.75917
G1 X150.847 Y128.164 E63.76878
G1 X150.733 Y128.373 E63.77785
G1 X112.203 Y89.843 E65.85426
G1 X111.555 Y89.843 E65.87895
G1 X150.481 Y128.769 E67.9767
G1 X150.323 Y128.98 E67.98674
G1 X150.183 Y129.12 E67.99428
G1 X110.907 Y89.843 E70.11092
G1 X110.259 Y89.843 E70.13561
G1 X149.842 Y129.426 E72.26877
G1 X149.591 Y129.615 E72.28074
G1 X149.456 Y129.688 E72.28659
G1 X109.611 Y89.843 E74.43386
G1 X108.963 Y89.843 E74.45855
G1 X149.02 Y129.901 E76.61728
G1 X148.709 Y130.017 E76.62993
G1 X148.528 Y130.057 E76.63699
G1 X108.315 Y89.843 E78.80412
G1 X107.666 Y89.843 E78.82885
G1 X147.963 Y130.14 E81.00048
G1 X147.332 Y130.157 E81.02453
G1 X107.018 Y89.843 E83.19708
G1 X106.37 Y89.843 E83.22177
G1 X146.683 Y130.157 E85.39429
G1 X146.035 Y130.157 E85.41898
G1 X105.722 Y89.843 E87.5915
G1 X105.074 Y89.843 E87.61619
G1 X145.387 Y130.157 E89.78871
G1 X144.739 Y130.157 E89.8134
G1 X104.426 Y89.843 E91.98592
G1 X103.778 Y89.843 E92.01061
G1 X144.091 Y130.157 E94.18313
G1 X143.443 Y130.157 E94.20782
G1 X103.13 Y89.843 E96.38034
G1 X102.482 Y89.843 E96.40503
G1 X142.795 Y130.157 E98.57755
G1 X142.147 Y130.157 E98.60224
G1 X101.833 Y89.843 E100.77479
G1 X101.185 Y89.843 E100.79948
G1 X141.499 Y130.157 E102.97203
G1 X140.85 Y130.157 E102.99676
G1 X100.537 Y89.843 E105.16928
G1 X99.889 Y89.843 E105.19397
G1 X140.202 Y130.157 E107.36649
G1 X139.554 Y130.157 E107.39118
G1 X99.241 Y89.843 E109.5637
G1 X98.593 Y89.843 E109.58839
G1 X138.906 Y130.157 E111.76091
G1 X138.258 Y130.157 E111.7856
G1 X97.945 Y89.843 E113.95812
G1 X97.297 Y89.843 E113.98281
G1 X137.61 Y130.157 E116.15533
G1 X136.962 Y130.157 E116.18002
G1 X96.649 Y89.843 E118.35254
G1 X96 Y89.843 E118.37727
G1 X136.314 Y130.157 E120.54982
G1 X135.666 Y130.157 E120.57451
G1 X95.352 Y89.843 E122.74706
G1 X94.704 Y89.843 E122.77175
G1 X135.017 Y130.157 E124.94427
G1 X134.369 Y130.157 E124.96896
G1 X94.056 Y89.843 E127.14148
G1 X93.408 Y89.843 E127.16617
G1 X133.721 Y130.157 E129.33869
G1 X133.073 Y130.157 E129.36338
G1 X92.76 Y89.843 E131.5359
G1 X92.112 Y89.843 E131.56059
G1 X132.425 Y130.157 E133.73311
G1 X131.777 Y130.157 E133.7578
G1 X91.464 Y89.843 E135.93032
G1 X90.815 Y89.843 E135.95505
G1 X131.129 Y130.157 E138.1276
G1 X130.481 Y130.157 E138.15229
G1 X90.167 Y89.843 E140.32484
G1 X89.519 Y89.843 E140.34953
G1 X129.833 Y130.157 E142.52208
G1 X129.184 Y130.157 E142.54681
G1 X88.871 Y89.843 E144.71933
G1 X88.223 Y89.843 E144.74402
G1 X128.536 Y130.157 E146.91654
G1 X127.888 Y130.157 E146.94123
G1 X87.575 Y89.843 E149.11375
G1 X86.927 Y89.843 E149.13844
G1 X127.24 Y130.157 E151.31096
G1 X126.592 Y130.157 E151.33565
G1 X86.279 Y89.843 E153.50817
G1 X85.631 Y89.843 E153.53286
G1 X125.944 Y130.157 E155.70538
G1 X125.296 Y130.157 E155.73007
G1 X84.982 Y89.843 E157.90262
G1 X84.334 Y89.843 E157.92731
G1 X124.648 Y130.157 E160.09986
G1 X124 Y130.157 E160.12455
G1 X83.686 Y89.843 E162.2971
G1 X83.038 Y89.843 E162.32179
G1 X123.351 Y130.157 E164.49431
G1 X122.703 Y130.157 E164.519
G1 X82.39 Y89.843 E166.69152
G1 X81.742 Y89.843 E166.71621
G1 X122.055 Y130.157 E168.88873
G1 X121.407 Y130.157 E168.91342
G1 X81.094 Y89.843 E171.08594
G1 X80.446 Y89.843 E171.11063
G1 X120.759 Y130.157 E173.28315
G1 X120.111 Y130.157 E173.30784
G1 X79.798 Y89.843 E175.48036
G1 X79.149 Y89.843 E175.50509
G1 X119.463 Y130.157 E177.67764
G1 X118.815 Y130.157 E177.70233
G1 X78.501 Y89.843 E179.87488
G1 X77.853 Y89.843 E179.89957
G1 X118.167 Y130.157 E182.07212
G1 X117.518 Y130.157 E182.09685
G1 X77.205 Y89.843 E184.26937
G1 X76.557 Y89.843 E184.29406
G1 X116.87 Y130.157 E186.46658
G1 X116.222 Y130.157 E186.49127
G1 X75.909 Y89.843 E188.66379
G1 X75.261 Y89.843 E188.68848
G1 X115.574 Y130.157 E190.861
G1 X114.926 Y130.157 E190.88569
G1 X74.613 Y89.843 E193.05821
G1 X73.965 Y89.843 E193.0829
G1 X114.278 Y130.157 E195.25542
G1 X113.63 Y130.157 E195.28011
G1 X73.316 Y89.843 E197.45266
G1 X72.668 Y89.843 E197.47735
G1 X112.982 Y130.157 E199.6499
G1 X112.334 Y130.157 E199.67459
G1 X72.037 Y89.86 E201.84622
G1 X71.766 Y89.879 E201.85657
G1 X71.472 Y89.943 E201.86804
G1 X111.685 Y130.157 E204.03517
G1 X111.037 Y130.157 E204.05986
G1 X70.98 Y90.099 E206.21859
G1 X70.836 Y90.153 E206.22445
G1 X70.544 Y90.312 E206.23712
G1 X110.389 Y130.157 E208.38439
G1 X109.741 Y130.157 E208.40908
G1 X70.158 Y90.574 E210.54224
G1 X70.02 Y90.677 E210.5488
G1 X69.817 Y90.88 E210.55974
G1 X109.093 Y130.157 E212.67638
G1 X108.445 Y130.157 E212.70107
G1 X69.519 Y91.231 E214.79882
G1 X69.385 Y91.409 E214.80731
G1 X69.267 Y91.627 E214.81676
G1 X107.797 Y130.157 E216.89317
G1 X107.149 Y130.157 E216.91786
G1 X69.064 Y92.072 E218.97029
G1 X68.983 Y92.291 E218.97919
G1 X68.921 Y92.577 E218.99034
G1 X106.501 Y130.157 E221.01555
G1 X105.852 Y130.157 E221.04028
G1 X68.852 Y93.156 E223.03426
G1 X68.843 Y93.796 E223.05865
G1 X105.204 Y130.157 E225.01817
G1 X104.556 Y130.157 E225.04286
G1 X68.843 Y94.444 E226.96746
G1 X68.843 Y95.092 E226.99215
G1 X103.908 Y130.157 E228.88183
G1 X103.26 Y130.157 E228.90652
G1 X68.843 Y95.74 E230.76128
G1 X68.843 Y96.388 E230.78597
G1 X102.612 Y130.157 E232.6058
G1 X101.964 Y130.157 E232.63049
G1 X68.843 Y97.036 E234.4154
G1 X68.843 Y97.684 E234.44009
G1 X101.316 Y130.157 E236.19008
G1 X100.668 Y130.157 E236.21477
G1 X68.843 Y98.332 E237.92984
G1 X68.843 Y98.981 E237.95457
G1 X100.019 Y130.157 E239.63467
G1 X99.371 Y130.157 E239.65936
G1 X68.843 Y99.629 E241.30453
G1 X68.843 Y100.277 E241.32922
G1 X98.723 Y130.157 E242.93947
G1 X98.075 Y130.157 E242.96416
G1 X68.843 Y100.925 E244.53949
G1 X68.843 Y101.573 E244.56418
G1 X97.427 Y130.157 E246.10459
G1 X96.779 Y130.157 E246.12928
G1 X68.843 Y102.221 E247.63477
G1 X68.843 Y102.869 E247.65946
G1 X96.131 Y130.157 E249.13003
G1 X95.483 Y130.157 E249.15472
G1 X68.843 Y103.517 E250.59037
G1 X68.843 Y104.165 E250.61506
G1 X94.835 Y130.157 E252.01579
G1 X94.186 Y130.157 E252.04052
G1 X68.843 Y104.814 E253.40627
G1 X68.843 Y105.462 E253.43096
G1 X93.538 Y130.157 E254.76179
G1 X92.89 Y130.157 E254.78648
G1 X68.843 Y106.11 E256.08239
G1 X68.843 Y106.758 E256.10708
G1 X92.242 Y130.157 E257.36807
G1 X91.594 Y130.157 E257.39276
G1 X68.843 Y107.406 E258.61883
G1 X68.843 Y108.054 E258.64352
G1 X90.946 Y130.157 E259.83467
G1 X90.298 Y130.157 E259.85936
G1 X68.843 Y108.702 E261.01558
G1 X68.843 Y109.35 E261.04027
G1 X89.65 Y130.157 E262.16157
G1 X89.002 Y130.157 E262.18626
G1 X68.843 Y109.998 E263.27264
G1 X68.843 Y110.647 E263.29737
G1 X88.353 Y130.157 E264.34878
G1 X87.705 Y130.157 E264.37347
G1 X68.843 Y111.295 E265.38996
G1 X68.843 Y111.943 E265.41465
G1 X87.057 Y130.157 E266.39621
G1 X86.409 Y130.157 E266.4209
G1 X68.843 Y112.591 E267.36754
G1 X68.843 Y113.239 E267.39223
G1 X85.761 Y130.157 E268.30395
G1 X85.113 Y130.157 E268.32864
