; generated by PrusaSlicer 2.6.0-alpha5+win64 on 2023-03-15 at 19:20:38 UTC

; 

; external perimeters extrusion width = 0.50mm
; perimeters extrusion width = 0.50mm
; infill extrusion width = 0.50mm
; solid infill extrusion width = 0.50mm
; top infill extrusion width = 0.50mm
; first layer extrusion width = 0.50mm

M107
M190 S60 ; set bed temperature and wait for it to be reached
M104 S215 ; set temperature
;TYPE:Custom
SET_GCODE_VARIABLE MACRO=START_PRINT VARIABLE=bed_temp VALUE=60
SET_GCODE_VARIABLE MACRO=START_PRINT VARIABLE=extruder_temp VALUE=215
START_PRINT
M109 S215 ; set temperature and wait for it to be reached
G21 ; set units to millimeters
G90 ; use absolute coordinates
M82 ; use absolute distances for extrusion
G92 E0
; Filament gcode
M107
;LAYER_CHANGE
;Z:0.2
;HEIGHT:0.2
;BEFORE_LAYER_CHANGE
;0.2


G1 Z.2 F18000
;AFTER_LAYER_CHANGE
;0.2
G1 E-.5 F2700
G92 E0
G1 Z.4 F18000
G1 X66.285 Y66.848
G1 Z.2
G1 E.5 F2700
;TYPE:Skirt/Brim
;WIDTH:0.5
G1 F3600
G1 X67.784 Y65.548 E.57541
G1 X68.999 Y64.815 E.62934
G1 X69.766 Y64.465 E.66138
G1 X71.11 Y64.027 E.7151
G1 X73.073 Y63.745 E.79047
G1 X149.415 Y63.745 E3.69195
G1 X151.376 Y64.027 E3.76725
G1 X152.722 Y64.465 E3.82105
G1 X153.49 Y64.815 E3.85313
G1 X154.698 Y65.543 E3.90673
G1 X155.793 Y66.438 E3.96048
G1 X156.751 Y67.481 E4.0143
G1 X157.822 Y69.147 E4.08957
G1 X158.172 Y69.914 E4.12161
G1 X158.608 Y71.252 E4.17509
G1 X158.852 Y72.653 E4.22914
G1 X158.908 Y73.644 E4.26686
G1 X158.908 Y149.143 E7.1363
G1 X158.732 Y150.97 E7.20606
G1 X158.173 Y152.872 E7.28141
G1 X157.823 Y153.639 E7.31345
G1 X157.093 Y154.85 E7.36719
G1 X156.199 Y155.945 E7.42092
G1 X154.7 Y157.243 E7.49628
G1 X153.49 Y157.973 E7.54999
G1 X152.722 Y158.323 E7.58207
G1 X150.82 Y158.882 E7.65742
G1 X148.994 Y159.057 E7.72714
G1 X73.495 Y159.057 E10.59658
G1 X71.668 Y158.882 E10.66634
G1 X69.766 Y158.323 E10.74169
G1 X68.498 Y157.699 E10.7954
G1 X67.788 Y157.243 E10.82747
G1 X66.695 Y156.35 E10.88111
G1 X65.395 Y154.85 E10.95655
G1 X64.665 Y153.639 E11.01029
G1 X64.315 Y152.872 E11.04233
G1 X63.756 Y150.971 E11.11764
G1 X63.58 Y149.144 E11.1874
G1 X63.58 Y73.644 E14.05688
G1 X63.756 Y71.818 E14.1266
G1 X64.313 Y69.922 E14.20171
G1 X64.936 Y68.653 E14.25544
G1 X65.733 Y67.486 E14.30915
G1 X66.246 Y66.893 E14.33895
G1 X66.591 Y67.192 F18000
G1 F3600
G1 X68.058 Y65.914 E14.4129
G1 X69.218 Y65.216 E14.46435
G1 X69.926 Y64.893 E14.49393
G1 X71.208 Y64.474 E14.54519
G1 X73.105 Y64.201 E14.61803
G1 X149.383 Y64.201 E17.51708
G1 X151.279 Y64.474 E17.58988
G1 X152.562 Y64.893 E17.64118
G1 X153.271 Y65.216 E17.67079
G1 X154.425 Y65.909 E17.72195
G1 X155.874 Y67.165 E17.79483
G1 X156.727 Y68.211 E17.84613
G1 X157.148 Y68.866 E17.87572
G1 X157.744 Y70.074 E17.92692
G1 X158.284 Y71.91 E17.99966
G1 X158.437 Y73.255 E18.05111
G1 X158.451 Y149.143 E20.93533
G1 X158.285 Y150.873 E21.00138
G1 X157.745 Y152.712 E21.07422
G1 X157.422 Y153.42 E21.1038
G1 X156.727 Y154.576 E21.15506
G1 X155.875 Y155.622 E21.20633
G1 X154.426 Y156.877 E21.27919
G1 X153.271 Y157.571 E21.3304
G1 X152.562 Y157.895 E21.36003
G1 X150.723 Y158.435 E21.43287
G1 X148.994 Y158.6 E21.49888
G1 X73.495 Y158.6 E24.36832
G1 X71.765 Y158.435 E24.43437
G1 X69.926 Y157.895 E24.50721
G1 X68.717 Y157.298 E24.55846
G1 X68.062 Y156.877 E24.58805
G1 X67.018 Y156.027 E24.63922
G1 X65.761 Y154.576 E24.71218
G1 X65.066 Y153.42 E24.76344
G1 X64.743 Y152.712 E24.79302
G1 X64.203 Y150.873 E24.86586
G1 X64.038 Y149.144 E24.93187
G1 X64.038 Y73.644 E27.80135
G1 X64.203 Y71.915 E27.86736
G1 X64.741 Y70.081 E27.94
G1 X65.337 Y68.872 E27.99123
G1 X66.099 Y67.76 E28.04246
G1 X66.552 Y67.237 E28.06876
;WIPE_START
G1 F14400
G1 X68.058 Y65.914 E27.71169
G1 X68.746 Y65.5 E27.56876
;WIPE_END
G92 E0
G1 Z.4 F18000
G1 X70.661 Y71.189
G1 Z.2
G1 E.5 F2700
;TYPE:External perimeter
;WIDTH:0.499999
G1 F3600
G1 X71.042 Y70.809 E.52045
G1 X71.468 Y70.49 E.54068
G1 X71.937 Y70.234 E.56099
G1 X72.438 Y70.047 E.58131
G1 X72.961 Y69.933 E.60165
G1 X73.504 Y69.894 E.62234
G1 X148.987 Y69.895 E3.49117
G1 X149.527 Y69.933 E3.51174
G1 X150.05 Y70.047 E3.53208
G1 X150.551 Y70.234 E3.5524
G1 X151.021 Y70.49 E3.57274
G1 X151.448 Y70.81 E3.59302
G1 X151.827 Y71.189 E3.61339
G1 X152.148 Y71.617 E3.63372
G1 X152.404 Y72.087 E3.65406
G1 X152.59 Y72.585 E3.67426
G1 X152.705 Y73.111 E3.69472
G1 X152.744 Y73.792 E3.72064
G1 X152.744 Y149.134 E6.58411
G1 X152.705 Y149.677 E6.6048
G1 X152.591 Y150.2 E6.62514
G1 X152.404 Y150.701 E6.64546
G1 X152.148 Y151.17 E6.66577
G1 X151.827 Y151.599 E6.68613
G1 X151.449 Y151.977 E6.70645
G1 X151.021 Y152.297 E6.72676
G1 X150.551 Y152.554 E6.74712
G1 X150.05 Y152.741 E6.76744
G1 X149.527 Y152.855 E6.78778
G1 X148.985 Y152.893 E6.80843
G1 X73.504 Y152.893 E9.67718
G1 X72.961 Y152.855 E9.69787
G1 X72.438 Y152.741 E9.71821
G1 X71.937 Y152.554 E9.73853
G1 X71.468 Y152.297 E9.75886
G1 X71.039 Y151.977 E9.7792
G1 X70.661 Y151.599 E9.79952
G1 X70.34 Y151.17 E9.81988
G1 X70.084 Y150.701 E9.84019
G1 X69.897 Y150.2 E9.86051
G1 X69.784 Y149.678 E9.88081
G1 X69.745 Y149.134 E9.90154
G1 X69.745 Y73.653 E12.77029
G1 X69.783 Y73.111 E12.79094
G1 X69.897 Y72.588 E12.81128
G1 X70.084 Y72.086 E12.83164
G1 X70.34 Y71.617 E12.85195
G1 X70.625 Y71.237 E12.87
;WIPE_START
G1 F14400
G1 X71.042 Y70.809 E12.76356
G1 X71.468 Y70.49 E12.66876
G1 X71.937 Y70.234 E12.57358
G1 X72.438 Y70.047 E12.47833
G1 X72.961 Y69.933 E12.38298
G1 X73.034 Y69.928 E12.37
;WIPE_END
G92 E0
G1 Z.4 F18000
G1 X150.533 Y70.38
G1 Z.2
G1 E.5 F2700
;TYPE:Solid infill
;WIDTH:0.500842
G1 F3600
G1 X151.569 Y71.417 E.55581
G1 X151.859 Y71.803 E.57419
G1 X152.091 Y72.23 E.59269
G1 X152.281 Y72.776 E.6147
G1 X149.862 Y70.357 E.74496
G1 X149.478 Y70.273 E.75993
G1 X149.104 Y70.247 E.7742
G1 X152.391 Y73.534 E.9512
G1 X152.401 Y74.191 E.97622
G1 X148.447 Y70.237 E1.18914
G1 X147.8 Y70.237 E1.21378
G1 X152.401 Y74.839 E1.46156
G1 X152.401 Y75.486 E1.4862
G1 X147.152 Y70.237 E1.76885
G1 X146.504 Y70.237 E1.79352
G1 X152.401 Y76.134 E2.11106
G1 X152.401 Y76.781 E2.1357
G1 X145.857 Y70.237 E2.48808
G1 X145.209 Y70.237 E2.51275
G1 X152.401 Y77.429 E2.90003
G1 X152.401 Y78.077 E2.9247
G1 X144.562 Y70.237 E3.34684
G1 X143.914 Y70.237 E3.37151
G1 X152.401 Y78.724 E3.82852
G1 X152.401 Y79.372 E3.85319
G1 X143.266 Y70.237 E4.34509
G1 X142.619 Y70.237 E4.36973
G1 X152.401 Y80.019 E4.89647
G1 X152.401 Y80.667 E4.92114
G1 X141.971 Y70.237 E5.48278
G1 X141.324 Y70.237 E5.50742
G1 X152.401 Y81.315 E6.10392
G1 X152.401 Y81.962 E6.12856
G1 X140.676 Y70.237 E6.75993
G1 X140.028 Y70.237 E6.7846
G1 X152.401 Y82.61 E7.45086
G1 X152.401 Y83.257 E7.4755
G1 X139.381 Y70.237 E8.1766
G1 X138.733 Y70.237 E8.20127
G1 X152.401 Y83.905 E8.93727
G1 X152.401 Y84.553 E8.96194
G1 X138.086 Y70.237 E9.7328
G1 X137.438 Y70.237 E9.75747
G1 X152.401 Y85.2 E10.5632
G1 X152.401 Y85.848 E10.58787
G1 X136.79 Y70.237 E11.42849
G1 X136.143 Y70.237 E11.45313
G1 X152.401 Y86.495 E12.32859
G1 X152.401 Y87.143 E12.35326
G1 X135.495 Y70.237 E13.26362
G1 X134.848 Y70.237 E13.28826
G1 X152.401 Y87.791 E14.23348
G1 X152.401 Y88.438 E14.25812
G1 X134.2 Y70.237 E15.23821
G1 X133.552 Y70.237 E15.26288
G1 X152.401 Y89.086 E16.27786
G1 X152.401 Y89.733 E16.3025
G1 X132.905 Y70.237 E17.35232
G1 X132.257 Y70.237 E17.37699
G1 X152.401 Y90.381 E18.46171
G1 X152.401 Y91.028 E18.48635
G1 X131.61 Y70.237 E19.60591
G1 X130.962 Y70.237 E19.63058
G1 X152.401 Y91.676 E20.78503
G1 X152.401 Y92.324 E20.8097
G1 X130.314 Y70.237 E21.99904
G1 X129.667 Y70.237 E22.02368
G1 X152.401 Y92.971 E23.24786
G1 X152.401 Y93.619 E23.27253
G1 X129.019 Y70.237 E24.53161
G1 X128.372 Y70.237 E24.55625
G1 X152.401 Y94.266 E25.85017
G1 X152.401 Y94.914 E25.87484
G1 X127.724 Y70.237 E27.20365
G1 X127.076 Y70.237 E27.22832
G1 X152.401 Y95.562 E28.59202
G1 X152.401 Y96.209 E28.61666
G1 X126.429 Y70.237 E30.0152
G1 X125.781 Y70.237 E30.03987
G1 X152.401 Y96.857 E31.47331
G1 X152.401 Y97.504 E31.49795
G1 X125.134 Y70.237 E32.96623
G1 X124.486 Y70.237 E32.9909
G1 X152.401 Y98.152 E34.49407
G1 X152.401 Y98.8 E34.51874
G1 X123.838 Y70.237 E36.0568
G1 X123.191 Y70.237 E36.08144
G1 X152.401 Y99.447 E37.65434
G1 X152.401 Y100.095 E37.67901
G1 X122.543 Y70.237 E39.28681
G1 X121.896 Y70.237 E39.31145
G1 X152.401 Y100.742 E40.95409
G1 X152.401 Y101.39 E40.97876
G1 X121.248 Y70.237 E42.65629
G1 X120.6 Y70.237 E42.68096
G1 X152.401 Y102.038 E44.39338
G1 X152.401 Y102.685 E44.41802
G1 X119.953 Y70.237 E46.16528
G1 X119.305 Y70.237 E46.18995
G1 X152.401 Y103.333 E47.97211
G1 X152.401 Y103.98 E47.99675
G1 X118.658 Y70.237 E49.81375
G1 X118.01 Y70.237 E49.83842
G1 X152.401 Y104.628 E51.69031
G1 X152.401 Y105.276 E51.71498
G1 X117.362 Y70.237 E53.60176
G1 X116.715 Y70.237 E53.6264
G1 X152.401 Y105.923 E55.54802
G1 X152.401 Y106.571 E55.57269
G1 X116.067 Y70.237 E57.52921
G1 X115.42 Y70.237 E57.55385
G1 X152.401 Y107.218 E59.54521
G1 X152.401 Y107.866 E59.56988
G1 X114.772 Y70.237 E61.59613
G1 X114.124 Y70.237 E61.6208
G1 X152.401 Y108.514 E63.68194
G1 X152.401 Y109.161 E63.70658
G1 X113.477 Y70.237 E65.80256
G1 X112.829 Y70.237 E65.82723
G1 X152.401 Y109.809 E67.95811
G1 X152.401 Y110.456 E67.98275
G1 X112.182 Y70.237 E70.14847
G1 X111.534 Y70.237 E70.17314
G1 X152.401 Y111.104 E72.37375
G1 X152.401 Y111.752 E72.39842
G1 X110.886 Y70.237 E74.63392
G1 X110.239 Y70.237 E74.65856
G1 X152.401 Y112.399 E76.9289
G1 X152.401 Y113.047 E76.95357
G1 X109.591 Y70.237 E79.25881
G1 X108.944 Y70.237 E79.28345
G1 X152.401 Y113.694 E81.62353
G1 X152.401 Y114.342 E81.6482
G1 X108.296 Y70.237 E84.02317
G1 X107.648 Y70.237 E84.04784
G1 X152.401 Y114.99 E86.4577
G1 X152.401 Y115.637 E86.48234
G1 X107.001 Y70.237 E88.92704
G1 X106.353 Y70.237 E88.95171
G1 X152.401 Y116.285 E91.43131
G1 X152.401 Y116.932 E91.45595
G1 X105.706 Y70.237 E93.97039
G1 X105.058 Y70.237 E93.99506
G1 X152.401 Y117.58 E96.54439
G1 X152.401 Y118.228 E96.56906
G1 X104.41 Y70.237 E99.15328
G1 X103.763 Y70.237 E99.17792
G1 X152.401 Y118.875 E101.79698
G1 X152.401 Y119.523 E101.82165
G1 X103.115 Y70.237 E104.47561
G1 X102.468 Y70.237 E104.50025
G1 X152.401 Y120.17 E107.18905
G1 X152.401 Y120.818 E107.21372
G1 X101.82 Y70.237 E109.93741
G1 X101.172 Y70.237 E109.96208
G1 X152.401 Y121.466 E112.72066
G1 X152.401 Y122.113 E112.7453
G1 X100.525 Y70.237 E115.53872
G1 X99.877 Y70.237 E115.56339
G1 X152.401 Y122.761 E118.39171
G1 X152.401 Y123.408 E118.41635
G1 X99.23 Y70.237 E121.27951
G1 X98.582 Y70.237 E121.30418
G1 X152.401 Y124.056 E124.20223
G1 X152.401 Y124.704 E124.2269
G1 X97.934 Y70.237 E127.15985
G1 X97.287 Y70.237 E127.18449
G1 X152.401 Y125.351 E130.15227
G1 X152.401 Y125.999 E130.17694
G1 X96.639 Y70.237 E133.17962
G1 X95.991 Y70.237 E133.20429
G1 X152.401 Y126.646 E136.24184
G1 X152.401 Y127.294 E136.26651
G1 X95.344 Y70.237 E139.33892
G1 X94.696 Y70.237 E139.36359
G1 X152.401 Y127.942 E142.4709
G1 X152.401 Y128.589 E142.49554
G1 X94.049 Y70.237 E145.63769
G1 X93.401 Y70.237 E145.66236
G1 X152.401 Y129.237 E148.8394
G1 X152.401 Y129.884 E148.86404
G1 X92.753 Y70.237 E152.07595
G1 X92.106 Y70.237 E152.10059
G1 X152.401 Y130.532 E155.34736
G1 X152.401 Y131.18 E155.37203
G1 X91.458 Y70.237 E158.6537
G1 X90.811 Y70.237 E158.67834
G1 X152.401 Y131.827 E161.99485
G1 X152.401 Y132.475 E162.01952
G1 X90.163 Y70.237 E165.37092
G1 X89.515 Y70.237 E165.39559
G1 X152.401 Y133.122 E168.78186
G1 X152.401 Y133.77 E168.80653
G1 X88.868 Y70.237 E172.22766
G1 X88.22 Y70.237 E172.25233
G1 X152.401 Y134.418 E175.70836
G1 X152.401 Y135.065 E175.733
G1 X87.573 Y70.237 E179.22387
G1 X86.925 Y70.237 E179.24854
G1 X152.401 Y135.713 E182.7743
G1 X152.401 Y136.36 E182.79894
G1 X86.277 Y70.237 E186.35957
G1 X85.63 Y70.237 E186.38421
G1 X152.401 Y137.008 E189.9797
G1 X152.401 Y137.656 E190.00437
G1 X84.982 Y70.237 E193.63476
G1 X84.335 Y70.237 E193.6594
G1 X152.401 Y138.303 E197.32463
G1 X152.401 Y138.951 E197.3493
G1 X83.687 Y70.237 E201.04942
G1 X83.039 Y70.237 E201.07409
G1 X152.401 Y139.598 E204.80908
G1 X152.401 Y140.246 E204.83375
G1 X82.392 Y70.237 E208.6036
G1 X81.744 Y70.237 E208.62827
G1 X152.401 Y140.894 E212.43302
G1 X152.401 Y141.541 E212.45766
G1 X81.097 Y70.237 E216.29725
G1 X80.449 Y70.237 E216.32192
G1 X152.401 Y142.189 E220.1964
G1 X152.401 Y142.836 E220.22104
G1 X79.801 Y70.237 E224.13039
G1 X79.154 Y70.237 E224.15503
G1 X152.401 Y143.484 E228.09924
G1 X152.401 Y144.132 E228.12391
G1 X78.506 Y70.237 E232.10302
G1 X77.859 Y70.237 E232.12766
G1 X152.401 Y144.779 E236.14161
G1 X152.401 Y145.427 E236.16628
G1 X77.211 Y70.237 E240.21512
G1 X76.563 Y70.237 E240.23979
G1 X152.401 Y146.074 E244.3235
G1 X152.401 Y146.722 E244.34817
G1 X75.916 Y70.237 E248.46674
G1 X75.268 Y70.237 E248.49141
G1 X152.401 Y147.37 E252.64488
G1 X152.401 Y148.017 E252.66952
G1 X74.621 Y70.237 E256.85783
G1 X73.973 Y70.237 E256.8825
G1 X152.401 Y148.665 E261.1057
G1 X152.388 Y149.3 E261.12988
G1 X73.338 Y70.25 E265.38657
G1 X73.01 Y70.273 E265.39909
G1 X72.767 Y70.326 E265.40856
G1 X152.312 Y149.871 E269.69191
G1 X152.261 Y150.103 E269.70095
G1 X152.162 Y150.369 E269.71176
G1 X72.269 Y70.476 E274.01385
G1 X72.08 Y70.546 E274.02152
G1 X71.829 Y70.683 E274.03241
G1 X151.955 Y150.809 E278.34704
G1 X151.859 Y150.985 E278.35467
G1 X151.698 Y151.2 E278.3649
G1 X71.438 Y70.94 E282.68675
G1 X71.267 Y71.069 E282.69491
G1 X71.093 Y71.242 E282.70425
G1 X151.396 Y151.545 E287.02841
G1 X151.224 Y151.717 E287.03767
G1 X151.05 Y151.847 E287.04594
G1 X70.791 Y71.588 E291.36774
G1 X70.63 Y71.803 E291.37797
G1 X70.534 Y71.979 E291.3856
G1 X150.659 Y152.104 E295.70018
G1 X150.408 Y152.241 E295.71107
G1 X150.219 Y152.312 E295.71876
G1 X70.326 Y72.419 E300.02085
G1 X70.227 Y72.685 E300.03166
G1 X70.176 Y72.917 E300.0407
G1 X149.721 Y152.461 E304.32402
G1 X149.478 Y152.514 E304.33349
G1 X149.15 Y152.538 E304.34601
G1 X70.1 Y73.488 E308.6027
G1 X70.087 Y74.123 E308.62688
G1 X148.515 Y152.551 E312.85008
G1 X147.868 Y152.551 E312.87472
G1 X70.087 Y74.77 E317.06308
G1 X70.087 Y75.418 E317.08775
G1 X147.22 Y152.551 E321.24122
G1 X146.572 Y152.551 E321.26589
G1 X70.087 Y76.065 E325.38449
G1 X70.087 Y76.713 E325.40916
G1 X145.925 Y152.551 E329.49289
G1 X145.277 Y152.551 E329.51756
G1 X70.087 Y77.361 E333.5664
G1 X70.087 Y78.008 E333.59104
G1 X144.63 Y152.551 E337.60504
G1 X143.982 Y152.551 E337.62971
G1 X70.087 Y78.656 E341.60882
G1 X70.087 Y79.303 E341.63346
G1 X143.334 Y152.551 E345.5777
G1 X142.687 Y152.551 E345.60234
G1 X70.087 Y79.951 E349.51171
G1 X70.087 Y80.599 E349.53638
G1 X142.039 Y152.551 E353.41086
G1 X141.392 Y152.551 E353.4355
G1 X70.087 Y81.246 E357.27514
G1 X70.087 Y81.894 E357.29981
G1 X140.744 Y152.551 E361.10456
G1 X140.096 Y152.551 E361.12923
G1 X70.087 Y82.541 E364.89911
G1 X70.087 Y83.189 E364.92378
G1 X139.449 Y152.551 E368.65879
G1 X138.801 Y152.551 E368.68346
G1 X70.087 Y83.837 E372.38358
G1 X70.087 Y84.484 E372.40822
G1 X138.154 Y152.551 E376.0735
G1 X137.506 Y152.551 E376.09817
G1 X70.087 Y85.132 E379.72856
G1 X70.087 Y85.779 E379.7532
G1 X136.858 Y152.551 E383.34872
G1 X136.211 Y152.551 E383.37336
G1 X70.087 Y86.427 E386.93401
G1 X70.087 Y87.075 E386.95868
G1 X135.563 Y152.551 E390.48444
G1 X134.916 Y152.551 E390.50908
G1 X70.087 Y87.722 E394
G1 X70.087 Y88.37 E394.02467
G1 X134.268 Y152.551 E397.4807
G1 X133.62 Y152.551 E397.50537
G1 X70.087 Y89.017 E400.92653
G1 X70.087 Y89.665 E400.9512
G1 X132.973 Y152.551 E404.33749
G1 X132.325 Y152.551 E404.36216
G1 X70.087 Y90.313 E407.71356
G1 X70.087 Y90.96 E407.7382
G1 X131.678 Y152.551 E411.05476
G1 X131.03 Y152.551 E411.07943
G1 X70.087 Y91.608 E414.3611
G1 X70.087 Y92.255 E414.38574
G1 X130.382 Y152.551 E417.63254
G1 X129.735 Y152.551 E417.65718
G1 X70.087 Y92.903 E420.86911
G1 X70.087 Y93.551 E420.89378
G1 X129.087 Y152.551 E424.07082
G1 X128.44 Y152.551 E424.09546
G1 X70.087 Y94.198 E427.23766
G1 X70.087 Y94.846 E427.26233
G1 X127.792 Y152.551 E430.36964
G1 X127.144 Y152.551 E430.39431
G1 X70.087 Y95.493 E433.46675
G1 X70.087 Y96.141 E433.49142
G1 X126.497 Y152.551 E436.52899
G1 X125.849 Y152.551 E436.55366
G1 X70.087 Y96.789 E439.55634
G1 X70.087 Y97.436 E439.58098
G1 X125.202 Y152.551 E442.54882
G1 X124.554 Y152.551 E442.57349
