; generated by PrusaSlicer 2.6.0-alpha5+win64 on 2023-03-16 at 10:46:46 UTC

; 

; external perimeters extrusion width = 0.50mm
; perimeters extrusion width = 0.50mm
; infill extrusion width = 0.50mm
; solid infill extrusion width = 0.50mm
; top infill extrusion width = 0.50mm
; first layer extrusion width = 0.50mm

M107
M190 S60 ; set bed temperature and wait for it to be reached
M104 S215 ; set temperature
;TYPE:Custom
SET_GCODE_VARIABLE MACRO=START_PRINT VARIABLE=bed_temp VALUE=60
SET_GCODE_VARIABLE MACRO=START_PRINT VARIABLE=extruder_temp VALUE=215
START_PRINT
M109 S215 ; set temperature and wait for it to be reached
G21 ; set units to millimeters
G90 ; use absolute coordinates
M82 ; use absolute distances for extrusion
G92 E0
; Filament gcode
M107
;LAYER_CHANGE
;Z:0.2
;HEIGHT:0.2
;BEFORE_LAYER_CHANGE
;0.2


G1 Z.2 F18000
;AFTER_LAYER_CHANGE
;0.2
G1 E-.5 F2700
G92 E0
G1 Z.4 F18000
G1 X46.754 Y84.421
G1 Z.2
G1 E.5 F2700
;TYPE:Skirt/Brim
;WIDTH:0.5
G1 F3600
G1 X48.057 Y83.871 E.55375
G1 X49.424 Y83.512 E.60747
G1 X51.25 Y83.336 E.67719
G1 X169.171 Y83.351 E5.15893
G1 X171.133 Y83.633 E5.23426
G1 X172.477 Y84.07 E5.28797
G1 X173.745 Y84.694 E5.34168
G1 X174.455 Y85.15 E5.37375
G1 X175.55 Y86.044 E5.42748
G1 X176.848 Y87.542 E5.50281
G1 X177.577 Y88.751 E5.55647
G1 X177.929 Y89.521 E5.58865
G1 X178.366 Y90.866 E5.6424
G1 X178.648 Y92.825 E5.71762
G1 X178.664 Y126.75 E7.00698
G1 X178.488 Y128.576 E7.0767
G1 X178.129 Y129.943 E7.13042
G1 X177.579 Y131.246 E7.18417
G1 X176.852 Y132.453 E7.23772
G1 X175.954 Y133.551 E7.29163
G1 X174.918 Y134.503 E7.3451
G1 X173.746 Y135.305 E7.39907
G1 X171.943 Y136.129 E7.47441
G1 X170.576 Y136.488 E7.52813
G1 X168.75 Y136.664 E7.59785
G1 X50.829 Y136.649 E12.07959
G1 X49.424 Y136.488 E12.13334
G1 X48.057 Y136.129 E12.18706
G1 X46.754 Y135.579 E12.24081
G1 X45.544 Y134.849 E12.29452
G1 X44.45 Y133.955 E12.34822
G1 X43.493 Y132.913 E12.40199
G1 X42.422 Y131.247 E12.47726
G1 X41.872 Y129.945 E12.53098
G1 X41.513 Y128.577 E12.58473
G1 X41.336 Y126.75 E12.65449
G1 X41.336 Y93.251 E13.92766
G1 X41.392 Y92.259 E13.96542
G1 X41.633 Y90.868 E14.01907
G1 X42.069 Y89.526 E14.0727
G1 X42.693 Y88.256 E14.12648
G1 X43.492 Y87.088 E14.18026
G1 X44.447 Y86.047 E14.23395
G1 X45.544 Y85.151 E14.28778
G1 X46.703 Y84.452 E14.33922
G1 X46.938 Y84.844 F18000
G1 F3600
G1 X48.217 Y84.3 E14.39204
G1 X49.521 Y83.959 E14.44327
G1 X51.25 Y83.793 E14.50929
G1 X169.139 Y83.807 E18.98982
G1 X171.036 Y84.08 E19.06266
G1 X172.318 Y84.499 E19.11392
G1 X173.526 Y85.095 E19.16512
G1 X174.181 Y85.516 E19.19471
G1 X175.227 Y86.368 E19.24598
G1 X176.482 Y87.816 E19.31881
G1 X177.176 Y88.97 E19.36999
G1 X177.5 Y89.68 E19.39965
G1 X177.92 Y90.964 E19.45099
G1 X178.192 Y92.858 E19.52371
G1 X178.207 Y126.75 E20.81182
G1 X178.041 Y128.479 E20.87784
G1 X177.7 Y129.783 E20.92907
G1 X177.178 Y131.026 E20.98031
G1 X176.486 Y132.179 E21.03142
G1 X175.631 Y133.228 E21.08285
G1 X174.644 Y134.137 E21.13385
G1 X173.527 Y134.904 E21.18535
G1 X171.783 Y135.7 E21.25821
G1 X170.479 Y136.041 E21.30944
G1 X168.75 Y136.207 E21.37546
G1 X50.861 Y136.193 E25.85599
G1 X49.521 Y136.041 E25.90725
G1 X48.217 Y135.7 E25.95848
G1 X46.974 Y135.178 E26.00972
G1 X45.818 Y134.483 E26.06098
G1 X44.773 Y133.632 E26.1122
G1 X43.859 Y132.639 E26.16349
G1 X42.823 Y131.028 E26.23629
G1 X42.3 Y129.785 E26.28754
G1 X41.959 Y128.48 E26.3388
G1 X41.793 Y126.75 E26.40485
G1 X41.793 Y93.251 E27.67802
G1 X41.848 Y92.292 E27.71453
G1 X42.08 Y90.965 E27.76573
G1 X42.497 Y89.686 E27.81686
G1 X43.095 Y88.475 E27.86819
G1 X43.858 Y87.362 E27.91948
G1 X44.771 Y86.371 E27.97069
G1 X45.818 Y85.517 E28.02204
G1 X46.887 Y84.875 E28.06943
;WIPE_START
G1 F14400
G1 X48.217 Y84.3 E27.81133
G1 X49.521 Y83.959 E27.57124
G1 X49.531 Y83.958 E27.56943
;WIPE_END
G92 E0
G1 Z.4 F18000
G1 X49.62 Y89.88
G1 Z.2
G1 E.5 F2700
;TYPE:External perimeter
;WIDTH:0.499999
G1 F3600
G1 X50.194 Y89.653 E.52346
G1 X50.717 Y89.539 E.5438
G1 X51.259 Y89.501 E.56445
G1 X168.742 Y89.501 E5.02954
G1 X169.283 Y89.539 E5.05015
G1 X169.806 Y89.653 E5.07049
G1 X170.307 Y89.84 E5.09081
G1 X170.777 Y90.096 E5.11115
G1 X171.204 Y90.417 E5.13145
G1 X171.583 Y90.795 E5.15179
G1 X171.904 Y91.223 E5.17212
G1 X172.16 Y91.692 E5.19243
G1 X172.347 Y92.194 E5.21279
G1 X172.461 Y92.717 E5.23313
G1 X172.5 Y93.399 E5.25909
G1 X172.5 Y126.741 E6.5263
G1 X172.461 Y127.283 E6.54695
G1 X172.347 Y127.806 E6.56729
G1 X172.16 Y128.307 E6.58761
G1 X171.904 Y128.777 E6.60795
G1 X171.583 Y129.205 E6.62828
G1 X171.205 Y129.583 E6.6486
G1 X170.777 Y129.904 E6.66893
G1 X170.307 Y130.16 E6.68927
G1 X169.806 Y130.347 E6.70959
G1 X169.283 Y130.461 E6.72993
G1 X168.741 Y130.5 E6.75058
G1 X51.259 Y130.5 E11.21563
G1 X50.717 Y130.461 E11.23628
G1 X50.193 Y130.346 E11.25667
G1 X49.693 Y130.16 E11.27695
G1 X49.223 Y129.904 E11.29729
G1 X48.796 Y129.583 E11.31759
G1 X48.417 Y129.205 E11.33793
G1 X48.096 Y128.777 E11.35826
G1 X47.84 Y128.307 E11.3786
G1 X47.653 Y127.806 E11.39892
G1 X47.539 Y127.283 E11.41926
G1 X47.501 Y126.741 E11.43991
G1 X47.501 Y93.259 E12.71244
G1 X47.539 Y92.717 E12.73309
G1 X47.653 Y92.194 E12.75343
G1 X47.841 Y91.691 E12.77384
G1 X48.096 Y91.223 E12.7941
G1 X48.416 Y90.797 E12.81435
G1 X48.795 Y90.417 E12.83475
G1 X49.223 Y90.096 E12.85508
G1 X49.567 Y89.909 E12.86996
;WIPE_START
G1 F14400
G1 X50.194 Y89.653 E12.74933
G1 X50.717 Y89.539 E12.65398
G1 X51.259 Y89.501 E12.5572
G1 X52.31 Y89.501 E12.36996
;WIPE_END
G92 E0
G1 Z.4 F18000
G1 X170.288 Y89.986
G1 Z.2
G1 E.5 F2700
;TYPE:Solid infill
;WIDTH:0.500842
G1 F3600
G1 X171.325 Y91.023 E.55584
G1 X171.615 Y91.409 E.57422
G1 X171.847 Y91.835 E.59269
G1 X172.037 Y92.382 E.61474
G1 X169.618 Y89.963 E.745
G1 X169.234 Y89.879 E.75997
G1 X168.86 Y89.853 E.77424
G1 X172.147 Y93.14 E.95124
G1 X172.157 Y93.797 E.97626
G1 X168.203 Y89.843 E1.18918
G1 X167.555 Y89.843 E1.21385
G1 X172.157 Y94.445 E1.46166
G1 X172.157 Y95.092 E1.4863
G1 X166.908 Y89.843 E1.76895
G1 X166.26 Y89.843 E1.79362
G1 X172.157 Y95.74 E2.11116
G1 X172.157 Y96.387 E2.1358
G1 X165.613 Y89.843 E2.48818
G1 X164.965 Y89.843 E2.51285
G1 X172.157 Y97.035 E2.90013
G1 X172.157 Y97.683 E2.9248
G1 X164.317 Y89.843 E3.34697
G1 X163.67 Y89.843 E3.37161
G1 X172.157 Y98.33 E3.82862
G1 X172.157 Y98.978 E3.85329
G1 X163.022 Y89.843 E4.34519
G1 X162.375 Y89.843 E4.36983
G1 X172.157 Y99.625 E4.89657
G1 X172.157 Y100.273 E4.92124
G1 X161.727 Y89.843 E5.48288
G1 X161.079 Y89.843 E5.50755
G1 X172.157 Y100.921 E6.10408
G1 X172.157 Y101.568 E6.12872
G1 X160.432 Y89.843 E6.76009
G1 X159.784 Y89.843 E6.78476
G1 X172.157 Y102.216 E7.45102
G1 X172.157 Y102.863 E7.47566
G1 X159.137 Y89.843 E8.17676
G1 X158.489 Y89.843 E8.20143
G1 X172.157 Y103.511 E8.93743
G1 X172.157 Y104.159 E8.9621
G1 X157.841 Y89.843 E9.73299
G1 X157.194 Y89.843 E9.75763
G1 X172.157 Y104.806 E10.56336
G1 X172.157 Y105.454 E10.58803
G1 X156.546 Y89.843 E11.42865
G1 X155.899 Y89.843 E11.45329
G1 X172.157 Y106.101 E12.32875
G1 X172.157 Y106.749 E12.35342
G1 X155.251 Y89.843 E13.26378
G1 X154.603 Y89.843 E13.28845
G1 X172.157 Y107.397 E14.2337
G1 X172.157 Y108.044 E14.25834
G1 X153.956 Y89.843 E15.23843
G1 X153.308 Y89.843 E15.2631
G1 X172.157 Y108.692 E16.27808
G1 X172.157 Y109.339 E16.30272
G1 X152.661 Y89.843 E17.35254
G1 X152.013 Y89.843 E17.37721
G1 X172.157 Y109.987 E18.46193
G1 X172.157 Y110.635 E18.4866
G1 X151.365 Y89.843 E19.60621
G1 X150.718 Y89.843 E19.63085
G1 X172.157 Y111.282 E20.7853
G1 X172.157 Y111.93 E20.80997
G1 X150.07 Y89.843 E21.99931
G1 X149.423 Y89.843 E22.02395
G1 X172.157 Y112.577 E23.24813
G1 X172.157 Y113.225 E23.2728
G1 X148.775 Y89.843 E24.53188
G1 X148.127 Y89.843 E24.55655
G1 X172.157 Y113.873 E25.85052
G1 X172.157 Y114.52 E25.87516
G1 X147.48 Y89.843 E27.20397
G1 X146.832 Y89.843 E27.22864
G1 X172.157 Y115.168 E28.59234
G1 X172.157 Y115.815 E28.61698
G1 X146.185 Y89.843 E30.01552
G1 X145.537 Y89.843 E30.04019
G1 X172.157 Y116.463 E31.47363
G1 X172.157 Y117.111 E31.4983
G1 X144.889 Y89.843 E32.96663
G1 X144.242 Y89.843 E32.99127
G1 X172.157 Y117.758 E34.49444
G1 X172.157 Y118.406 E34.51911
G1 X143.594 Y89.843 E36.05717
G1 X142.947 Y89.843 E36.08181
G1 X172.157 Y119.053 E37.65471
G1 X172.157 Y119.701 E37.67938
G1 X142.299 Y89.843 E39.28718
G1 X141.651 Y89.843 E39.31185
G1 X172.157 Y120.349 E40.95454
G1 X172.157 Y120.996 E40.97918
G1 X141.004 Y89.843 E42.65671
G1 X140.356 Y89.843 E42.68138
G1 X172.157 Y121.644 E44.3938
G1 X172.157 Y122.291 E44.41844
G1 X139.709 Y89.843 E46.1657
G1 X139.061 Y89.843 E46.19037
G1 X172.157 Y122.939 E47.97253
G1 X172.157 Y123.587 E47.9972
G1 X138.413 Y89.843 E49.81425
G1 X137.766 Y89.843 E49.83889
G1 X172.157 Y124.234 E51.69078
G1 X172.157 Y124.882 E51.71545
G1 X137.118 Y89.843 E53.60223
G1 X136.471 Y89.843 E53.62687
G1 X172.157 Y125.529 E55.54849
G1 X172.157 Y126.177 E55.57316
G1 X135.823 Y89.843 E57.52968
G1 X135.175 Y89.843 E57.55435
G1 X172.15 Y126.818 E59.54538
G1 X172.121 Y127.234 E59.56126
G1 X172.084 Y127.4 E59.56774
G1 X134.528 Y89.843 E61.59009
G1 X133.88 Y89.843 E61.61476
G1 X171.943 Y127.907 E63.66441
G1 X171.847 Y128.164 E63.67486
G1 X171.744 Y128.354 E63.68309
G1 X133.233 Y89.843 E65.75683
G1 X132.585 Y89.843 E65.7815
G1 X171.494 Y128.752 E67.87668
G1 X171.323 Y128.98 E67.88753
G1 X171.199 Y129.105 E67.89423
G1 X131.937 Y89.843 E70.00841
G1 X131.29 Y89.843 E70.03305
G1 X170.86 Y129.413 E72.16382
G1 X170.591 Y129.615 E72.17663
G1 X170.476 Y129.677 E72.1816
G1 X130.642 Y89.843 E74.32659
G1 X129.995 Y89.843 E74.35123
G1 X170.044 Y129.892 E76.50779
G1 X169.709 Y130.017 E76.5214
G1 X169.554 Y130.051 E76.52744
G1 X129.347 Y89.843 E78.69254
G1 X128.699 Y89.843 E78.71721
G1 X168.994 Y130.138 E80.88702
G1 X168.365 Y130.157 E80.91098
G1 X128.052 Y89.843 E83.08179
G1 X127.404 Y89.843 E83.10646
G1 X167.718 Y130.157 E85.27729
G1 X167.07 Y130.157 E85.30196
G1 X126.757 Y89.843 E87.47277
G1 X126.109 Y89.843 E87.49744
G1 X166.422 Y130.157 E89.66825
G1 X165.775 Y130.157 E89.69289
G1 X125.461 Y89.843 E91.86372
G1 X124.814 Y89.843 E91.88836
G1 X165.127 Y130.157 E94.05917
G1 X164.48 Y130.157 E94.08381
G1 X124.166 Y89.843 E96.25464
G1 X123.519 Y89.843 E96.27928
G1 X163.832 Y130.157 E98.45009
G1 X163.184 Y130.157 E98.47476
G1 X122.871 Y89.843 E100.64557
G1 X122.223 Y89.843 E100.67024
G1 X162.537 Y130.157 E102.84107
G1 X161.889 Y130.157 E102.86574
G1 X121.576 Y89.843 E105.03655
G1 X120.928 Y89.843 E105.06122
G1 X161.242 Y130.157 E107.23205
G1 X160.594 Y130.157 E107.25672
G1 X120.281 Y89.843 E109.42753
G1 X119.633 Y89.843 E109.4522
G1 X159.946 Y130.157 E111.62301
G1 X159.299 Y130.157 E111.64765
G1 X118.985 Y89.843 E113.81848
G1 X118.338 Y89.843 E113.84312
G1 X158.651 Y130.157 E116.01393
G1 X158.004 Y130.157 E116.03857
G1 X117.69 Y89.843 E118.2094
G1 X117.043 Y89.843 E118.23404
G1 X157.356 Y130.157 E120.40485
G1 X156.708 Y130.157 E120.42952
G1 X116.395 Y89.843 E122.60033
G1 X115.747 Y89.843 E122.625
G1 X156.061 Y130.157 E124.79583
G1 X155.413 Y130.157 E124.8205
G1 X115.1 Y89.843 E126.99131
G1 X114.452 Y89.843 E127.01598
G1 X154.766 Y130.157 E129.18681
G1 X154.118 Y130.157 E129.21148
G1 X113.805 Y89.843 E131.38229
G1 X113.157 Y89.843 E131.40696
G1 X153.47 Y130.157 E133.57777
G1 X152.823 Y130.157 E133.60241
G1 X112.509 Y89.843 E135.77324
G1 X111.862 Y89.843 E135.79788
G1 X152.175 Y130.157 E137.96869
G1 X151.528 Y130.157 E137.99333
G1 X111.214 Y89.843 E140.16416
G1 X110.567 Y89.843 E140.1888
G1 X150.88 Y130.157 E142.35961
G1 X150.232 Y130.157 E142.38428
G1 X109.919 Y89.843 E144.55509
G1 X109.271 Y89.843 E144.57976
G1 X149.585 Y130.157 E146.75059
G1 X148.937 Y130.157 E146.77526
G1 X108.624 Y89.843 E148.94607
G1 X107.976 Y89.843 E148.97074
G1 X148.29 Y130.157 E151.14157
G1 X147.642 Y130.157 E151.16624
G1 X107.329 Y89.843 E153.33705
G1 X106.681 Y89.843 E153.36172
G1 X146.994 Y130.157 E155.53253
G1 X146.347 Y130.157 E155.55717
G1 X106.033 Y89.843 E157.728
G1 X105.386 Y89.843 E157.75264
G1 X145.699 Y130.157 E159.92345
G1 X145.052 Y130.157 E159.94809
G1 X104.738 Y89.843 E162.11892
G1 X104.091 Y89.843 E162.14356
G1 X144.404 Y130.157 E164.31437
G1 X143.756 Y130.157 E164.33904
G1 X103.443 Y89.843 E166.50985
G1 X102.795 Y89.843 E166.53452
G1 X143.109 Y130.157 E168.70535
G1 X142.461 Y130.157 E168.73002
G1 X102.148 Y89.843 E170.90083
G1 X101.5 Y89.843 E170.9255
G1 X141.814 Y130.157 E173.09633
G1 X141.166 Y130.157 E173.121
G1 X100.853 Y89.843 E175.29181
G1 X100.205 Y89.843 E175.31648
G1 X140.518 Y130.157 E177.48729
G1 X139.871 Y130.157 E177.51193
G1 X99.557 Y89.843 E179.68276
G1 X98.91 Y89.843 E179.7074
G1 X139.223 Y130.157 E181.87821
G1 X138.576 Y130.157 E181.90285
G1 X98.262 Y89.843 E184.07368
G1 X97.615 Y89.843 E184.09832
G1 X137.928 Y130.157 E186.26913
G1 X137.28 Y130.157 E186.2938
G1 X96.967 Y89.843 E188.46461
G1 X96.319 Y89.843 E188.48928
G1 X136.633 Y130.157 E190.66011
G1 X135.985 Y130.157 E190.68478
G1 X95.672 Y89.843 E192.85559
G1 X95.024 Y89.843 E192.88026
G1 X135.338 Y130.157 E195.05109
G1 X134.69 Y130.157 E195.07576
G1 X94.377 Y89.843 E197.24657
G1 X93.729 Y89.843 E197.27124
G1 X134.042 Y130.157 E199.44205
G1 X133.395 Y130.157 E199.46669
G1 X93.081 Y89.843 E201.63752
G1 X92.434 Y89.843 E201.66216
G1 X132.747 Y130.157 E203.83297
G1 X132.1 Y130.157 E203.85761
G1 X91.786 Y89.843 E206.02844
G1 X91.139 Y89.843 E206.05308
G1 X131.452 Y130.157 E208.22389
G1 X130.804 Y130.157 E208.24856
G1 X90.491 Y89.843 E210.41937
G1 X89.843 Y89.843 E210.44404
G1 X130.157 Y130.157 E212.61487
G1 X129.509 Y130.157 E212.63954
G1 X89.196 Y89.843 E214.81035
G1 X88.548 Y89.843 E214.83502
G1 X128.862 Y130.157 E217.00585
G1 X128.214 Y130.157 E217.03052
G1 X87.901 Y89.843 E219.20133
G1 X87.253 Y89.843 E219.226
G1 X127.566 Y130.157 E221.39681
G1 X126.919 Y130.157 E221.42145
G1 X86.605 Y89.843 E223.59228
G1 X85.958 Y89.843 E223.61692
G1 X126.271 Y130.157 E225.78773
G1 X125.624 Y130.157 E225.81237
G1 X85.31 Y89.843 E227.9832
G1 X84.663 Y89.843 E228.00784
G1 X124.976 Y130.157 E230.17865
G1 X124.328 Y130.157 E230.20332
G1 X84.015 Y89.843 E232.37413
G1 X83.367 Y89.843 E232.3988
G1 X123.681 Y130.157 E234.56963
G1 X123.033 Y130.157 E234.5943
G1 X82.72 Y89.843 E236.76511
G1 X82.072 Y89.843 E236.78978
G1 X122.386 Y130.157 E238.96061
G1 X121.738 Y130.157 E238.98528
G1 X81.425 Y89.843 E241.15609
G1 X80.777 Y89.843 E241.18076
G1 X121.09 Y130.157 E243.35157
G1 X120.443 Y130.157 E243.37621
G1 X80.129 Y89.843 E245.54704
G1 X79.482 Y89.843 E245.57168
G1 X119.795 Y130.157 E247.74249
G1 X119.148 Y130.157 E247.76713
G1 X78.834 Y89.843 E249.93796
G1 X78.187 Y89.843 E249.9626
G1 X118.5 Y130.157 E252.13341
G1 X117.852 Y130.157 E252.15808
G1 X77.539 Y89.843 E254.32889
G1 X76.891 Y89.843 E254.35356
G1 X117.205 Y130.157 E256.52439
G1 X116.557 Y130.157 E256.54906
G1 X76.244 Y89.843 E258.71987
G1 X75.596 Y89.843 E258.74454
G1 X115.91 Y130.157 E260.91537
G1 X115.262 Y130.157 E260.94004
G1 X74.949 Y89.843 E263.11085
G1 X74.301 Y89.843 E263.13552
G1 X114.614 Y130.157 E265.30633
G1 X113.967 Y130.157 E265.33097
G1 X73.653 Y89.843 E267.5018
G1 X73.006 Y89.843 E267.52644
G1 X113.319 Y130.157 E269.69725
G1 X112.672 Y130.157 E269.72189
G1 X72.358 Y89.843 E271.89272
G1 X71.711 Y89.843 E271.91736
G1 X112.024 Y130.157 E274.08817
G1 X111.376 Y130.157 E274.11284
G1 X71.063 Y89.843 E276.28365
G1 X70.415 Y89.843 E276.30832
G1 X110.729 Y130.157 E278.47915
G1 X110.081 Y130.157 E278.50382
G1 X69.768 Y89.843 E280.67463
G1 X69.12 Y89.843 E280.6993
G1 X109.434 Y130.157 E282.87013
G1 X108.786 Y130.157 E282.8948
G1 X68.473 Y89.843 E285.06561
G1 X67.825 Y89.843 E285.09028
G1 X108.138 Y130.157 E287.26109
G1 X107.491 Y130.157 E287.28573
G1 X67.177 Y89.843 E289.45656
G1 X66.53 Y89.843 E289.4812
G1 X106.843 Y130.157 E291.65201
G1 X106.196 Y130.157 E291.67665
G1 X65.882 Y89.843 E293.84748
G1 X65.235 Y89.843 E293.87212
G1 X105.548 Y130.157 E296.04293
G1 X104.9 Y130.157 E296.0676
G1 X64.587 Y89.843 E298.23841
G1 X63.939 Y89.843 E298.26308
G1 X104.253 Y130.157 E300.43391
G1 X103.605 Y130.157 E300.45858
G1 X63.292 Y89.843 E302.62939
G1 X62.644 Y89.843 E302.65406
G1 X102.958 Y130.157 E304.82489
G1 X102.31 Y130.157 E304.84956
G1 X61.997 Y89.843 E307.02037
G1 X61.349 Y89.843 E307.04504
