; generated by PrusaSlicer 2.6.0-alpha5+win64 on 2023-03-18 at 06:50:35 UTC

; 

; external perimeters extrusion width = 0.50mm
; perimeters extrusion width = 0.50mm
; infill extrusion width = 0.50mm
; solid infill extrusion width = 0.50mm
; top infill extrusion width = 0.50mm
; support material extrusion width = 0.50mm
; first layer extrusion width = 0.60mm

M107
M190 S60 ; set bed temperature and wait for it to be reached
M104 S215 ; set temperature
;TYPE:Custom
SET_GCODE_VARIABLE MACRO=START_PRINT VARIABLE=bed_temp VALUE=60
SET_GCODE_VARIABLE MACRO=START_PRINT VARIABLE=extruder_temp VALUE=215
START_PRINT
M109 S215 ; set temperature and wait for it to be reached
G21 ; set units to millimeters
G90 ; use absolute coordinates
M82 ; use absolute distances for extrusion
G92 E0
; Filament gcode
M107
;LAYER_CHANGE
;Z:0.2
;HEIGHT:0.2
;BEFORE_LAYER_CHANGE
;0.2


G1 Z.2 F18000
;AFTER_LAYER_CHANGE
;0.2
G1 E-.5 F2700
G92 E0
G1 Z.4 F18000
G1 X22.885 Y22.885
G1 Z.2
G1 E.5 F2700
;TYPE:Skirt/Brim
;WIDTH:0.6
G1 F1800
G1 X23.45 Y22.321 E.53698
G1 X24.278 Y21.685 E.58534
G1 X25.66 Y20.887 E.65926
G1 X26.625 Y20.488 E.70763
G1 X28.167 Y20.074 E.78159
G1 X30 Y19.886 E.86694
G1 X190 Y19.886 E8.27836
G1 X190.798 Y19.938 E8.3154
G1 X191.833 Y20.074 E8.36375
G1 X193.375 Y20.488 E8.43771
G1 X194.34 Y20.887 E8.48608
G1 X195.722 Y21.685 E8.56
G1 X196.55 Y22.321 E8.60836
G1 X197.679 Y23.45 E8.68232
G1 X198.315 Y24.278 E8.73068
G1 X199.113 Y25.66 E8.8046
G1 X199.512 Y26.625 E8.85297
G1 X199.926 Y28.167 E8.92693
G1 X200.114 Y30 E9.01228
G1 X200.114 Y190 E16.4237
G1 X199.926 Y191.833 E16.50905
G1 X199.512 Y193.375 E16.58301
G1 X199.113 Y194.34 E16.63138
G1 X198.315 Y195.722 E16.7053
G1 X197.679 Y196.55 E16.75366
G1 X196.55 Y197.679 E16.82762
G1 X195.722 Y198.315 E16.87598
G1 X194.34 Y199.113 E16.9499
G1 X193.375 Y199.512 E16.99827
G1 X191.833 Y199.926 E17.07223
G1 X190 Y200.114 E17.15758
G1 X30 Y200.114 E24.569
G1 X28.167 Y199.926 E24.65435
G1 X26.625 Y199.512 E24.72831
G1 X25.66 Y199.113 E24.77668
G1 X24.278 Y198.315 E24.8506
G1 X23.45 Y197.679 E24.89896
G1 X22.321 Y196.55 E24.97292
G1 X21.685 Y195.722 E25.02128
G1 X20.887 Y194.34 E25.0952
G1 X20.488 Y193.375 E25.14357
G1 X20.074 Y191.833 E25.21753
G1 X19.886 Y190 E25.30288
G1 X19.886 Y30 E32.7143
G1 X20.074 Y28.167 E32.79965
G1 X20.488 Y26.625 E32.87361
G1 X20.887 Y25.66 E32.92198
G1 X21.685 Y24.278 E32.9959
G1 X22.321 Y23.45 E33.04426
G1 X22.843 Y22.928 E33.07846
G1 X23.233 Y23.318 F18000
G1 F1800
G1 X23.789 Y22.763 E33.11485
G1 X24.617 Y22.127 E33.16321
G1 X25.873 Y21.402 E33.23039
G1 X26.838 Y21.002 E33.27878
G1 X28.239 Y20.627 E33.34596
G1 X30 Y20.443 E33.42798
G1 X190.725 Y20.49 E40.87298
G1 X191.761 Y20.627 E40.92139
G1 X193.162 Y21.002 E40.98857
G1 X194.127 Y21.402 E41.03696
G1 X195.383 Y22.127 E41.10414
G1 X196.211 Y22.763 E41.1525
G1 X197.237 Y23.789 E41.21971
G1 X197.873 Y24.617 E41.26807
G1 X198.598 Y25.873 E41.33525
G1 X198.998 Y26.838 E41.38364
G1 X199.373 Y28.239 E41.45082
G1 X199.557 Y30 E41.53284
G1 X199.557 Y190 E48.94426
G1 X199.373 Y191.761 E49.02628
G1 X198.998 Y193.162 E49.09346
G1 X198.598 Y194.127 E49.14185
G1 X197.873 Y195.383 E49.20903
G1 X197.237 Y196.211 E49.25739
G1 X196.211 Y197.237 E49.3246
G1 X195.383 Y197.873 E49.37296
G1 X194.127 Y198.598 E49.44014
G1 X193.162 Y198.998 E49.48853
G1 X191.761 Y199.373 E49.55571
G1 X190 Y199.557 E49.63773
G1 X30 Y199.557 E57.04915
G1 X28.239 Y199.373 E57.13117
G1 X26.838 Y198.998 E57.19835
G1 X25.873 Y198.598 E57.24674
G1 X24.617 Y197.873 E57.31392
G1 X23.789 Y197.237 E57.36228
G1 X22.763 Y196.211 E57.42949
G1 X22.127 Y195.383 E57.47785
G1 X21.402 Y194.127 E57.54503
G1 X21.002 Y193.162 E57.59342
G1 X20.627 Y191.761 E57.6606
G1 X20.443 Y190 E57.74262
G1 X20.443 Y30 E65.15404
G1 X20.627 Y28.239 E65.23606
G1 X21.002 Y26.838 E65.30324
G1 X21.402 Y25.873 E65.35163
G1 X22.127 Y24.617 E65.41881
G1 X22.763 Y23.789 E65.46717
G1 X23.191 Y23.361 E65.49521
;WIPE_START
G1 F14400
G1 X23.789 Y22.763 E65.34457
G1 X24.617 Y22.127 E65.1586
G1 X25.411 Y21.668 E64.99521
;WIPE_END
G92 E0
G1 Z.4 F18000
G1 X29.27 Y192.923
G1 Z.2
G1 E.5 F2700
;TYPE:Perimeter
;WIDTH:0.831618
G1 F1800
G1 X29.007 Y192.831 E.51827
;WIDTH:0.835919
G1 X28.416 Y192.555 E.56128
G1 X27.907 Y192.166 E.60352
;WIDTH:0.83161
G1 X27.417 Y191.551 E.65509
G1 X27.104 Y190.829 E.7067
G1 X27.052 Y190.556 E.72493
;WIDTH:0.8376
G1 X26.976 Y189.936 E.7662
G1 X26.976 Y155.999 E3.00869
;WIDTH:0.865136
G1 X26.99 Y155.49 E3.0435
G1 X26.965 Y155.417 E3.04878
;WIDTH:0.816152
G1 X26.941 Y155.343 E3.05378
;WIDTH:0.767167
G1 X26.916 Y155.27 E3.05843
;WIDTH:0.718183
G1 X26.892 Y155.197 E3.06274
;WIDTH:0.669198
G1 X26.867 Y155.124 E3.06676
;WIDTH:0.620213
G1 X26.857 Y154.791 E3.08275
;WIDTH:0.599999
G1 X26.857 Y149.209 E3.34132
;WIDTH:0.644189
G1 X26.879 Y149.093 E3.34722
;WIDTH:0.688379
G1 X26.901 Y148.976 E3.35361
;WIDTH:0.732569
G1 X26.923 Y148.86 E3.36038
;WIDTH:0.776759
G1 X26.945 Y148.743 E3.36764
;WIDTH:0.820949
G1 X26.968 Y148.627 E3.37529
;WIDTH:0.865138
G1 X26.99 Y148.51 E3.38343
G1 X26.976 Y148.001 E3.41824
;WIDTH:0.837601
G1 X26.976 Y113.999 E5.66502
;WIDTH:0.865137
G1 X26.99 Y113.49 E5.69983
G1 X26.965 Y113.417 E5.70511
;WIDTH:0.816154
G1 X26.941 Y113.343 E5.71011
;WIDTH:0.76717
G1 X26.916 Y113.27 E5.71476
;WIDTH:0.718187
G1 X26.892 Y113.197 E5.71907
;WIDTH:0.669203
G1 X26.867 Y113.124 E5.72309
;WIDTH:0.620219
G1 X26.857 Y112.791 E5.73908
;WIDTH:0.599999
G1 X26.857 Y107.209 E5.99765
;WIDTH:0.644189
G1 X26.879 Y107.093 E6.00355
;WIDTH:0.688379
G1 X26.901 Y106.976 E6.00994
;WIDTH:0.732569
G1 X26.923 Y106.86 E6.01671
;WIDTH:0.776759
G1 X26.945 Y106.743 E6.02397
;WIDTH:0.820949
G1 X26.968 Y106.627 E6.03162
;WIDTH:0.865138
G1 X26.99 Y106.51 E6.03976
G1 X26.976 Y106.001 E6.07457
;WIDTH:0.837601
G1 X26.976 Y71.999 E8.32135
;WIDTH:0.865137
G1 X26.99 Y71.49 E8.35616
G1 X26.965 Y71.417 E8.36144
;WIDTH:0.816153
G1 X26.941 Y71.343 E8.36644
;WIDTH:0.767169
G1 X26.916 Y71.27 E8.37109
;WIDTH:0.718185
G1 X26.892 Y71.197 E8.3754
;WIDTH:0.669201
G1 X26.867 Y71.124 E8.37942
;WIDTH:0.620217
G1 X26.857 Y70.791 E8.39541
;WIDTH:0.599999
G1 X26.857 Y65.209 E8.65398
;WIDTH:0.644189
G1 X26.879 Y65.093 E8.65988
;WIDTH:0.688379
G1 X26.901 Y64.976 E8.66627
;WIDTH:0.732569
G1 X26.923 Y64.86 E8.67304
;WIDTH:0.776759
G1 X26.945 Y64.743 E8.6803
;WIDTH:0.820949
G1 X26.968 Y64.627 E8.68795
;WIDTH:0.865138
G1 X26.99 Y64.51 E8.69609
G1 X26.976 Y64.001 E8.7309
;WIDTH:0.8376
G1 X26.976 Y30.09 E10.97167
G1 X27.008 Y29.773 E10.99272
;WIDTH:0.83161
G1 X27.077 Y29.27 E11.02602
G1 X27.366 Y28.539 E11.07757
G1 X27.834 Y27.907 E11.12914
G1 X28.449 Y27.417 E11.18071
G1 X29.171 Y27.104 E11.23232
G1 X29.444 Y27.052 E11.25055
;WIDTH:0.837599
G1 X30.09 Y26.976 E11.29353
G1 X64.001 Y26.976 E13.5343
;WIDTH:0.864768
G1 X64.51 Y26.99 E13.5691
G1 X64.583 Y26.966 E13.57435
;WIDTH:0.815866
G1 X64.657 Y26.941 E13.57937
;WIDTH:0.766963
G1 X64.73 Y26.917 E13.584
;WIDTH:0.718061
G1 X64.803 Y26.892 E13.58833
;WIDTH:0.669158
G1 X64.876 Y26.868 E13.59233
;WIDTH:0.620255
G1 X65.209 Y26.858 E13.60832
;WIDTH:0.599999
G1 X70.791 Y26.858 E13.86689
;WIDTH:0.644115
G1 X70.907 Y26.88 E13.87279
;WIDTH:0.688231
G1 X71.024 Y26.902 E13.87918
;WIDTH:0.732347
G1 X71.14 Y26.924 E13.88595
;WIDTH:0.776463
G1 X71.257 Y26.946 E13.89321
;WIDTH:0.820579
G1 X71.373 Y26.968 E13.90084
;WIDTH:0.864694
G1 X71.49 Y26.99 E13.90897
G1 X71.999 Y26.977 E13.94376
;WIDTH:0.837153
G1 X106.001 Y26.977 E16.18928
;WIDTH:0.864319
G1 X106.51 Y26.991 E16.22406
G1 X106.583 Y26.966 E16.22933
;WIDTH:0.815516
G1 X106.656 Y26.942 E16.23427
;WIDTH:0.766712
G1 X106.73 Y26.918 E16.23895
;WIDTH:0.717908
G1 X106.803 Y26.893 E16.24328
;WIDTH:0.669104
G1 X106.876 Y26.869 E16.24728
;WIDTH:0.6203
G1 X107.209 Y26.859 E16.26327
;WIDTH:0.599999
G1 X112.791 Y26.859 E16.52184
;WIDTH:0.64404
G1 X112.908 Y26.881 E16.52779
;WIDTH:0.688081
G1 X113.024 Y26.903 E16.53412
;WIDTH:0.732122
G1 X113.141 Y26.925 E16.54094
;WIDTH:0.776163
G1 X113.257 Y26.947 E16.54814
;WIDTH:0.820204
G1 X113.374 Y26.969 E16.55583
;WIDTH:0.864245
G1 X113.49 Y26.991 E16.56389
G1 X113.999 Y26.977 E16.59866
;WIDTH:0.836705
G1 X148.001 Y26.978 E18.84291
;WIDTH:0.86387
G1 X148.51 Y26.992 E18.87767
G1 X148.583 Y26.967 E18.88294
;WIDTH:0.815167
G1 X148.656 Y26.943 E18.88787
;WIDTH:0.766463
G1 X148.73 Y26.918 E18.89257
;WIDTH:0.717759
G1 X148.803 Y26.894 E18.89688
;WIDTH:0.669055
G1 X148.876 Y26.87 E18.90088
;WIDTH:0.620351
G1 X149.209 Y26.86 E18.91688
;WIDTH:0.599999
G1 X154.791 Y26.86 E19.17545
;WIDTH:0.643966
G1 X154.908 Y26.882 E19.1814
;WIDTH:0.687932
G1 X155.024 Y26.904 E19.18773
;WIDTH:0.731898
G1 X155.141 Y26.926 E19.19455
;WIDTH:0.775864
G1 X155.257 Y26.948 E19.20175
;WIDTH:0.81983
G1 X155.374 Y26.97 E19.20944
;WIDTH:0.863796
G1 X155.49 Y26.992 E19.2175
G1 X155.999 Y26.978 E19.25226
;WIDTH:0.836259
G1 X189.936 Y26.978 E21.49096
;WIDTH:0.835896
G1 X190.227 Y27.008 E21.51025
;WIDTH:0.83161
G1 X190.73 Y27.077 E21.54355
G1 X190.993 Y27.169 E21.56182
;WIDTH:0.835917
G1 X191.584 Y27.445 E21.60483
G1 X192.093 Y27.834 E21.64707
;WIDTH:0.831609
G1 X192.275 Y28.044 E21.66529
G1 X192.634 Y28.539 E21.70539
;WIDTH:0.831618
G1 X192.896 Y29.171 E21.75026
G1 X192.948 Y29.444 E21.76849
;WIDTH:0.837604
G1 X193.024 Y30.064 E21.80977
G1 X193.024 Y64.001 E24.05227
;WIDTH:0.865143
G1 X193.01 Y64.51 E24.08708
G1 X193.035 Y64.583 E24.09236
;WIDTH:0.816164
G1 X193.059 Y64.657 E24.09736
;WIDTH:0.767184
G1 X193.084 Y64.73 E24.10201
;WIDTH:0.718205
G1 X193.108 Y64.803 E24.10632
;WIDTH:0.669225
G1 X193.133 Y64.876 E24.11034
;WIDTH:0.620245
G1 X193.143 Y65.137 E24.12288
;WIDTH:0.599999
G1 X193.143 Y70.791 E24.38478
;WIDTH:0.64419
G1 X193.121 Y70.907 E24.39068
;WIDTH:0.68838
G1 X193.099 Y71.024 E24.39707
;WIDTH:0.73257
G1 X193.077 Y71.14 E24.40384
;WIDTH:0.776761
G1 X193.055 Y71.257 E24.4111
;WIDTH:0.820951
G1 X193.032 Y71.373 E24.41875
;WIDTH:0.865141
G1 X193.01 Y71.49 E24.42689
G1 X193.024 Y71.999 E24.4617
;WIDTH:0.837604
G1 X193.024 Y106.001 E26.70849
;WIDTH:0.865143
G1 X193.01 Y106.51 E26.7433
G1 X193.035 Y106.583 E26.74858
;WIDTH:0.816163
G1 X193.059 Y106.657 E26.75358
;WIDTH:0.767183
G1 X193.084 Y106.73 E26.75823
;WIDTH:0.718202
G1 X193.108 Y106.803 E26.76254
;WIDTH:0.669222
G1 X193.133 Y106.876 E26.76656
;WIDTH:0.620241
G1 X193.143 Y107.137 E26.7791
;WIDTH:0.599999
G1 X193.143 Y112.791 E27.041
;WIDTH:0.64419
G1 X193.121 Y112.907 E27.0469
;WIDTH:0.68838
G1 X193.099 Y113.024 E27.05329
;WIDTH:0.732571
G1 X193.077 Y113.14 E27.06006
;WIDTH:0.776761
G1 X193.055 Y113.257 E27.06732
;WIDTH:0.820952
G1 X193.032 Y113.373 E27.07497
;WIDTH:0.865142
G1 X193.01 Y113.49 E27.08311
G1 X193.024 Y113.999 E27.11792
;WIDTH:0.837605
G1 X193.024 Y148.001 E29.36472
;WIDTH:0.865142
G1 X193.01 Y148.51 E29.39953
G1 X193.035 Y148.583 E29.40481
;WIDTH:0.816162
G1 X193.059 Y148.657 E29.40981
;WIDTH:0.767182
G1 X193.084 Y148.73 E29.41446
;WIDTH:0.718202
G1 X193.108 Y148.803 E29.41877
;WIDTH:0.669222
G1 X193.133 Y148.876 E29.42279
;WIDTH:0.620241
G1 X193.143 Y149.137 E29.43533
;WIDTH:0.599999
G1 X193.143 Y154.791 E29.69723
;WIDTH:0.64419
G1 X193.121 Y154.907 E29.70313
;WIDTH:0.68838
G1 X193.099 Y155.024 E29.70952
;WIDTH:0.732571
G1 X193.077 Y155.14 E29.71629
;WIDTH:0.776761
G1 X193.055 Y155.257 E29.72355
;WIDTH:0.820952
G1 X193.032 Y155.373 E29.7312
;WIDTH:0.865142
G1 X193.01 Y155.49 E29.73934
G1 X193.024 Y155.999 E29.77415
;WIDTH:0.837603
G1 X193.024 Y189.91 E32.01493
G1 X192.992 Y190.227 E32.03598
;WIDTH:0.831618
G1 X192.923 Y190.73 E32.06928
G1 X192.831 Y190.993 E32.08755
;WIDTH:0.835917
G1 X192.555 Y191.584 E32.13056
G1 X192.166 Y192.093 E32.1728
;WIDTH:0.831618
G1 X191.551 Y192.583 E32.22437
G1 X190.829 Y192.896 E32.27598
G1 X190.556 Y192.948 E32.29421
;WIDTH:0.837604
G1 X189.91 Y193.024 E32.33719
G1 X155.999 Y193.024 E34.57797
;WIDTH:0.865142
G1 X155.49 Y193.01 E34.61278
G1 X155.417 Y193.035 E34.61806
;WIDTH:0.816162
G1 X155.343 Y193.059 E34.62306
;WIDTH:0.767182
G1 X155.27 Y193.084 E34.62771
;WIDTH:0.718202
G1 X155.197 Y193.108 E34.63202
;WIDTH:0.669222
G1 X155.124 Y193.133 E34.63604
;WIDTH:0.620242
G1 X154.863 Y193.143 E34.64858
;WIDTH:0.599999
G1 X149.209 Y193.143 E34.91048
;WIDTH:0.64419
G1 X149.093 Y193.121 E34.91638
;WIDTH:0.68838
G1 X148.976 Y193.099 E34.92277
;WIDTH:0.732571
G1 X148.86 Y193.077 E34.92954
;WIDTH:0.776761
G1 X148.743 Y193.055 E34.9368
;WIDTH:0.820952
G1 X148.627 Y193.032 E34.94445
;WIDTH:0.865142
G1 X148.51 Y193.01 E34.95259
G1 X148.001 Y193.024 E34.9874
;WIDTH:0.837604
G1 X113.999 Y193.024 E37.23419
;WIDTH:0.865142
G1 X113.49 Y193.01 E37.269
G1 X113.417 Y193.035 E37.27428
;WIDTH:0.816161
G1 X113.343 Y193.059 E37.27928
;WIDTH:0.76718
G1 X113.27 Y193.084 E37.28393
;WIDTH:0.718198
G1 X113.197 Y193.108 E37.28824
;WIDTH:0.669217
G1 X113.124 Y193.133 E37.29226
;WIDTH:0.620235
G1 X112.791 Y193.143 E37.30825
;WIDTH:0.599999
G1 X107.209 Y193.143 E37.56682
;WIDTH:0.64419
G1 X107.093 Y193.121 E37.57272
;WIDTH:0.68838
G1 X106.976 Y193.099 E37.57911
;WIDTH:0.732571
G1 X106.86 Y193.077 E37.58588
;WIDTH:0.776761
G1 X106.743 Y193.055 E37.59314
;WIDTH:0.820952
G1 X106.627 Y193.032 E37.60079
;WIDTH:0.865142
G1 X106.51 Y193.01 E37.60893
G1 X106.001 Y193.024 E37.64374
;WIDTH:0.837604
G1 X71.999 Y193.024 E39.89053
;WIDTH:0.865142
G1 X71.49 Y193.01 E39.92534
G1 X71.417 Y193.035 E39.93062
;WIDTH:0.816163
G1 X71.343 Y193.059 E39.93562
;WIDTH:0.767183
G1 X71.27 Y193.084 E39.94027
;WIDTH:0.718203
G1 X71.197 Y193.108 E39.94458
;WIDTH:0.669223
G1 X71.124 Y193.133 E39.9486
;WIDTH:0.620243
G1 X70.863 Y193.143 E39.96114
;WIDTH:0.599999
G1 X65.209 Y193.143 E40.22304
;WIDTH:0.64419
G1 X65.093 Y193.121 E40.22894
;WIDTH:0.68838
G1 X64.976 Y193.099 E40.23533
;WIDTH:0.732571
G1 X64.86 Y193.077 E40.2421
;WIDTH:0.776761
G1 X64.743 Y193.055 E40.24936
;WIDTH:0.820952
G1 X64.627 Y193.032 E40.25701
;WIDTH:0.865142
G1 X64.51 Y193.01 E40.26515
G1 X64.001 Y193.024 E40.29996
;WIDTH:0.837604
G1 X30.09 Y193.024 E42.54074
G1 X29.773 Y192.992 E42.56179
;WIDTH:0.831618
G1 X29.33 Y192.931 E42.59112
G1 X29.054 Y193.573 F18000
;TYPE:External perimeter
;WIDTH:0.599999
G1 F1800
G1 X28.151 Y193.202 E42.63634
G1 X27.386 Y192.614 E42.68103
G1 X26.798 Y191.849 E42.72572
G1 X26.429 Y190.957 E42.77043
G1 X26.3 Y189.98 E42.81608
G1 X26.3 Y30.02 E50.22564
G1 X26.429 Y29.043 E50.27129
G1 X26.798 Y28.151 E50.316
G1 X27.386 Y27.386 E50.36069
G1 X28.151 Y26.798 E50.40538
G1 X29.043 Y26.429 E50.45009
G1 X30.02 Y26.3 E50.49574
G1 X190.006 Y26.303 E57.9065
G1 X190.957 Y26.429 E57.95094
G1 X191.849 Y26.798 E57.99565
G1 X192.614 Y27.386 E58.04034
G1 X193.117 Y28.04 E58.07856
G1 X193.256 Y28.281 E58.09145
G1 X193.571 Y29.043 E58.12964
G1 X193.7 Y30.02 E58.17529
G1 X193.7 Y189.98 E65.58485
G1 X193.571 Y190.957 E65.6305
G1 X193.202 Y191.849 E65.67521
G1 X192.614 Y192.614 E65.7199
G1 X191.849 Y193.202 E65.76459
G1 X190.957 Y193.571 E65.8093
G1 X189.98 Y193.7 E65.85495
G1 X30.02 Y193.7 E73.26451
G1 X29.113 Y193.581 E73.30688
G1 X28.949 Y193.187 F18000
;WIPE_START
G1 F14400
G1 X28.151 Y193.202 E73.1227
G1 X27.386 Y192.614 E72.95083
G1 X26.894 Y191.973 E72.80688
;WIPE_END
G92 E0
G1 Z.4 F18000
G1 X190.642 Y27.892
G1 Z.2
G1 E.5 F2700
;TYPE:Perimeter
;WIDTH:0.825854
G1 F1800
G1 X190.934 Y27.992 E.52009
;WIDTH:0.826575
G1 X191.444 Y28.32 E.5596
G1 X191.654 Y28.521 E.57854
;WIDTH:0.825855
G1 X191.981 Y28.999 E.61624
;WIDTH:0.825861
G1 X192.172 Y29.546 E.65396
;WIDTH:0.837603
G1 X192.229 Y30.09 E.6901
G1 X192.229 Y64.001 E2.93088
;WIDTH:0.865143
G1 X192.192 Y64.456 E2.96209
G1 X192.156 Y64.496 E2.96577
;WIDTH:0.816164
G1 X192.12 Y64.535 E2.96918
;WIDTH:0.767184
G1 X192.085 Y64.575 E2.97238
;WIDTH:0.718205
G1 X192.049 Y64.614 E2.97536
;WIDTH:0.669225
G1 X192.013 Y64.654 E2.97816
;WIDTH:0.620245
G1 X191.818 Y65.048 E2.99926
;WIDTH:0.599999
G1 X191.41 Y65.565 E3.02977
G1 X190.957 Y65.876 E3.05522
G1 X190.439 Y66.06 E3.08068
G1 X190.001 Y66.111 E3.10111
G1 X155.999 Y66.111 E4.67613
G1 X155.45 Y66.038 E4.70178
G1 X154.937 Y65.824 E4.72753
G1 X154.507 Y65.493 E4.75267
G1 X154.176 Y65.063 E4.77781
G1 X153.962 Y64.55 E4.80356
G1 X153.889 Y64.001 E4.82921
G1 X153.889 Y29.999 E6.40423
G1 X153.95 Y29.502 E6.42742
