; generated by PrusaSlicer 2.6.0-alpha5+win64 on 2023-03-15 at 18:15:19 UTC

; 

; external perimeters extrusion width = 0.40mm
; perimeters extrusion width = 0.40mm
; infill extrusion width = 0.40mm
; solid infill extrusion width = 0.40mm
; top infill extrusion width = 0.40mm
; first layer extrusion width = 0.40mm

; external perimeters extrusion width = 0.40mm
; perimeters extrusion width = 0.40mm
; infill extrusion width = 0.40mm
; solid infill extrusion width = 0.40mm
; top infill extrusion width = 0.40mm
; first layer extrusion width = 0.40mm

; external perimeters extrusion width = 0.40mm
; perimeters extrusion width = 0.40mm
; infill extrusion width = 0.40mm
; solid infill extrusion width = 0.40mm
; top infill extrusion width = 0.40mm
; first layer extrusion width = 0.40mm

; external perimeters extrusion width = 0.40mm
; perimeters extrusion width = 0.40mm
; infill extrusion width = 0.40mm
; solid infill extrusion width = 0.40mm
; top infill extrusion width = 0.40mm
; first layer extrusion width = 0.40mm

M107
M190 S60 ; set bed temperature and wait for it to be reached
M104 S215 ; set temperature
;TYPE:Custom
SET_GCODE_VARIABLE MACRO=START_PRINT VARIABLE=bed_temp VALUE=60
SET_GCODE_VARIABLE MACRO=START_PRINT VARIABLE=extruder_temp VALUE=215
START_PRINT
M109 S215 ; set temperature and wait for it to be reached
G21 ; set units to millimeters
G90 ; use absolute coordinates
M82 ; use absolute distances for extrusion
G92 E0
; Filament gcode
M107
;LAYER_CHANGE
;Z:0.2
;HEIGHT:0.2
;BEFORE_LAYER_CHANGE
;0.2


G1 Z.2 F18000
;AFTER_LAYER_CHANGE
;0.2
G1 E-.5 F2700
G92 E0
G1 Z.4 F18000
G1 X47.508 Y47.705
G1 Z.2
G1 E.5 F2700
;TYPE:Skirt/Brim
;WIDTH:0.4
G1 F3600
G1 X48.614 Y46.775 E.54291
G1 X49.616 Y46.224 E.57686
G1 X50.921 Y45.815 E.61747
G1 X52.278 Y45.663 E.65801
G1 X168.16 Y45.68 E4.0987
G1 X169.291 Y45.854 E4.13268
G1 X170.685 Y46.372 E4.17683
G1 X171.868 Y47.127 E4.2185
G1 X172.674 Y47.895 E4.25156
G1 X173.242 Y48.639 E4.27935
G1 X173.776 Y49.616 E4.31241
G1 X174.185 Y50.921 E4.35302
G1 X174.337 Y52.278 E4.39356
G1 X174.337 Y167.722 E7.82124
G1 X174.239 Y168.811 E7.8537
G1 X173.87 Y170.154 E7.89505
G1 X173.376 Y171.152 E7.92811
G1 X172.492 Y172.295 E7.97101
G1 X171.386 Y173.225 E8.01392
G1 X170.384 Y173.776 E8.04787
G1 X169.079 Y174.185 E8.08848
G1 X167.722 Y174.337 E8.12902
G1 X52.278 Y174.337 E11.5567
G1 X51.189 Y174.239 E11.58916
G1 X49.846 Y173.87 E11.63051
G1 X48.848 Y173.376 E11.66357
G1 X47.705 Y172.492 E11.70647
G1 X46.775 Y171.386 E11.74938
G1 X46.224 Y170.384 E11.78333
G1 X45.815 Y169.079 E11.82394
G1 X45.663 Y167.722 E11.86448
G1 X45.663 Y52.278 E15.29216
G1 X45.761 Y51.189 E15.32462
G1 X46.13 Y49.846 E15.36597
G1 X46.624 Y48.848 E15.39903
G1 X47.472 Y47.752 E15.44017
G1 X47.753 Y47.97 F18000
G1 F3600
G1 X48.808 Y47.075 E15.48125
G1 X49.763 Y46.549 E15.51362
G1 X50.988 Y46.166 E15.55173
G1 X52.278 Y46.02 E15.59028
G1 X168.133 Y46.036 E19.03016
G1 X169.21 Y46.202 E19.06252
G1 X170.53 Y46.693 E19.10434
G1 X171.64 Y47.403 E19.14346
G1 X172.408 Y48.133 E19.17492
G1 X172.942 Y48.833 E19.20106
G1 X173.451 Y49.763 E19.23254
G1 X173.834 Y50.988 E19.27065
G1 X173.98 Y52.278 E19.3092
G1 X173.98 Y167.722 E22.73688
G1 X173.886 Y168.758 E22.76777
G1 X173.539 Y170.02 E22.80663
G1 X173.069 Y170.969 E22.83807
G1 X172.23 Y172.052 E22.87875
G1 X171.192 Y172.925 E22.91902
G1 X170.237 Y173.451 E22.95139
G1 X169.012 Y173.834 E22.9895
G1 X167.722 Y173.98 E23.02805
G1 X52.278 Y173.98 E26.45573
G1 X51.242 Y173.886 E26.48662
G1 X49.98 Y173.539 E26.52548
G1 X49.031 Y173.069 E26.55692
G1 X47.948 Y172.23 E26.5976
G1 X47.075 Y171.192 E26.63787
G1 X46.549 Y170.237 E26.67024
G1 X46.166 Y169.012 E26.70835
G1 X46.02 Y167.722 E26.7469
G1 X46.02 Y52.278 E30.17458
G1 X46.114 Y51.242 E30.20547
G1 X46.461 Y49.98 E30.24433
G1 X46.931 Y49.031 E30.27577
G1 X47.716 Y48.018 E30.31382
;WIPE_START
G1 F14400
G1 X48.808 Y47.075 E30.05682
G1 X49.763 Y46.549 E29.86261
G1 X50.024 Y46.467 E29.81382
;WIPE_END
G92 E0
G1 Z.4 F18000
G1 X51.762 Y51.816
G1 Z.2
G1 E.5 F2700
;TYPE:External perimeter
;WIDTH:0.399999
G1 F3600
G1 X52.026 Y51.628 E.50962
G1 X52.296 Y51.578 E.51777
G1 X86.139 Y51.58 E1.52261
G1 X86.434 Y51.611 E1.53142
G1 X86.669 Y51.749 E1.53951
G1 X86.877 Y52.026 E1.5498
G1 X86.928 Y52.369 E1.5601
G1 X86.928 Y86.136 E2.56268
G1 X86.884 Y86.46 E2.57239
G1 X86.743 Y86.689 E2.58037
G1 X86.479 Y86.877 E2.58999
G1 X86.209 Y86.927 E2.59814
G1 X52.369 Y86.927 E3.60289
G1 X52.045 Y86.884 E3.61259
G1 X51.816 Y86.743 E3.62057
G1 X51.628 Y86.479 E3.63019
G1 X51.578 Y86.209 E3.63834
G1 X51.578 Y52.369 E4.64309
G1 X51.621 Y52.045 E4.65279
G1 X51.731 Y51.868 E4.65898
;WIPE_START
G1 F14400
G1 X52.026 Y51.628 E4.59124
G1 X52.296 Y51.578 E4.54233
G1 X54.448 Y51.578 E4.15898
;WIPE_END
G92 E0
G1 Z.4 F18000
G1 X86.82 Y52.779
G1 Z.2
G1 E.5 F2700
;TYPE:Solid infill
;WIDTH:0.402197
G1 F3600
G1 X85.889 Y51.848 E.53933
G1 X85.381 Y51.848 E.55451
G1 X86.66 Y53.126 E.60852
G1 X86.66 Y53.634 E.6237
G1 X84.873 Y51.848 E.69918
G1 X84.365 Y51.848 E.71436
G1 X86.66 Y54.142 E.8113
G1 X86.66 Y54.65 E.82648
G1 X83.857 Y51.847 E.9449
G1 X83.349 Y51.847 E.96008
G1 X86.66 Y55.158 E1.09996
G1 X86.66 Y55.667 E1.11517
G1 X82.841 Y51.847 E1.27654
G1 X82.332 Y51.847 E1.29175
G1 X86.66 Y56.175 E1.4746
G1 X86.66 Y56.683 E1.48978
G1 X81.824 Y51.847 E1.69409
G1 X81.316 Y51.847 E1.70927
G1 X86.66 Y57.191 E1.93504
G1 X86.66 Y57.699 E1.95022
G1 X80.808 Y51.847 E2.19746
G1 X80.3 Y51.847 E2.21264
G1 X86.66 Y58.207 E2.48134
G1 X86.66 Y58.715 E2.49652
G1 X79.792 Y51.847 E2.78668
G1 X79.284 Y51.847 E2.80186
G1 X86.66 Y59.223 E3.11348
G1 X86.66 Y59.731 E3.12866
G1 X78.776 Y51.847 E3.46174
G1 X78.267 Y51.847 E3.47695
G1 X86.66 Y60.239 E3.83152
G1 X86.66 Y60.747 E3.8467
G1 X77.759 Y51.847 E4.22273
G1 X77.251 Y51.847 E4.23791
G1 X86.66 Y61.256 E4.63542
G1 X86.66 Y61.764 E4.6506
G1 X76.743 Y51.847 E5.06958
G1 X76.235 Y51.847 E5.08476
G1 X86.66 Y62.272 E5.5252
G1 X86.66 Y62.78 E5.54038
G1 X75.727 Y51.847 E6.00228
G1 X75.219 Y51.847 E6.01746
G1 X86.66 Y63.288 E6.50082
G1 X86.66 Y63.796 E6.516
G1 X74.711 Y51.847 E7.02082
G1 X74.202 Y51.847 E7.03603
G1 X86.66 Y64.304 E7.56234
G1 X86.66 Y64.812 E7.57752
G1 X73.694 Y51.847 E8.12529
G1 X73.186 Y51.847 E8.14047
G1 X86.66 Y65.32 E8.7097
G1 X86.66 Y65.828 E8.72488
G1 X72.678 Y51.847 E9.31557
G1 X72.17 Y51.847 E9.33075
G1 X86.66 Y66.337 E9.94293
G1 X86.66 Y66.845 E9.95811
G1 X71.662 Y51.847 E10.59175
G1 X71.154 Y51.847 E10.60693
G1 X86.66 Y67.353 E11.26203
G1 X86.66 Y67.861 E11.27721
G1 X70.645 Y51.847 E11.95379
G1 X70.137 Y51.847 E11.96897
G1 X86.66 Y68.369 E12.66702
G1 X86.66 Y68.877 E12.6822
G1 X69.629 Y51.847 E13.40171
G1 X69.121 Y51.846 E13.41689
G1 X86.66 Y69.385 E14.15788
G1 X86.66 Y69.893 E14.17306
G1 X68.613 Y51.846 E14.93551
G1 X68.105 Y51.846 E14.95069
G1 X86.66 Y70.401 E15.73461
G1 X86.66 Y70.909 E15.74979
G1 X67.597 Y51.846 E16.55517
G1 X67.089 Y51.846 E16.57035
G1 X86.66 Y71.417 E17.39719
G1 X86.66 Y71.926 E17.4124
G1 X66.58 Y51.846 E18.26074
G1 X66.072 Y51.846 E18.27592
G1 X86.66 Y72.434 E19.14573
G1 X86.66 Y72.942 E19.16091
G1 X65.564 Y51.846 E20.05218
G1 X65.056 Y51.846 E20.06736
G1 X86.66 Y73.45 E20.98009
G1 X86.66 Y73.958 E20.99527
G1 X64.548 Y51.846 E21.92946
G1 X64.04 Y51.846 E21.94464
G1 X86.66 Y74.466 E22.90029
G1 X86.66 Y74.974 E22.91547
G1 X63.532 Y51.846 E23.89259
G1 X63.024 Y51.846 E23.90777
G1 X86.66 Y75.482 E24.90635
G1 X86.66 Y75.99 E24.92153
G1 X62.515 Y51.846 E25.94159
G1 X62.007 Y51.846 E25.95677
G1 X86.66 Y76.498 E26.99829
G1 X86.66 Y77.006 E27.01347
G1 X61.499 Y51.846 E28.07646
G1 X60.991 Y51.846 E28.09164
G1 X86.66 Y77.515 E29.17611
G1 X86.66 Y78.023 E29.19129
G1 X60.483 Y51.846 E30.29722
G1 X59.975 Y51.846 E30.3124
G1 X86.66 Y78.531 E31.43979
G1 X86.66 Y79.039 E31.45497
G1 X59.467 Y51.846 E32.60383
G1 X58.959 Y51.846 E32.61901
G1 X86.66 Y79.547 E33.78933
G1 X86.66 Y80.055 E33.80451
G1 X58.45 Y51.846 E34.99631
G1 X57.942 Y51.846 E35.01149
G1 X86.66 Y80.563 E36.22475
G1 X86.66 Y81.071 E36.23993
G1 X57.434 Y51.846 E37.47466
G1 X56.926 Y51.846 E37.48984
G1 X86.66 Y81.579 E38.74603
G1 X86.66 Y82.087 E38.76121
G1 X56.418 Y51.846 E40.03886
G1 X55.91 Y51.846 E40.05404
G1 X86.66 Y82.596 E41.35317
G1 X86.66 Y83.104 E41.36835
G1 X55.402 Y51.846 E42.68894
G1 X54.893 Y51.845 E42.70415
G1 X86.66 Y83.612 E44.04625
G1 X86.66 Y84.12 E44.06143
G1 X54.385 Y51.845 E45.42499
G1 X53.877 Y51.845 E45.44017
G1 X86.66 Y84.628 E46.82519
G1 X86.66 Y85.136 E46.84037
G1 X53.369 Y51.845 E48.24686
G1 X52.861 Y51.845 E48.26204
G1 X86.66 Y85.644 E49.68999
G1 X86.66 Y86.152 E49.70517
G1 X52.356 Y51.848 E51.15445
G1 X52.121 Y51.883 E51.16155
G1 X51.996 Y51.958 E51.1659
G1 X51.977 Y51.978 E51.16672
G1 X86.527 Y86.528 E52.6264
G1 X86.383 Y86.623 E52.63155
G1 X86.151 Y86.66 E52.63857
G1 X51.845 Y52.354 E54.08794
G1 X51.845 Y52.862 E54.10312
G1 X85.643 Y86.66 E55.53103
G1 X85.135 Y86.66 E55.54621
G1 X51.845 Y53.37 E56.95265
G1 X51.845 Y53.878 E56.96783
G1 X84.627 Y86.66 E58.35281
G1 X84.119 Y86.66 E58.36799
G1 X51.845 Y54.386 E59.73151
G1 X51.845 Y54.894 E59.74669
G1 X83.611 Y86.66 E61.08875
G1 X83.102 Y86.66 E61.10396
G1 X51.845 Y55.403 E62.42451
G1 X51.845 Y55.911 E62.43969
G1 X82.594 Y86.66 E63.73878
G1 X82.086 Y86.66 E63.75396
G1 X51.845 Y56.419 E65.03159
G1 X51.845 Y56.927 E65.04677
G1 X81.578 Y86.66 E66.30294
G1 X81.07 Y86.66 E66.31812
G1 X51.845 Y57.435 E67.55282
G1 X51.845 Y57.943 E67.568
G1 X80.562 Y86.66 E68.78124
G1 X80.054 Y86.66 E68.79642
G1 X51.845 Y58.451 E69.9882
G1 X51.845 Y58.959 E70.00338
G1 X79.546 Y86.66 E71.1737
G1 X79.038 Y86.66 E71.18888
G1 X51.845 Y59.467 E72.33774
G1 X51.845 Y59.975 E72.35292
G1 X78.53 Y86.66 E73.48031
G1 X78.022 Y86.66 E73.49549
G1 X51.845 Y60.484 E74.6014
G1 X51.845 Y60.992 E74.61658
G1 X77.513 Y86.66 E75.70101
G1 X77.005 Y86.66 E75.71619
G1 X51.845 Y61.5 E76.77916
G1 X51.845 Y62.008 E76.79434
G1 X76.497 Y86.66 E77.83584
G1 X75.989 Y86.66 E77.85102
G1 X51.845 Y62.516 E78.87106
G1 X51.845 Y63.024 E78.88624
G1 X75.481 Y86.66 E79.88482
G1 X74.973 Y86.66 E79.9
G1 X51.845 Y63.532 E80.87712
G1 X51.845 Y64.04 E80.8923
G1 X74.465 Y86.66 E81.84795
G1 X73.957 Y86.66 E81.86313
G1 X51.845 Y64.548 E82.79732
G1 X51.845 Y65.056 E82.8125
G1 X73.449 Y86.66 E83.72523
G1 X72.941 Y86.66 E83.74041
G1 X51.845 Y65.564 E84.63168
G1 X51.845 Y66.073 E84.64689
G1 X72.432 Y86.66 E85.51665
G1 X71.924 Y86.66 E85.53183
G1 X51.845 Y66.581 E86.38013
G1 X51.845 Y67.089 E86.39531
G1 X71.416 Y86.66 E87.22215
G1 X70.908 Y86.66 E87.23733
G1 X51.845 Y67.597 E88.04271
G1 X51.845 Y68.105 E88.05789
G1 X70.4 Y86.66 E88.84181
G1 X69.892 Y86.66 E88.85699
G1 X51.845 Y68.613 E89.61944
G1 X51.845 Y69.121 E89.63462
G1 X69.384 Y86.66 E90.37561
G1 X68.876 Y86.66 E90.39079
G1 X51.845 Y69.629 E91.11032
G1 X51.845 Y70.137 E91.1255
G1 X68.368 Y86.66 E91.82357
G1 X67.86 Y86.66 E91.83875
G1 X51.845 Y70.645 E92.51536
G1 X51.845 Y71.153 E92.53054
G1 X67.352 Y86.66 E93.18568
G1 X66.843 Y86.66 E93.20089
G1 X51.845 Y71.662 E93.83453
G1 X51.845 Y72.17 E93.84971
G1 X66.335 Y86.66 E94.46189
G1 X65.827 Y86.66 E94.47707
G1 X51.845 Y72.678 E95.06778
G1 X51.845 Y73.186 E95.08296
G1 X65.319 Y86.66 E95.65221
G1 X64.811 Y86.66 E95.66739
G1 X51.845 Y73.694 E96.21518
G1 X51.845 Y74.202 E96.23036
G1 X64.303 Y86.66 E96.75669
G1 X63.795 Y86.66 E96.77187
G1 X51.845 Y74.71 E97.27674
G1 X51.845 Y75.218 E97.29192
G1 X63.287 Y86.66 E97.77532
G1 X62.779 Y86.66 E97.7905
G1 X51.845 Y75.726 E98.25244
G1 X51.845 Y76.234 E98.26762
G1 X62.271 Y86.66 E98.7081
G1 X61.762 Y86.66 E98.72331
G1 X51.845 Y76.743 E99.14229
G1 X51.845 Y77.251 E99.15747
G1 X61.254 Y86.66 E99.55498
G1 X60.746 Y86.66 E99.57016
G1 X51.845 Y77.759 E99.94621
G1 X51.845 Y78.267 E99.96139
G1 X60.238 Y86.66 E100.31598
G1 X59.73 Y86.66 E100.33116
G1 X51.845 Y78.775 E100.66429
G1 X51.845 Y79.283 E100.67947
G1 X59.222 Y86.66 E100.99114
G1 X58.714 Y86.66 E101.00632
G1 X51.845 Y79.791 E101.29652
G1 X51.845 Y80.299 E101.3117
G1 X58.206 Y86.66 E101.58044
G1 X57.698 Y86.66 E101.59562
G1 X51.845 Y80.807 E101.8429
G1 X51.845 Y81.315 E101.85808
G1 X57.19 Y86.66 E102.0839
G1 X56.682 Y86.66 E102.09908
G1 X51.845 Y81.823 E102.30343
G1 X51.845 Y82.332 E102.31864
G1 X56.173 Y86.66 E102.50149
G1 X55.665 Y86.66 E102.51667
G1 X51.845 Y82.84 E102.67806
G1 X51.845 Y83.348 E102.69324
G1 X55.157 Y86.66 E102.83317
G1 X54.649 Y86.66 E102.84835
G1 X51.845 Y83.856 E102.96681
G1 X51.845 Y84.364 E102.98199
G1 X54.141 Y86.66 E103.07899
G1 X53.633 Y86.66 E103.09417
G1 X51.845 Y84.872 E103.16971
G1 X51.845 Y85.38 E103.18489
G1 X53.125 Y86.66 E103.23897
G1 X52.617 Y86.66 E103.25415
G1 X51.845 Y85.888 E103.28677
G1 X51.845 Y86.184 E103.29561
G1 X51.882 Y86.383 E103.30166
G1 X51.957 Y86.508 E103.30601
G1 X52.262 Y86.813 E103.3189
M106 S255
;LAYER_CHANGE
;Z:0.4
;HEIGHT:0.2
;BEFORE_LAYER_CHANGE
;0.4


G1 Z.4 F18000
;AFTER_LAYER_CHANGE
;0.4
G1 X52.219 Y87.1
;TYPE:External perimeter
;WIDTH:0.399999
G1 F1055.931
G1 X52.015 Y87.07 E103.32502
G1 F920.119
G1 X51.772 Y86.969 E103.33283
G1 F919.523
G1 X51.483 Y86.632 E103.34601
G1 F900
G1 X51.378 Y86.21 E103.35892
G1 X51.378 Y85.61 E103.37673
G1 F899.994
G1 X51.378 Y53 E104.34496
G1 X51.378 Y52.4 E104.36277
G1 X51.435 Y52.015 E104.37433
G1 F920.119
G1 X51.536 Y51.772 E104.38214
G1 F919.523
G1 X51.873 Y51.483 E104.39532
G1 F900.027
G1 X52.295 Y51.378 E104.40823
G1 X52.895 Y51.378 E104.42604
G1 F901.143
G1 X85.534 Y51.384 E105.39513
G1 F961.826
G1 X86.127 Y51.384 E105.41274
G1 F905.237
G1 X86.377 Y51.398 E105.42017
G1 X86.735 Y51.537 E105.43157
G1 F925.311
G1 X86.86 Y51.669 E105.43697
G1 F917.965
G1 X87.066 Y51.958 E105.44751
G1 F899.994
G1 X87.128 Y52.385 E105.46032
G1 X87.128 Y52.985 E105.47813
G1 X87.128 Y85.505 E106.44369
G1 X87.128 Y86.105 E106.4615
G1 X87.07 Y86.49 E106.47306
G1 F920.111
G1 X86.969 Y86.733 E106.48087
G1 F919.523
G1 X86.632 Y87.022 E106.49405
G1 F899.994
G1 X86.21 Y87.127 E106.50696
G1 X85.61 Y87.127 E106.52477
G1 X53 Y87.127 E107.493
G1 X52.4 Y87.127 E107.51081
G1 X52.278 Y87.109 E107.51447
G1 F1063.62
;WIPE_START
G1 F14400
G1 X52.015 Y87.07 E107.46711
G1 X51.772 Y86.969 E107.42024
G1 X51.483 Y86.632 E107.34116
G1 X51.378 Y86.21 E107.2637
G1 X51.378 Y84.811 E107.01447
;WIPE_END
G92 E0
G1 Z.6 F18000
G1 X86.323 Y86.998
G1 Z.4
G1 E.5 F2700
;TYPE:Top solid infill
;WIDTH:0.402319
G1 F9000
G1 X86.753 Y86.568 E.51817
G1 X86.798 Y86.482 E.52107
G1 X86.86 Y86.181 E.53025
G1 X86.86 Y85.953 E.53706
G1 X85.953 Y86.86 E.57539
G1 X85.445 Y86.86 E.59057
G1 X86.86 Y85.445 E.65037
G1 X86.86 Y84.937 E.66555
G1 X84.937 Y86.86 E.74682
G1 X84.429 Y86.86 E.762
G1 X86.86 Y84.429 E.86474
G1 X86.86 Y83.92 E.87995
G1 X83.92 Y86.86 E1.0042
G1 X83.412 Y86.86 E1.01938
G1 X86.86 Y83.412 E1.1651
G1 X86.86 Y82.904 E1.18028
G1 X82.904 Y86.86 E1.34747
G1 X82.395 Y86.86 E1.36268
G1 X86.86 Y82.395 E1.55138
G1 X86.86 Y81.887 E1.56656
G1 X81.887 Y86.86 E1.77673
G1 X81.379 Y86.86 E1.79191
G1 X86.86 Y81.379 E2.02355
G1 X86.86 Y80.871 E2.03873
G1 X80.871 Y86.86 E2.29184
G1 X80.362 Y86.86 E2.30705
G1 X86.86 Y80.362 E2.58167
G1 X86.86 Y79.854 E2.59685
G1 X79.854 Y86.86 E2.89294
G1 X79.346 Y86.86 E2.90812
G1 X86.86 Y79.346 E3.22568
G1 X86.86 Y78.838 E3.24086
G1 X78.838 Y86.86 E3.57989
G1 X78.329 Y86.86 E3.5951
G1 X86.86 Y78.329 E3.95564
G1 X86.86 Y77.821 E3.97082
G1 X77.821 Y86.86 E4.35283
G1 X77.313 Y86.86 E4.36801
G1 X86.86 Y77.313 E4.77149
G1 X86.86 Y76.805 E4.78667
G1 X76.805 Y86.86 E5.21162
G1 X76.296 Y86.86 E5.22683
G1 X86.86 Y76.296 E5.67329
G1 X86.86 Y75.788 E5.68847
G1 X75.788 Y86.86 E6.1564
G1 X75.28 Y86.86 E6.17158
G1 X86.86 Y75.28 E6.66098
G1 X86.86 Y74.771 E6.67619
G1 X74.771 Y86.86 E7.1871
G1 X74.263 Y86.86 E7.20228
G1 X86.86 Y74.263 E7.73466
G1 X86.86 Y73.755 E7.74984
G1 X73.755 Y86.86 E8.30369
G1 X73.247 Y86.86 E8.31887
G1 X86.86 Y73.247 E8.89419
G1 X86.86 Y72.738 E8.9094
G1 X72.738 Y86.86 E9.50623
G1 X72.23 Y86.86 E9.52141
G1 X86.86 Y72.23 E10.13971
G1 X86.86 Y71.722 E10.15489
G1 X71.722 Y86.86 E10.79466
G1 X71.214 Y86.86 E10.80984
G1 X86.86 Y71.214 E11.47108
G1 X86.86 Y70.705 E11.48629
G1 X70.705 Y86.86 E12.16904
G1 X70.197 Y86.86 E12.18422
G1 X86.86 Y70.197 E12.88844
G1 X86.86 Y69.689 E12.90362
