; generated by PrusaSlicer 2.6.0-alpha5+win64 on 2023-03-15 at 18:14:43 UTC

; 

; external perimeters extrusion width = 0.40mm
; perimeters extrusion width = 0.40mm
; infill extrusion width = 0.40mm
; solid infill extrusion width = 0.40mm
; top infill extrusion width = 0.40mm
; first layer extrusion width = 0.40mm

M107
M190 S60 ; set bed temperature and wait for it to be reached
M104 S215 ; set temperature
;TYPE:Custom
SET_GCODE_VARIABLE MACRO=START_PRINT VARIABLE=bed_temp VALUE=60
SET_GCODE_VARIABLE MACRO=START_PRINT VARIABLE=extruder_temp VALUE=215
START_PRINT
M109 S215 ; set temperature and wait for it to be reached
G21 ; set units to millimeters
G90 ; use absolute coordinates
M82 ; use absolute distances for extrusion
G92 E0
; Filament gcode
M107
;LAYER_CHANGE
;Z:0.2
;HEIGHT:0.2
;BEFORE_LAYER_CHANGE
;0.2


G1 Z.2 F18000
;AFTER_LAYER_CHANGE
;0.2
G1 E-.5 F2700
G92 E0
G1 Z.4 F18000
G1 X88.666 Y88.053
G1 Z.2
G1 E.5 F2700
;TYPE:Skirt/Brim
;WIDTH:0.4
G1 F3600
G1 X89.817 Y87.249 E.54169
G1 X91.188 Y86.675 E.58582
G1 X92.478 Y86.437 E.62477
G1 X127.413 Y86.428 E1.66204
G1 X128.544 Y86.602 E1.69602
G1 X129.749 Y87.029 E1.73398
G1 X130.404 Y87.371 E1.75592
G1 X131.548 Y88.256 E1.79886
G1 X132.477 Y89.361 E1.84172
G1 X133.016 Y90.336 E1.8748
G1 X133.333 Y91.217 E1.9026
G1 X133.559 Y92.44 E1.93953
G1 X133.589 Y126.975 E2.96492
G1 X133.492 Y128.063 E2.99735
G1 X133.134 Y129.378 E3.03782
G1 X132.644 Y130.378 E3.07088
G1 X132.106 Y131.144 E3.09867
G1 X131.334 Y131.947 E3.13174
G1 X130.613 Y132.494 E3.15861
G1 X129.664 Y133.016 E3.19077
G1 X128.331 Y133.438 E3.23228
G1 X126.975 Y133.589 E3.27279
G1 X92.587 Y133.572 E4.29381
G1 X91.486 Y133.405 E4.32687
G1 X90.622 Y133.134 E4.35376
G1 X89.622 Y132.644 E4.38682
G1 X88.856 Y132.106 E4.41461
G1 X88.053 Y131.334 E4.44768
G1 X87.506 Y130.613 E4.47455
G1 X86.984 Y129.664 E4.50671
G1 X86.562 Y128.331 E4.54822
G1 X86.411 Y126.975 E4.58873
G1 X86.428 Y92.587 E5.60975
G1 X86.595 Y91.486 E5.64281
G1 X86.866 Y90.622 E5.6697
G1 X87.356 Y89.622 E5.70276
G1 X87.894 Y88.856 E5.73055
G1 X88.624 Y88.096 E5.76184
G1 X88.881 Y88.342 F18000
G1 F3600
G1 X89.995 Y87.558 E5.80229
G1 X91.282 Y87.02 E5.84371
G1 X92.513 Y86.792 E5.88088
G1 X127.385 Y86.784 E6.91627
G1 X128.462 Y86.949 E6.94862
G1 X129.595 Y87.35 E6.98431
G1 X130.222 Y87.678 E7.00532
G1 X131.305 Y88.517 E7.046
G1 X132.178 Y89.555 E7.08627
G1 X132.691 Y90.482 E7.11773
G1 X132.989 Y91.312 E7.14391
G1 X133.204 Y92.474 E7.179
G1 X133.232 Y126.975 E8.20338
G1 X133.139 Y128.01 E8.23423
G1 X132.803 Y129.244 E8.2722
G1 X132.337 Y130.196 E8.30367
G1 X131.83 Y130.917 E8.32984
G1 X131.097 Y131.681 E8.36128
G1 X130.419 Y132.194 E8.38652
G1 X129.518 Y132.691 E8.41707
G1 X128.265 Y133.087 E8.45609
G1 X126.975 Y133.232 E8.49463
G1 X93.025 Y133.232 E9.50265
G1 X91.99 Y133.139 E9.5335
G1 X90.756 Y132.803 E9.57147
G1 X89.804 Y132.337 E9.60294
G1 X89.083 Y131.83 E9.62911
G1 X88.319 Y131.097 E9.66055
G1 X87.806 Y130.419 E9.68579
G1 X87.309 Y129.518 E9.71634
G1 X86.913 Y128.265 E9.75536
G1 X86.768 Y126.975 E9.7939
G1 X86.768 Y93.025 E10.80192
G1 X86.861 Y91.99 E10.83277
G1 X87.197 Y90.756 E10.87074
G1 X87.663 Y89.804 E10.90221
G1 X88.17 Y89.083 E10.92838
G1 X88.839 Y88.386 E10.95707
;WIPE_START
G1 F14400
G1 X89.995 Y87.558 E10.70379
G1 X91.273 Y87.024 E10.45707
;WIPE_END
G92 E0
G1 Z.4 F18000
G1 X92.51 Y92.564
G1 Z.2
G1 E.5 F2700
;TYPE:External perimeter
;WIDTH:0.399999
G1 F3600
G1 X92.774 Y92.375 E.50964
G1 X93.043 Y92.325 E.51776
G1 X126.886 Y92.327 E1.5226
G1 X127.182 Y92.358 E1.53144
G1 X127.416 Y92.496 E1.53951
G1 X127.625 Y92.774 E1.54984
G1 X127.675 Y93.116 E1.5601
G1 X127.675 Y126.884 E2.56271
G1 X127.631 Y127.207 E2.57239
G1 X127.49 Y127.436 E2.58037
G1 X127.226 Y127.625 E2.59001
G1 X126.957 Y127.675 E2.59813
G1 X93.116 Y127.675 E3.60291
G1 X92.793 Y127.631 E3.61259
G1 X92.564 Y127.49 E3.62057
G1 X92.375 Y127.226 E3.63021
G1 X92.325 Y126.957 E3.63833
G1 X92.325 Y93.116 E4.64311
G1 X92.369 Y92.793 E4.65279
G1 X92.478 Y92.615 E4.65899
;WIPE_START
G1 F14400
G1 X92.774 Y92.375 E4.59111
G1 X93.043 Y92.325 E4.54237
G1 X95.195 Y92.325 E4.15899
;WIPE_END
G92 E0
G1 Z.4 F18000
G1 X127.568 Y93.526
G1 Z.2
G1 E.5 F2700
;TYPE:Solid infill
;WIDTH:0.402197
G1 F3600
G1 X126.637 Y92.595 E.53933
G1 X126.129 Y92.595 E.55451
G1 X127.407 Y93.874 E.60852
G1 X127.407 Y94.382 E.6237
G1 X125.621 Y92.595 E.69918
G1 X125.112 Y92.595 E.71439
G1 X127.407 Y94.89 E.81135
G1 X127.407 Y95.398 E.82653
G1 X124.604 Y92.595 E.94495
G1 X124.096 Y92.595 E.96013
G1 X127.407 Y95.906 E1.10001
G1 X127.407 Y96.414 E1.11519
G1 X123.588 Y92.595 E1.27654
G1 X123.08 Y92.595 E1.29172
G1 X127.407 Y96.922 E1.47453
G1 X127.407 Y97.43 E1.48971
G1 X122.572 Y92.595 E1.69398
G1 X122.064 Y92.595 E1.70916
G1 X127.407 Y97.938 E1.93489
G1 X127.407 Y98.446 E1.95007
G1 X121.556 Y92.595 E2.19726
G1 X121.047 Y92.595 E2.21247
G1 X127.407 Y98.954 E2.48115
G1 X127.407 Y99.463 E2.49636
G1 X120.539 Y92.595 E2.78652
G1 X120.031 Y92.595 E2.8017
G1 X127.407 Y99.971 E3.11332
G1 X127.407 Y100.479 E3.1285
G1 X119.523 Y92.595 E3.46158
G1 X119.015 Y92.595 E3.47676
G1 X127.407 Y100.987 E3.83131
G1 X127.407 Y101.495 E3.84649
G1 X118.507 Y92.595 E4.2225
G1 X117.999 Y92.595 E4.23768
G1 X127.407 Y102.003 E4.63515
G1 X127.407 Y102.511 E4.65033
G1 X117.491 Y92.595 E5.06926
G1 X116.982 Y92.594 E5.08447
G1 X127.407 Y103.019 E5.52491
G1 X127.407 Y103.527 E5.54009
G1 X116.474 Y92.594 E6.00199
G1 X115.966 Y92.594 E6.01717
G1 X127.407 Y104.035 E6.50053
G1 X127.407 Y104.544 E6.51574
G1 X115.458 Y92.594 E7.02059
G1 X114.95 Y92.594 E7.03577
G1 X127.407 Y105.052 E7.56208
G1 X127.407 Y105.56 E7.57726
G1 X114.442 Y92.594 E8.12503
G1 X113.934 Y92.594 E8.14021
G1 X127.407 Y106.068 E8.70944
G1 X127.407 Y106.576 E8.72462
G1 X113.426 Y92.594 E9.31531
G1 X112.917 Y92.594 E9.33052
G1 X127.407 Y107.084 E9.9427
G1 X127.407 Y107.592 E9.95788
G1 X112.409 Y92.594 E10.59152
G1 X111.901 Y92.594 E10.6067
G1 X127.407 Y108.1 E11.2618
G1 X127.407 Y108.608 E11.27698
G1 X111.393 Y92.594 E11.95354
G1 X110.885 Y92.594 E11.96872
G1 X127.407 Y109.116 E12.66675
G1 X127.407 Y109.624 E12.68193
G1 X110.377 Y92.594 E13.40142
G1 X109.869 Y92.594 E13.4166
G1 X127.407 Y110.133 E14.15757
G1 X127.407 Y110.641 E14.17275
G1 X109.36 Y92.594 E14.9352
G1 X108.852 Y92.594 E14.95038
G1 X127.407 Y111.149 E15.7343
G1 X127.407 Y111.657 E15.74948
G1 X108.344 Y92.594 E16.55486
G1 X107.836 Y92.594 E16.57004
G1 X127.407 Y112.165 E17.39688
G1 X127.407 Y112.673 E17.41206
G1 X107.328 Y92.594 E18.26036
G1 X106.82 Y92.594 E18.27554
G1 X127.407 Y113.181 E19.1453
G1 X127.407 Y113.689 E19.16048
G1 X106.312 Y92.594 E20.05171
G1 X105.804 Y92.594 E20.06689
G1 X127.407 Y114.197 E20.97958
G1 X127.407 Y114.705 E20.99476
G1 X105.295 Y92.594 E21.92893
G1 X104.787 Y92.594 E21.94411
G1 X127.407 Y115.214 E22.89976
G1 X127.407 Y115.722 E22.91494
G1 X104.279 Y92.594 E23.89206
G1 X103.771 Y92.594 E23.90724
G1 X127.407 Y116.23 E24.90582
G1 X127.407 Y116.738 E24.921
G1 X103.263 Y92.594 E25.94104
G1 X102.755 Y92.593 E25.95622
G1 X127.407 Y117.246 E26.99774
G1 X127.407 Y117.754 E27.01292
G1 X102.247 Y92.593 E28.07591
G1 X101.739 Y92.593 E28.09109
G1 X127.407 Y118.262 E29.17554
G1 X127.407 Y118.77 E29.19072
G1 X101.23 Y92.593 E30.29665
G1 X100.722 Y92.593 E30.31183
G1 X127.407 Y119.278 E31.43922
G1 X127.407 Y119.786 E31.4544
G1 X100.214 Y92.593 E32.60326
G1 X99.706 Y92.593 E32.61844
G1 X127.407 Y120.294 E33.78876
G1 X127.407 Y120.803 E33.80397
G1 X99.198 Y92.593 E34.99577
G1 X98.69 Y92.593 E35.01095
G1 X127.407 Y121.311 E36.22421
G1 X127.407 Y121.819 E36.23939
G1 X98.182 Y92.593 E37.47412
G1 X97.673 Y92.593 E37.48933
G1 X127.407 Y122.327 E38.74554
G1 X127.407 Y122.835 E38.76072
G1 X97.165 Y92.593 E40.03839
G1 X96.657 Y92.593 E40.05357
G1 X127.407 Y123.343 E41.3527
G1 X127.407 Y123.851 E41.36788
G1 X96.149 Y92.593 E42.68847
G1 X95.641 Y92.593 E42.70365
G1 X127.407 Y124.359 E44.04571
G1 X127.407 Y124.867 E44.06089
G1 X95.133 Y92.593 E45.42441
G1 X94.625 Y92.593 E45.43959
G1 X127.407 Y125.375 E46.82457
G1 X127.407 Y125.883 E46.83975
G1 X94.117 Y92.593 E48.24619
G1 X93.608 Y92.593 E48.2614
G1 X127.407 Y126.392 E49.68935
G1 X127.407 Y126.9 E49.70453
G1 X93.103 Y92.596 E51.15381
G1 X92.868 Y92.631 E51.16091
G1 X92.743 Y92.705 E51.16525
G1 X92.725 Y92.726 E51.16608
G1 X127.274 Y127.275 E52.62571
G1 X127.13 Y127.37 E52.63086
G1 X126.899 Y127.407 E52.63785
G1 X92.593 Y93.101 E54.08722
G1 X92.593 Y93.61 E54.10243
G1 X126.39 Y127.407 E55.53029
G1 X125.882 Y127.407 E55.54547
G1 X92.593 Y94.118 E56.95187
G1 X92.593 Y94.626 E56.96705
G1 X125.374 Y127.407 E58.35199
G1 X124.866 Y127.407 E58.36717
G1 X92.593 Y95.134 E59.73065
G1 X92.593 Y95.642 E59.74583
G1 X124.358 Y127.407 E61.08784
G1 X123.85 Y127.407 E61.10302
G1 X92.593 Y96.15 E62.42357
G1 X92.593 Y96.658 E62.43875
G1 X123.342 Y127.407 E63.73784
G1 X122.834 Y127.407 E63.75302
G1 X92.593 Y97.166 E65.03065
G1 X92.593 Y97.674 E65.04583
G1 X122.326 Y127.407 E66.302
G1 X121.818 Y127.407 E66.31718
G1 X92.593 Y98.182 E67.55188
G1 X92.593 Y98.691 E67.56709
G1 X121.309 Y127.407 E68.78029
G1 X120.801 Y127.407 E68.79547
G1 X92.593 Y99.199 E69.98721
G1 X92.593 Y99.707 E70.00239
G1 X120.293 Y127.407 E71.17267
G1 X119.785 Y127.407 E71.18785
G1 X92.593 Y100.215 E72.33666
G1 X92.593 Y100.723 E72.35184
G1 X119.277 Y127.407 E73.47919
G1 X118.769 Y127.407 E73.49437
G1 X92.593 Y101.231 E74.60026
G1 X92.593 Y101.739 E74.61544
G1 X118.261 Y127.407 E75.69987
G1 X117.753 Y127.407 E75.71505
G1 X92.593 Y102.247 E76.77802
G1 X92.593 Y102.755 E76.7932
G1 X117.245 Y127.407 E77.8347
G1 X116.737 Y127.407 E77.84988
G1 X92.593 Y103.263 E78.86992
G1 X92.593 Y103.771 E78.8851
G1 X116.229 Y127.407 E79.88368
G1 X115.72 Y127.407 E79.89889
G1 X92.593 Y104.28 E80.87596
G1 X92.593 Y104.788 E80.89114
G1 X115.212 Y127.407 E81.84675
G1 X114.704 Y127.407 E81.86193
G1 X92.593 Y105.296 E82.79608
G1 X92.593 Y105.804 E82.81126
G1 X114.196 Y127.407 E83.72395
G1 X113.688 Y127.407 E83.73913
G1 X92.593 Y106.312 E84.63036
G1 X92.593 Y106.82 E84.64554
G1 X113.18 Y127.407 E85.5153
G1 X112.672 Y127.407 E85.53048
G1 X92.593 Y107.328 E86.37878
G1 X92.593 Y107.836 E86.39396
G1 X112.164 Y127.407 E87.2208
G1 X111.656 Y127.407 E87.23598
G1 X92.593 Y108.344 E88.04136
G1 X92.593 Y108.852 E88.05654
G1 X111.148 Y127.407 E88.84046
G1 X110.639 Y127.407 E88.85567
G1 X92.593 Y109.361 E89.61808
G1 X92.593 Y109.869 E89.63326
G1 X110.131 Y127.407 E90.37421
G1 X109.623 Y127.407 E90.38939
G1 X92.593 Y110.377 E91.10888
G1 X92.593 Y110.885 E91.12406
G1 X109.115 Y127.407 E91.82209
G1 X108.607 Y127.407 E91.83727
G1 X92.593 Y111.393 E92.51383
G1 X92.593 Y111.901 E92.52901
G1 X108.099 Y127.407 E93.18411
G1 X107.591 Y127.407 E93.19929
G1 X92.593 Y112.409 E93.83293
G1 X92.593 Y112.917 E93.84811
G1 X107.083 Y127.407 E94.46029
G1 X106.575 Y127.407 E94.47547
G1 X92.593 Y113.425 E95.06618
G1 X92.593 Y113.933 E95.08136
G1 X106.067 Y127.407 E95.65061
G1 X105.559 Y127.407 E95.66579
G1 X92.593 Y114.441 E96.21358
G1 X92.593 Y114.95 E96.22879
G1 X105.05 Y127.407 E96.75508
G1 X104.542 Y127.407 E96.77026
G1 X92.593 Y115.458 E97.27508
G1 X92.593 Y115.966 E97.29026
G1 X104.034 Y127.407 E97.77362
G1 X103.526 Y127.407 E97.7888
G1 X92.593 Y116.474 E98.2507
G1 X92.593 Y116.982 E98.26588
G1 X103.018 Y127.407 E98.70632
G1 X102.51 Y127.407 E98.7215
G1 X92.593 Y117.49 E99.14048
G1 X92.593 Y117.998 E99.15566
G1 X102.002 Y127.407 E99.55317
G1 X101.494 Y127.407 E99.56835
G1 X92.593 Y118.506 E99.9444
G1 X92.593 Y119.014 E99.95958
G1 X100.986 Y127.407 E100.31417
G1 X100.478 Y127.407 E100.32935
G1 X92.593 Y119.522 E100.66248
G1 X92.593 Y120.03 E100.67766
G1 X99.97 Y127.407 E100.98933
G1 X99.461 Y127.407 E101.00454
G1 X92.593 Y120.539 E101.2947
G1 X92.593 Y121.047 E101.30988
G1 X98.953 Y127.407 E101.57858
G1 X98.445 Y127.407 E101.59376
G1 X92.593 Y121.555 E101.841
G1 X92.593 Y122.063 E101.85618
G1 X97.937 Y127.407 E102.08195
G1 X97.429 Y127.407 E102.09713
G1 X92.593 Y122.571 E102.30144
G1 X92.593 Y123.079 E102.31662
G1 X96.921 Y127.407 E102.49947
G1 X96.413 Y127.407 E102.51465
G1 X92.593 Y123.587 E102.67604
G1 X92.593 Y124.095 E102.69122
G1 X95.905 Y127.407 E102.83115
G1 X95.397 Y127.407 E102.84633
G1 X92.593 Y124.603 E102.96479
G1 X92.593 Y125.111 E102.97997
G1 X94.889 Y127.407 E103.07697
G1 X94.38 Y127.407 E103.09218
G1 X92.593 Y125.62 E103.16768
G1 X92.593 Y126.128 E103.18286
G1 X93.872 Y127.407 E103.2369
G1 X93.364 Y127.407 E103.25208
G1 X92.593 Y126.636 E103.28465
G1 X92.593 Y126.932 E103.29349
G1 X92.63 Y127.13 E103.29951
G1 X92.705 Y127.256 E103.30389
G1 X93.009 Y127.56 E103.31673
M106 S255
;LAYER_CHANGE
;Z:0.4
;HEIGHT:0.2
;BEFORE_LAYER_CHANGE
;0.4


G1 Z.4 F18000
;AFTER_LAYER_CHANGE
;0.4
G1 X92.966 Y127.848
;TYPE:External perimeter
;WIDTH:0.399999
G1 F1055.931
G1 X92.762 Y127.817 E103.32286
G1 F920.119
G1 X92.519 Y127.717 E103.33066
G1 F919.523
G1 X92.231 Y127.38 E103.34382
G1 F900
G1 X92.125 Y126.957 E103.35677
G1 X92.125 Y126.357 E103.37458
G1 F899.994
G1 X92.125 Y93.748 E104.34278
G1 X92.125 Y93.148 E104.36059
G1 X92.183 Y92.762 E104.37218
G1 F920.119
G1 X92.283 Y92.519 E104.37998
G1 F919.523
G1 X92.62 Y92.231 E104.39314
G1 F900.027
G1 X93.043 Y92.125 E104.40609
G1 X93.643 Y92.125 E104.4239
G1 F901.143
G1 X126.281 Y92.132 E105.39296
G1 F961.826
G1 X126.874 Y92.132 E105.41057
G1 F905.237
G1 X127.124 Y92.146 E105.418
G1 X127.482 Y92.285 E105.4294
G1 F925.311
G1 X127.608 Y92.417 E105.43482
G1 F917.965
G1 X127.814 Y92.705 E105.44533
G1 F899.994
G1 X127.875 Y93.133 E105.45817
G1 X127.875 Y93.733 E105.47598
G1 X127.875 Y126.252 E106.44151
G1 X127.875 Y126.852 E106.45932
G1 X127.817 Y127.238 E106.47091
G1 F920.111
G1 X127.717 Y127.481 E106.47871
G1 F919.523
G1 X127.38 Y127.769 E106.49187
G1 F899.994
G1 X126.957 Y127.875 E106.50482
G1 X126.357 Y127.875 E106.52263
G1 X93.748 Y127.875 E107.49083
G1 X93.148 Y127.875 E107.50864
G1 X93.026 Y127.857 E107.5123
G1 F1063.62
;WIPE_START
G1 F14400
G1 X92.762 Y127.817 E107.46474
G1 X92.519 Y127.717 E107.41793
G1 X92.231 Y127.38 E107.33897
G1 X92.125 Y126.957 E107.26129
G1 X92.125 Y125.559 E107.0123
;WIPE_END
G92 E0
G1 Z.6 F18000
G1 X127.071 Y127.745
G1 Z.4
G1 E.5 F2700
;TYPE:Top solid infill
;WIDTH:0.402319
G1 F9000
G1 X127.501 Y127.316 E.51815
G1 X127.546 Y127.229 E.52108
G1 X127.607 Y126.929 E.53023
G1 X127.607 Y126.701 E.53704
G1 X126.701 Y127.607 E.57533
G1 X126.193 Y127.607 E.59051
G1 X127.607 Y126.193 E.65027
G1 X127.607 Y125.684 E.66548
G1 X125.684 Y127.607 E.74675
G1 X125.176 Y127.607 E.76193
G1 X127.607 Y125.176 E.86467
G1 X127.607 Y124.668 E.87985
G1 X124.668 Y127.607 E1.00406
G1 X124.16 Y127.607 E1.01924
G1 X127.607 Y124.16 E1.16492
G1 X127.607 Y123.651 E1.18013
G1 X123.651 Y127.607 E1.34732
G1 X123.143 Y127.607 E1.3625
G1 X127.607 Y123.143 E1.55116
G1 X127.607 Y122.635 E1.56634
G1 X122.635 Y127.607 E1.77647
G1 X122.126 Y127.607 E1.79168
G1 X127.607 Y122.126 E2.02332
G1 X127.607 Y121.618 E2.0385
G1 X121.618 Y127.607 E2.29161
G1 X121.11 Y127.607 E2.30679
G1 X127.607 Y121.11 E2.58137
G1 X127.607 Y120.602 E2.59655
G1 X120.602 Y127.607 E2.8926
G1 X120.093 Y127.607 E2.90781
G1 X127.607 Y120.093 E3.22537
G1 X127.607 Y119.585 E3.24055
G1 X119.585 Y127.607 E3.57958
G1 X119.077 Y127.607 E3.59476
G1 X127.607 Y119.077 E3.95526
G1 X127.607 Y118.569 E3.97044
G1 X118.569 Y127.607 E4.35241
G1 X118.06 Y127.607 E4.36762
G1 X127.607 Y118.06 E4.7711
G1 X127.607 Y117.552 E4.78628
G1 X117.552 Y127.607 E5.21123
G1 X117.044 Y127.607 E5.22641
G1 X127.607 Y117.044 E5.67283
G1 X127.607 Y116.536 E5.68801
G1 X116.536 Y127.607 E6.1559
G1 X116.027 Y127.607 E6.17111
G1 X127.607 Y116.027 E6.66051
G1 X127.607 Y115.519 E6.67569
G1 X115.519 Y127.607 E7.18656
G1 X115.011 Y127.607 E7.20174
G1 X127.607 Y115.011 E7.73408
G1 X127.607 Y114.502 E7.74929
G1 X114.502 Y127.607 E8.30314
G1 X113.994 Y127.607 E8.31832
G1 X127.607 Y113.994 E8.89364
G1 X127.607 Y113.486 E8.90882
G1 X113.486 Y127.607 E9.50561
G1 X112.978 Y127.607 E9.52079
G1 X127.607 Y112.978 E10.13905
G1 X127.607 Y112.469 E10.15426
G1 X112.469 Y127.607 E10.79403
G1 X111.961 Y127.607 E10.80921
G1 X127.607 Y111.961 E11.47045
G1 X127.607 Y111.453 E11.48563
G1 X111.453 Y127.607 E12.16834
