; generated by PrusaSlicer 2.6.0-alpha5+win64 on 2023-03-18 at 22:22:00 UTC

; 

; external perimeters extrusion width = 0.40mm
; perimeters extrusion width = 0.40mm
; infill extrusion width = 0.40mm
; solid infill extrusion width = 0.40mm
; top infill extrusion width = 0.40mm
; support material extrusion width = 0.40mm
; first layer extrusion width = 0.60mm

M107
M190 S60 ; set bed temperature and wait for it to be reached
M104 S215 ; set temperature
;TYPE:Custom
SET_GCODE_VARIABLE MACRO=START_PRINT VARIABLE=bed_temp VALUE=60
SET_GCODE_VARIABLE MACRO=START_PRINT VARIABLE=extruder_temp VALUE=215
START_PRINT
M109 S215 ; set temperature and wait for it to be reached
G21 ; set units to millimeters
G90 ; use absolute coordinates
M82 ; use absolute distances for extrusion
G92 E0
; Filament gcode
M107
;LAYER_CHANGE
;Z:0.2
;HEIGHT:0.2
;BEFORE_LAYER_CHANGE
;0.2


G1 Z.2 F18000
;AFTER_LAYER_CHANGE
;0.2
G1 E-.6 F2700
G92 E0
G1 Z.4 F18000
G1 X132.263 Y96.814
G1 Z.2
G1 E.6 F2700
;TYPE:Perimeter
;WIDTH:0.599999
G1 F1800
G1 X132.122 Y96.729 E.60763
G1 X131.752 Y96.647 E.62518
G1 X131.002 Y96.643 E.65992
G1 X130.7 Y96.698 E.67414
G1 X130.269 Y96.918 E.69655
G1 X130.06 Y97.2 E.71281
;WIDTH:0.637412
G1 X129.986 Y97.383 E.72257
;WIDTH:0.674825
G1 X129.911 Y97.565 E.73291
;WIDTH:0.712237
G1 X129.837 Y97.748 E.7439
G1 X129.837 Y106.901 E1.2533
;WIDTH:0.75186
G1 X129.892 Y107.408 E1.28336
G1 X129.98 Y107.55 E1.29321
;WIDTH:0.713895
G1 X130.068 Y107.691 E1.30248
;WIDTH:0.67593
G1 X130.156 Y107.833 E1.31127
;WIDTH:0.637965
G1 X130.244 Y107.975 E1.31954
;WIDTH:0.599999
G1 X130.43 Y108.197 E1.33296
G1 X130.702 Y108.425 E1.3494
G1 X130.953 Y108.57 E1.36283
G1 X131.287 Y108.691 E1.37929
G1 X131.746 Y108.757 E1.40077
G1 X132.887 Y108.757 E1.45362
G1 X132.887 Y112.077 E1.60741
;WIDTH:0.637965
G1 X132.868 Y112.19 E1.61308
;WIDTH:0.67593
G1 X132.849 Y112.304 E1.61916
;WIDTH:0.713896
G1 X132.83 Y112.417 E1.62555
;WIDTH:0.751861
G1 X132.811 Y112.53 E1.6323
G1 X132.831 Y113.099 E1.66586
;WIDTH:0.712236
G1 X132.833 Y122.252 E2.17526
;WIDTH:0.721527
G1 X132.828 Y122.465 E2.18728
G1 X132.848 Y122.652 E2.19789
;WIDTH:0.681018
G1 X132.868 Y122.838 E2.20782
;WIDTH:0.640509
G1 X132.889 Y123.024 E2.21712
;WIDTH:0.599999
G1 X132.889 Y127.002 E2.40139
G1 X132.962 Y127.55 E2.427
G1 X133.176 Y128.063 E2.45275
G1 X133.507 Y128.493 E2.47789
G1 X133.937 Y128.824 E2.50303
G1 X134.431 Y129.032 E2.52786
G1 X134.999 Y129.111 E2.55442
G1 X136.143 Y129.111 E2.60741
G1 X136.143 Y130.255 E2.6604
G1 X136.143 Y132.889 E2.78241
G1 X134.999 Y132.889 E2.8354
G1 X134.431 Y132.968 E2.86196
G1 X133.937 Y133.176 E2.88679
G1 X133.507 Y133.507 E2.91193
G1 X133.182 Y133.952 E2.93746
G1 X132.968 Y134.431 E2.96176
G1 X132.889 Y134.999 E2.98832
G1 X132.889 Y136.143 E3.04131
G1 X129.111 Y136.143 E3.21631
G1 X129.111 Y134.999 E3.2693
G1 X129.032 Y134.431 E3.29586
G1 X128.801 Y133.901 E3.32264
G1 X128.493 Y133.507 E3.34581
G1 X128.063 Y133.176 E3.37095
G1 X127.55 Y132.962 E3.3967
G1 X127.002 Y132.889 E3.42231
G1 X123.283 Y132.889 E3.59458
G1 X123.225 Y132.691 E3.60414
G1 X123.029 Y132.467 E3.61793
G1 X123.108 Y132.393 E3.62294
G1 X123.271 Y132.122 E3.63759
G1 X123.353 Y131.752 E3.65514
G1 X123.357 Y131.002 E3.68988
G1 X123.306 Y130.711 E3.70356
G1 X123.094 Y130.283 E3.72568
G1 X122.814 Y130.069 E3.742
;WIDTH:0.637412
G1 X122.627 Y129.992 E3.752
;WIDTH:0.674825
G1 X122.44 Y129.914 E3.76265
;WIDTH:0.712237
G1 X122.253 Y129.837 E3.77391
G1 X113.099 Y129.837 E4.28337
;WIDTH:0.75186
G1 X112.592 Y129.892 E4.31343
G1 X112.45 Y129.98 E4.32328
;WIDTH:0.713895
G1 X112.309 Y130.068 E4.33255
;WIDTH:0.67593
G1 X112.167 Y130.156 E4.34134
;WIDTH:0.637965
G1 X112.025 Y130.244 E4.34961
;WIDTH:0.599999
G1 X111.803 Y130.43 E4.36303
G1 X111.575 Y130.702 E4.37947
G1 X111.43 Y130.953 E4.3929
G1 X111.309 Y131.287 E4.40936
G1 X111.243 Y131.749 E4.43098
G1 X111.243 Y132.887 E4.48369
G1 X107.923 Y132.887 E4.63748
;WIDTH:0.637965
G1 X107.81 Y132.868 E4.64315
;WIDTH:0.67593
G1 X107.696 Y132.849 E4.64923
;WIDTH:0.713896
G1 X107.583 Y132.83 E4.65562
;WIDTH:0.751861
G1 X107.47 Y132.811 E4.66237
G1 X106.901 Y132.831 E4.69593
;WIDTH:0.712236
G1 X97.748 Y132.833 E5.20533
G1 X97.567 Y132.851 E5.21545
;WIDTH:0.674824
G1 X97.385 Y132.87 E5.22506
;WIDTH:0.637412
G1 X97.204 Y132.889 E5.23406
;WIDTH:0.599999
G1 X92.998 Y132.889 E5.42889
G1 X92.45 Y132.962 E5.4545
G1 X91.937 Y133.176 E5.48025
G1 X91.507 Y133.507 E5.50539
G1 X91.176 Y133.937 E5.53053
G1 X90.968 Y134.431 E5.55536
G1 X90.889 Y134.999 E5.58192
G1 X90.889 Y136.143 E5.63491
G1 X87.111 Y136.143 E5.80991
G1 X87.111 Y134.999 E5.8629
G1 X87.032 Y134.431 E5.88946
G1 X86.824 Y133.937 E5.91429
G1 X86.493 Y133.507 E5.93943
G1 X86.048 Y133.182 E5.96496
G1 X85.569 Y132.968 E5.98926
G1 X85.001 Y132.889 E6.01582
G1 X83.857 Y132.889 E6.06881
G1 X83.857 Y129.111 E6.24381
G1 X85.001 Y129.111 E6.2968
G1 X85.569 Y129.032 E6.32336
G1 X86.099 Y128.801 E6.35014
G1 X86.493 Y128.493 E6.37331
G1 X86.824 Y128.063 E6.39845
G1 X87.038 Y127.55 E6.4242
G1 X87.111 Y127.002 E6.44981
G1 X87.111 Y123.283 E6.62208
G1 X87.309 Y123.225 E6.63164
G1 X87.533 Y123.029 E6.64543
G1 X87.607 Y123.108 E6.65044
G1 X87.878 Y123.271 E6.66509
G1 X88.248 Y123.353 E6.68264
G1 X88.998 Y123.357 E6.71738
G1 X89.289 Y123.306 E6.73106
G1 X89.717 Y123.094 E6.75318
G1 X89.931 Y122.814 E6.7695
;WIDTH:0.640509
G1 X90.005 Y122.678 E6.77719
;WIDTH:0.681018
G1 X90.08 Y122.543 E6.78538
;WIDTH:0.721527
G1 X90.154 Y122.407 E6.79412
G1 X90.163 Y122.253 E6.80282
;WIDTH:0.712236
G1 X90.163 Y113.099 E7.31228
;WIDTH:0.751863
G1 X90.108 Y112.592 E7.34234
G1 X90.02 Y112.45 E7.35219
;WIDTH:0.713897
G1 X89.932 Y112.309 E7.36146
;WIDTH:0.675931
G1 X89.844 Y112.167 E7.37025
;WIDTH:0.637965
G1 X89.756 Y112.025 E7.37852
;WIDTH:0.599999
G1 X89.57 Y111.803 E7.39194
G1 X89.298 Y111.575 E7.40838
G1 X89.047 Y111.43 E7.42181
G1 X88.732 Y111.316 E7.43733
G1 X88.251 Y111.243 E7.45987
G1 X87.113 Y111.243 E7.51258
G1 X87.113 Y107.923 E7.66637
;WIDTH:0.637965
G1 X87.132 Y107.81 E7.67204
;WIDTH:0.675931
G1 X87.151 Y107.696 E7.67812
;WIDTH:0.713897
G1 X87.17 Y107.583 E7.68451
;WIDTH:0.751862
G1 X87.189 Y107.47 E7.69126
G1 X87.169 Y106.901 E7.72482
;WIDTH:0.712236
G1 X87.167 Y97.748 E8.23422
G1 X87.149 Y97.567 E8.24434
;WIDTH:0.674824
G1 X87.13 Y97.385 E8.25395
;WIDTH:0.637412
G1 X87.111 Y97.204 E8.26295
;WIDTH:0.599999
G1 X87.111 Y92.998 E8.45778
G1 X87.038 Y92.45 E8.48339
G1 X86.801 Y91.901 E8.51109
G1 X86.493 Y91.507 E8.53426
G1 X86.063 Y91.176 E8.5594
G1 X85.569 Y90.968 E8.58423
G1 X85.001 Y90.889 E8.61079
G1 X83.857 Y90.889 E8.66378
G1 X83.857 Y87.111 E8.83878
G1 X85.001 Y87.111 E8.89177
G1 X85.569 Y87.032 E8.91833
G1 X86.063 Y86.824 E8.94316
G1 X86.493 Y86.493 E8.9683
G1 X86.818 Y86.048 E8.99383
G1 X87.032 Y85.569 E9.01813
G1 X87.111 Y85.001 E9.04469
G1 X87.111 Y83.857 E9.09768
G1 X90.889 Y83.857 E9.27268
G1 X90.889 Y85.001 E9.32567
G1 X90.968 Y85.569 E9.35223
G1 X91.183 Y86.05 E9.37664
G1 X91.507 Y86.493 E9.40206
G1 X91.937 Y86.824 E9.4272
G1 X92.45 Y87.038 E9.45295
G1 X92.998 Y87.111 E9.47856
G1 X96.717 Y87.111 E9.65083
G1 X96.775 Y87.309 E9.66039
G1 X96.971 Y87.533 E9.67418
G1 X96.892 Y87.607 E9.67919
G1 X96.729 Y87.878 E9.69384
G1 X96.647 Y88.248 E9.71139
G1 X96.643 Y88.998 E9.74613
G1 X96.723 Y89.359 E9.76326
G1 X96.819 Y89.564 E9.77375
G1 X97.288 Y89.993 E9.80319
;WIDTH:0.637346
G1 X97.441 Y90.05 E9.81126
;WIDTH:0.674693
G1 X97.595 Y90.106 E9.81987
;WIDTH:0.712039
G1 X97.748 Y90.163 E9.82895
G1 X106.901 Y90.163 E10.3382
;WIDTH:0.710948
G1 X106.901 Y90.163 E10.3382
;WIDTH:0.751259
G1 X107.408 Y90.107 E10.36824
G1 X107.55 Y90.02 E10.37805
;WIDTH:0.713444
G1 X107.691 Y89.932 E10.38732
;WIDTH:0.675629
G1 X107.833 Y89.844 E10.39611
;WIDTH:0.637814
G1 X107.975 Y89.756 E10.40437
;WIDTH:0.599999
G1 X108.197 Y89.57 E10.41779
G1 X108.425 Y89.298 E10.43423
G1 X108.57 Y89.047 E10.44766
G1 X108.684 Y88.732 E10.46318
G1 X108.757 Y88.254 E10.48558
G1 X108.757 Y87.113 E10.53843
G1 X112.077 Y87.113 E10.69222
;WIDTH:0.637965
G1 X112.19 Y87.132 E10.69789
;WIDTH:0.675931
G1 X112.304 Y87.151 E10.70397
;WIDTH:0.713897
G1 X112.417 Y87.17 E10.71036
;WIDTH:0.751863
G1 X112.53 Y87.189 E10.71711
G1 X113.099 Y87.169 E10.75067
;WIDTH:0.712236
G1 X122.252 Y87.167 E11.26007
G1 X122.397 Y87.149 E11.2682
;WIDTH:0.674824
G1 X122.542 Y87.13 E11.27588
;WIDTH:0.637412
G1 X122.687 Y87.111 E11.28311
;WIDTH:0.599999
G1 X127.002 Y87.111 E11.48299
G1 X127.55 Y87.038 E11.5086
G1 X128.063 Y86.824 E11.53435
G1 X128.493 Y86.493 E11.55949
G1 X128.824 Y86.063 E11.58463
G1 X129.032 Y85.569 E11.60946
G1 X129.111 Y85.001 E11.63602
G1 X129.111 Y83.857 E11.68901
G1 X132.889 Y83.857 E11.86401
G1 X132.889 Y85.001 E11.917
G1 X132.968 Y85.569 E11.94356
G1 X133.176 Y86.063 E11.96839
G1 X133.507 Y86.493 E11.99353
G1 X133.952 Y86.818 E12.01906
G1 X134.431 Y87.032 E12.04336
G1 X134.999 Y87.111 E12.06992
G1 X136.143 Y87.111 E12.12291
G1 X136.143 Y90.889 E12.29791
G1 X134.999 Y90.889 E12.3509
G1 X134.431 Y90.968 E12.37746
G1 X133.901 Y91.199 E12.40424
G1 X133.507 Y91.507 E12.42741
G1 X133.176 Y91.937 E12.45255
G1 X132.962 Y92.45 E12.4783
G1 X132.889 Y92.998 E12.50391
G1 X132.889 Y96.717 E12.67618
G1 X132.691 Y96.775 E12.68574
G1 X132.467 Y96.971 E12.69953
G1 X132.393 Y96.892 E12.70454
G1 X132.314 Y96.845 E12.7088
;WIPE_START
G1 F14400
G1 X132.122 Y96.729 E12.66884
G1 X131.752 Y96.647 E12.60133
G1 X131.002 Y96.643 E12.46773
G1 X130.7 Y96.698 E12.41305
G1 X130.269 Y96.918 E12.32685
G1 X130.06 Y97.2 E12.26433
G1 X129.986 Y97.383 E12.22917
G1 X129.911 Y97.565 E12.19411
G1 X129.837 Y97.748 E12.15895
G1 X129.837 Y98.03 E12.1088
;WIPE_END
G92 E0
G1 Z.4 F18000
G1 X128.521 Y115.372
G1 Z.2
G1 E.6 F2700
;WIDTH:0.525637
G1 F1800
G1 X128.528 Y113.927 E.658
G1 X128.792 Y113.925 E.6686
G1 X129.067 Y115.46 E.73119
G1 X128.87 Y115.377 E.73977
G1 X128.581 Y115.373 E.75137
;WIPE_START
G1 F14400
G1 X128.528 Y113.927 E.49363
G1 X128.792 Y113.925 E.4466
G1 X129.067 Y115.46 E.16882
G1 X128.977 Y115.422 E.15137
;WIPE_END
G92 E0
G1 Z.4 F18000
G1 X132.932 Y104.537
G1 Z.2
G1 E.6 F2700
;WIDTH:0.525746
G1 F1800
G1 X133.141 Y104.624 E.60909
G1 X133.479 Y104.624 E.62266
G1 X133.472 Y106.08 E.68111
G1 X133.209 Y106.08 E.69167
G1 X132.943 Y104.596 E.7522
;WIPE_START
G1 F14400
G1 X133.141 Y104.624 E.71658
G1 X133.479 Y104.624 E.65637
G1 X133.472 Y106.08 E.39702
G1 X133.209 Y106.08 E.35017
G1 X133.013 Y104.986 E.1522
;WIPE_END
G92 E0
G1 Z.4 F18000
G1 X113.92 Y91.472
G1 Z.2
G1 E.6 F2700
;WIDTH:0.525749
G1 F1800
G1 X113.92 Y91.209 E.61056
G1 X115.463 Y90.932 E.6735
G1 X115.376 Y91.141 E.68259
G1 X115.376 Y91.479 E.69616
G1 X113.98 Y91.473 E.75221
;WIPE_START
G1 F14400
G1 X113.92 Y91.209 E.70399
G1 X115.463 Y90.932 E.42475
G1 X115.376 Y91.141 E.38443
G1 X115.376 Y91.479 E.32422
G1 X114.41 Y91.475 E.15221
;WIPE_END
G92 E0
G1 Z.4 F18000
G1 X106.082 Y86.527
G1 Z.2
G1 E.6 F2700
;WIDTH:0.522457
G1 F1800
G1 X106.082 Y86.792 E.61057
G1 X104.538 Y87.069 E.67312
G1 X104.622 Y86.87 E.68173
G1 X104.626 Y86.527 E.69541
G1 X106.022 Y86.527 E.75107
;WIPE_START
G1 F14400
G1 X106.082 Y86.792 E.70267
G1 X104.538 Y87.069 E.42325
G1 X104.622 Y86.87 E.38477
G1 X104.626 Y86.527 E.32367
G1 X105.595 Y86.527 E.15107
;WIPE_END
G92 E0
G1 Z.4 F18000
G1 X91.208 Y106.082
G1 Z.2
G1 E.6 F2700
G1 F1800
G1 X90.931 Y104.538 E.66255
G1 X91.13 Y104.622 E.67116
G1 X91.473 Y104.626 E.68484
G1 X91.473 Y106.082 E.7429
G1 X91.268 Y106.082 E.75107
;WIPE_START
G1 F14400
G1 X90.931 Y104.538 E.46957
G1 X91.13 Y104.622 E.43109
G1 X91.473 Y104.626 E.36999
G1 X91.473 Y105.855 E.15107
;WIPE_END
G92 E0
G1 Z.4 F18000
G1 X96.837 Y129.699
G1 Z.2
G1 E.6 F2700
;WIDTH:0.599999
G1 F1800
G1 X96.895 Y129.596 E.60548
G1 X96.964 Y129.526 E.61003
G1 X96.776 Y129.311 E.62326
G1 X96.717 Y129.111 E.63292
G1 X92.998 Y129.111 E.80519
G1 X92.45 Y129.038 E.8308
G1 X91.937 Y128.824 E.85655
G1 X91.507 Y128.493 E.88169
G1 X91.176 Y128.063 E.90683
G1 X90.962 Y127.55 E.93258
G1 X90.889 Y127.002 E.95819
G1 X90.889 Y123.028 E1.14227
;WIDTH:0.640509
G1 X90.868 Y122.84 E1.15167
;WIDTH:0.681018
G1 X90.848 Y122.653 E1.16165
;WIDTH:0.721527
G1 X90.828 Y122.466 E1.17226
G1 X90.833 Y122.253 E1.18428
;WIDTH:0.712236
G1 X90.831 Y113.099 E1.69374
;WIDTH:0.751863
G1 X90.811 Y112.53 E1.7273
G1 X90.83 Y112.417 E1.73405
;WIDTH:0.713897
G1 X90.849 Y112.304 E1.74044
;WIDTH:0.675931
G1 X90.868 Y112.19 E1.74652
;WIDTH:0.637965
G1 X90.887 Y112.077 E1.75219
;WIDTH:0.599999
G1 X90.887 Y108.757 E1.90598
G1 X89.746 Y108.757 E1.95883
G1 X89.287 Y108.691 E1.98031
G1 X89.085 Y108.618 E1.99026
G1 X88.702 Y108.425 E2.01013
G1 X88.43 Y108.197 E2.02657
G1 X88.244 Y107.975 E2.03999
;WIDTH:0.637965
G1 X88.156 Y107.833 E2.04826
;WIDTH:0.675931
G1 X88.068 Y107.691 E2.05705
;WIDTH:0.713897
G1 X87.98 Y107.55 E2.06632
;WIDTH:0.751862
G1 X87.892 Y107.408 E2.07617
G1 X87.837 Y106.901 E2.10623
;WIDTH:0.712236
G1 X87.837 Y97.748 E2.61563
G1 X87.914 Y97.561 E2.62689
;WIDTH:0.674824
G1 X87.991 Y97.375 E2.63747
;WIDTH:0.637412
G1 X88.068 Y97.188 E2.64747
;WIDTH:0.599999
G1 X88.472 Y96.784 E2.67394
G1 X88.948 Y96.647 E2.69688
G1 X89.698 Y96.643 E2.73162
G1 X90.162 Y96.757 E2.75375
G1 X90.404 Y96.895 E2.76665
G1 X90.474 Y96.964 E2.7712
G1 X90.689 Y96.776 E2.78443
G1 X90.889 Y96.717 E2.79409
G1 X90.889 Y92.998 E2.96636
G1 X90.962 Y92.45 E2.99197
G1 X91.182 Y91.952 E3.01719
G1 X91.507 Y91.507 E3.04272
G1 X91.937 Y91.176 E3.06786
G1 X92.45 Y90.962 E3.09361
G1 X92.998 Y90.889 E3.11922
G1 X97.314 Y90.888 E3.31914
;WIDTH:0.637346
G1 X97.458 Y90.87 E3.32631
;WIDTH:0.674693
G1 X97.603 Y90.851 E3.33399
;WIDTH:0.712039
G1 X97.748 Y90.832 E3.34213
G1 X106.901 Y90.831 E3.85138
;WIDTH:0.751259
G1 X107.469 Y90.81 E3.88486
G1 X107.583 Y90.829 E3.89167
;WIDTH:0.713444
G1 X107.696 Y90.848 E3.89806
;WIDTH:0.675629
G1 X107.809 Y90.867 E3.90409
;WIDTH:0.637814
G1 X107.923 Y90.886 E3.90981
;WIDTH:0.599999
G1 X111.243 Y90.885 E4.0636
G1 X111.243 Y89.746 E4.11636
G1 X111.309 Y89.287 E4.13784
G1 X111.43 Y88.953 E4.1543
G1 X111.575 Y88.702 E4.16773
G1 X111.803 Y88.43 E4.18417
G1 X112.025 Y88.244 E4.19759
;WIDTH:0.637965
G1 X112.167 Y88.156 E4.20586
;WIDTH:0.675931
G1 X112.309 Y88.068 E4.21465
;WIDTH:0.713897
G1 X112.45 Y87.98 E4.22392
;WIDTH:0.751863
G1 X112.592 Y87.892 E4.23377
G1 X113.099 Y87.837 E4.26383
;WIDTH:0.712236
G1 X122.252 Y87.837 E4.77323
G1 X122.405 Y87.894 E4.78232
;WIDTH:0.674824
G1 X122.559 Y87.95 E4.79093
;WIDTH:0.637412
G1 X122.712 Y88.007 E4.799
;WIDTH:0.599999
G1 X123.148 Y88.374 E4.8254
G1 X123.241 Y88.535 E4.83401
G1 X123.353 Y89 E4.85617
G1 X123.353 Y89.747 E4.89077
G1 X123.271 Y90.122 E4.90855
G1 X123.108 Y90.393 E4.9232
G1 X123.029 Y90.467 E4.92821
G1 X123.225 Y90.691 E4.942
G1 X123.283 Y90.889 E4.95156
G1 X127.002 Y90.889 E5.12383
G1 X127.55 Y90.962 E5.14944
G1 X128.063 Y91.176 E5.17519
G1 X128.493 Y91.507 E5.20033
G1 X128.824 Y91.937 E5.22547
G1 X129.038 Y92.45 E5.25122
G1 X129.111 Y92.998 E5.27683
G1 X129.111 Y97.216 E5.47221
;WIDTH:0.637412
G1 X129.13 Y97.393 E5.48101
;WIDTH:0.674825
G1 X129.149 Y97.571 E5.49042
;WIDTH:0.712237
G1 X129.167 Y97.748 E5.50032
G1 X129.169 Y106.901 E6.00972
;WIDTH:0.75186
G1 X129.189 Y107.47 E6.04328
G1 X129.17 Y107.583 E6.05003
;WIDTH:0.713895
G1 X129.151 Y107.696 E6.05642
;WIDTH:0.67593
G1 X129.132 Y107.81 E6.0625
;WIDTH:0.637965
G1 X129.113 Y107.923 E6.06817
;WIDTH:0.599999
G1 X129.113 Y111.243 E6.22196
G1 X130.251 Y111.243 E6.27467
G1 X130.732 Y111.316 E6.29721
G1 X131.047 Y111.43 E6.31273
G1 X131.298 Y111.575 E6.32616
G1 X131.57 Y111.803 E6.3426
G1 X131.756 Y112.025 E6.35602
;WIDTH:0.637965
G1 X131.844 Y112.167 E6.36429
;WIDTH:0.67593
G1 X131.932 Y112.309 E6.37308
;WIDTH:0.713896
G1 X132.02 Y112.45 E6.38235
;WIDTH:0.751861
G1 X132.108 Y112.592 E6.3922
G1 X132.163 Y113.099 E6.42226
;WIDTH:0.712236
G1 X132.163 Y122.252 E6.93166
;WIDTH:0.721527
G1 X132.154 Y122.407 E6.94042
G1 X132.08 Y122.542 E6.94911
;WIDTH:0.681018
G1 X132.006 Y122.677 E6.95728
;WIDTH:0.640509
G1 X131.932 Y122.812 E6.96493
;WIDTH:0.599999
G1 X131.528 Y123.216 E6.9914
G1 X131.052 Y123.353 E7.01434
G1 X130.302 Y123.357 E7.04908
G1 X129.838 Y123.243 E7.07121
G1 X129.596 Y123.105 E7.08411
G1 X129.526 Y123.036 E7.08866
