; generated by PrusaSlicer 2.6.0-alpha5+win64 on 2023-03-19 at 16:46:12 UTC

; 

; external perimeters extrusion width = 0.40mm
; perimeters extrusion width = 0.40mm
; infill extrusion width = 0.40mm
; solid infill extrusion width = 0.40mm
; top infill extrusion width = 0.40mm
; support material extrusion width = 0.40mm
; first layer extrusion width = 0.50mm

M107
M190 S60 ; set bed temperature and wait for it to be reached
M104 S215 ; set temperature
;TYPE:Custom
SET_GCODE_VARIABLE MACRO=START_PRINT VARIABLE=bed_temp VALUE=60
SET_GCODE_VARIABLE MACRO=START_PRINT VARIABLE=extruder_temp VALUE=215
START_PRINT
M109 S215 ; set temperature and wait for it to be reached
G21 ; set units to millimeters
G90 ; use absolute coordinates
M82 ; use absolute distances for extrusion
G92 E0
; Filament gcode
M107
;LAYER_CHANGE
;Z:0.15
;HEIGHT:0.15
;BEFORE_LAYER_CHANGE
;0.15


G1 Z.15 F18000
;AFTER_LAYER_CHANGE
;0.15
G1 E-.7 F2700
G92 E0
G1 X74.547 Y68.596 F18000
G1 E.7 F2700
;TYPE:Perimeter
;WIDTH:0.499999
G1 F1800
G1 X74.837 Y68.863 E.7115
G1 X75.249 Y68.968 E.7239
G1 X83.401 Y68.968 E.96173
G1 X83.87 Y68.896 E.97557
G1 X84.098 Y68.813 E.98265
G1 X84.404 Y68.636 E.99296
G1 X84.591 Y68.479 E1.00008
G1 X84.818 Y68.209 E1.01037
G1 X84.939 Y67.998 E1.01747
G1 X85.06 Y67.666 E1.02778
G1 X85.118 Y67.251 E1.04
G1 X85.118 Y65.946 E1.07807
G1 X105.768 Y65.946 E1.68051
G1 X106.414 Y65.898 E1.69941
G1 X106.865 Y65.718 E1.71358
G1 X113.135 Y65.718 E1.8965
G1 X113.434 Y65.86 E1.90616
G1 X113.999 Y65.946 E1.92283
G1 X116.309 Y65.946 E1.99022
G1 X116.396 Y66.24 E1.99916
G1 X116.488 Y66.353 E2.00341
G1 X116.766 Y66.58 E2.01388
G1 X116.588 Y66.697 E2.02009
G1 X116.426 Y66.9 E2.02767
G1 X116.286 Y67.349 E2.04139
G1 X116.282 Y67.997 E2.0603
G1 X116.325 Y68.242 E2.06756
G1 X116.512 Y68.627 E2.08005
G1 X116.748 Y68.806 E2.08869
G1 X116.949 Y68.901 E2.09518
G1 X117.248 Y68.968 E2.10412
G1 X125.401 Y68.968 E2.34197
G1 X125.87 Y68.896 E2.35581
G1 X126.098 Y68.813 E2.36289
G1 X126.404 Y68.636 E2.3732
G1 X126.591 Y68.479 E2.38032
G1 X126.818 Y68.209 E2.39061
G1 X126.939 Y67.998 E2.39771
G1 X127.06 Y67.666 E2.40802
G1 X127.118 Y67.251 E2.42024
G1 X127.118 Y65.946 E2.45831
G1 X147.768 Y65.946 E3.06075
G1 X148.414 Y65.898 E3.07965
G1 X148.865 Y65.718 E3.09382
G1 X150.963 Y65.718 E3.15503
G1 X151.731 Y65.805 E3.17758
G1 X152.422 Y66.047 E3.19894
G1 X153.184 Y66.559 E3.22572
G1 X153.497 Y66.906 E3.23935
G1 X153.866 Y67.413 E3.25764
G1 X153.947 Y67.56 E3.26254
G1 X154.195 Y68.269 E3.28445
G1 X154.282 Y69.04 E3.30709
G1 X154.282 Y71.135 E3.36821
G1 X154.14 Y71.434 E3.37787
G1 X154.054 Y71.999 E3.39454
G1 X154.054 Y74.309 E3.46193
G1 X153.76 Y74.396 E3.47087
G1 X153.647 Y74.488 E3.47512
G1 X153.42 Y74.766 E3.48559
G1 X153.303 Y74.588 E3.4918
G1 X153.1 Y74.426 E3.49938
G1 X152.651 Y74.286 E3.5131
G1 X152.002 Y74.282 E3.53203
G1 X151.699 Y74.349 E3.54108
G1 X151.497 Y74.444 E3.54759
G1 X151.137 Y74.838 E3.56316
G1 X151.032 Y75.249 E3.57554
G1 X151.032 Y83.401 E3.81337
G1 X151.104 Y83.87 E3.82721
G1 X151.187 Y84.098 E3.83429
G1 X151.364 Y84.404 E3.8446
G1 X151.521 Y84.591 E3.85172
G1 X151.791 Y84.818 E3.86201
G1 X152.002 Y84.939 E3.86911
G1 X152.334 Y85.06 E3.87942
G1 X152.749 Y85.118 E3.89164
G1 X154.054 Y85.118 E3.92971
G1 X154.054 Y105.768 E4.53215
G1 X154.102 Y106.414 E4.55105
G1 X154.282 Y106.865 E4.56522
G1 X154.282 Y113.135 E4.74814
G1 X154.14 Y113.434 E4.7578
G1 X154.054 Y113.999 E4.77447
G1 X154.054 Y116.309 E4.84186
G1 X153.76 Y116.396 E4.8508
G1 X153.647 Y116.488 E4.85505
G1 X153.42 Y116.766 E4.86552
G1 X153.303 Y116.588 E4.87173
G1 X153.1 Y116.426 E4.87931
G1 X152.651 Y116.286 E4.89303
G1 X152.003 Y116.282 E4.91194
G1 X151.758 Y116.325 E4.9192
G1 X151.373 Y116.512 E4.93169
G1 X151.194 Y116.748 E4.94033
G1 X151.099 Y116.949 E4.94682
G1 X151.032 Y117.248 E4.95576
G1 X151.032 Y125.401 E5.19361
G1 X151.104 Y125.87 E5.20745
G1 X151.187 Y126.098 E5.21453
G1 X151.364 Y126.404 E5.22484
G1 X151.521 Y126.591 E5.23196
G1 X151.791 Y126.818 E5.24225
G1 X152.002 Y126.939 E5.24935
G1 X152.334 Y127.06 E5.25966
G1 X152.749 Y127.118 E5.27188
G1 X154.054 Y127.118 E5.30995
G1 X154.054 Y147.768 E5.91239
G1 X154.102 Y148.414 E5.93129
G1 X154.282 Y148.865 E5.94546
G1 X154.282 Y150.963 E6.00667
G1 X154.195 Y151.731 E6.02922
G1 X153.953 Y152.422 E6.05058
G1 X153.644 Y152.914 E6.06753
G1 X153.329 Y153.309 E6.08227
G1 X152.862 Y153.681 E6.09969
G1 X152.44 Y153.947 E6.11424
G1 X151.731 Y154.195 E6.13615
G1 X150.96 Y154.282 E6.15879
G1 X148.865 Y154.282 E6.21991
G1 X148.566 Y154.14 E6.22957
G1 X148.001 Y154.054 E6.24624
G1 X145.691 Y154.054 E6.31363
G1 X145.604 Y153.76 E6.32257
G1 X145.512 Y153.647 E6.32682
G1 X145.234 Y153.42 E6.33729
G1 X145.412 Y153.303 E6.3435
G1 X145.574 Y153.1 E6.35108
G1 X145.714 Y152.651 E6.3648
G1 X145.718 Y152.003 E6.38371
G1 X145.675 Y151.757 E6.391
G1 X145.487 Y151.372 E6.4035
G1 X145.25 Y151.192 E6.41218
G1 X145.048 Y151.098 E6.41868
G1 X144.751 Y151.032 E6.42756
G1 X136.599 Y151.032 E6.66539
G1 X136.13 Y151.104 E6.67923
G1 X135.902 Y151.187 E6.68631
G1 X135.596 Y151.364 E6.69662
G1 X135.409 Y151.521 E6.70374
G1 X135.182 Y151.791 E6.71403
G1 X135.061 Y152.002 E6.72113
G1 X134.94 Y152.334 E6.73144
G1 X134.882 Y152.749 E6.74366
G1 X134.882 Y154.054 E6.78173
G1 X114.232 Y154.054 E7.38417
G1 X113.586 Y154.102 E7.40307
G1 X113.135 Y154.282 E7.41724
G1 X106.865 Y154.282 E7.60016
G1 X106.566 Y154.14 E7.60982
G1 X106.001 Y154.054 E7.62649
G1 X103.691 Y154.054 E7.69388
G1 X103.604 Y153.76 E7.70282
G1 X103.512 Y153.647 E7.70707
G1 X103.234 Y153.42 E7.71754
G1 X103.412 Y153.303 E7.72375
G1 X103.574 Y153.1 E7.73133
G1 X103.714 Y152.651 E7.74505
G1 X103.718 Y152.003 E7.76396
G1 X103.675 Y151.758 E7.77122
G1 X103.488 Y151.373 E7.78371
G1 X103.252 Y151.194 E7.79235
G1 X103.051 Y151.099 E7.79884
G1 X102.752 Y151.032 E7.80778
G1 X94.599 Y151.032 E8.04563
G1 X94.13 Y151.104 E8.05947
G1 X93.902 Y151.187 E8.06655
G1 X93.596 Y151.364 E8.07686
G1 X93.409 Y151.521 E8.08398
G1 X93.182 Y151.791 E8.09427
G1 X93.061 Y152.002 E8.10137
G1 X92.94 Y152.334 E8.11168
G1 X92.882 Y152.749 E8.1239
G1 X92.882 Y154.054 E8.16197
G1 X72.232 Y154.054 E8.76441
G1 X71.586 Y154.102 E8.78331
G1 X71.135 Y154.282 E8.79748
G1 X69.037 Y154.282 E8.85869
G1 X68.269 Y154.195 E8.88124
G1 X67.578 Y153.953 E8.9026
G1 X67.086 Y153.644 E8.91955
G1 X66.691 Y153.329 E8.93429
G1 X66.319 Y152.862 E8.95171
G1 X66.053 Y152.44 E8.96626
G1 X65.805 Y151.731 E8.98817
G1 X65.718 Y150.96 E9.01081
G1 X65.718 Y148.865 E9.07193
G1 X65.86 Y148.566 E9.08159
G1 X65.946 Y148.001 E9.09826
G1 X65.946 Y145.691 E9.16565
G1 X66.24 Y145.604 E9.17459
G1 X66.353 Y145.512 E9.17884
G1 X66.58 Y145.234 E9.18931
G1 X66.697 Y145.412 E9.19552
G1 X66.9 Y145.574 E9.2031
G1 X67.349 Y145.714 E9.21682
G1 X67.997 Y145.718 E9.23573
G1 X68.242 Y145.675 E9.24299
G1 X68.627 Y145.488 E9.25548
G1 X68.806 Y145.253 E9.2641
G1 X68.901 Y145.051 E9.27061
G1 X68.968 Y144.752 E9.27955
G1 X68.968 Y136.599 E9.5174
G1 X68.896 Y136.13 E9.53124
G1 X68.813 Y135.902 E9.53832
G1 X68.636 Y135.596 E9.54863
G1 X68.479 Y135.409 E9.55575
G1 X68.209 Y135.182 E9.56604
G1 X67.998 Y135.061 E9.57314
G1 X67.666 Y134.94 E9.58345
G1 X67.251 Y134.882 E9.59567
G1 X65.946 Y134.882 E9.63374
G1 X65.946 Y114.232 E10.23618
G1 X65.898 Y113.586 E10.25508
G1 X65.718 Y113.135 E10.26925
G1 X65.718 Y106.865 E10.45217
G1 X65.86 Y106.566 E10.46183
G1 X65.946 Y106.001 E10.4785
G1 X65.946 Y103.691 E10.54589
G1 X66.24 Y103.604 E10.55483
G1 X66.353 Y103.512 E10.55908
G1 X66.58 Y103.234 E10.56955
G1 X66.697 Y103.412 E10.57576
G1 X66.9 Y103.574 E10.58334
G1 X67.349 Y103.714 E10.59706
G1 X67.997 Y103.718 E10.61597
G1 X68.242 Y103.675 E10.62323
G1 X68.627 Y103.488 E10.63572
G1 X68.806 Y103.252 E10.64436
G1 X68.901 Y103.051 E10.65085
G1 X68.968 Y102.752 E10.65979
G1 X68.968 Y94.599 E10.89764
G1 X68.896 Y94.13 E10.91148
G1 X68.813 Y93.902 E10.91856
G1 X68.636 Y93.596 E10.92887
G1 X68.479 Y93.409 E10.93599
G1 X68.209 Y93.182 E10.94628
G1 X67.998 Y93.061 E10.95338
G1 X67.666 Y92.94 E10.96369
G1 X67.251 Y92.882 E10.97591
G1 X65.946 Y92.882 E11.01398
G1 X65.946 Y72.232 E11.61642
G1 X65.898 Y71.586 E11.63532
G1 X65.718 Y71.135 E11.64949
G1 X65.718 Y69.04 E11.71061
G1 X65.805 Y68.269 E11.73325
G1 X66.047 Y67.578 E11.75461
G1 X66.357 Y67.085 E11.7716
G1 X66.671 Y66.691 E11.7863
G1 X67.273 Y66.212 E11.80874
G1 X67.752 Y65.972 E11.82437
G1 X68.25 Y65.807 E11.83968
G1 X69.04 Y65.718 E11.86287
G1 X71.135 Y65.718 E11.92399
G1 X71.434 Y65.86 E11.93365
G1 X71.999 Y65.946 E11.95032
G1 X74.309 Y65.946 E12.01771
G1 X74.396 Y66.24 E12.02665
G1 X74.488 Y66.353 E12.0309
G1 X74.766 Y66.58 E12.04137
G1 X74.588 Y66.697 E12.04758
G1 X74.426 Y66.9 E12.05516
G1 X74.286 Y67.349 E12.06888
G1 X74.282 Y67.997 E12.08779
G1 X74.348 Y68.298 E12.09678
G1 X74.442 Y68.5 E12.10328
G1 X74.503 Y68.556 E12.1057
;WIPE_START
G1 F14400
G1 X74.837 Y68.863 E12.02489
G1 X75.249 Y68.968 E11.94916
G1 X78.3 Y68.968 E11.4057
;WIPE_END
G92 E0
G1 X153.69 Y80.858 F18000
G1 E.7 F2700
;WIDTH:0.539745
G1 F1800
G1 X154.044 Y81.034 E.71251
G1 X154.262 Y81.043 E.71942
G1 X154.284 Y81.89 E.74624
;WIDTH:0.496217
G1 X154.306 Y82.494 E.76373
;WIDTH:0.452689
G1 X154.306 Y82.704 E.76924
G1 X153.914 Y82.705 E.77952
G1 X153.888 Y82.524 E.78432
;WIDTH:0.496217
G1 X153.822 Y81.923 E.80182
;WIDTH:0.539745
G1 X153.699 Y80.918 E.83387
;WIPE_START
G1 F14400
G1 X154.044 Y81.034 E.76904
G1 X154.262 Y81.043 E.73018
G1 X154.284 Y81.89 E.57926
G1 X154.306 Y82.494 E.4716
G1 X154.306 Y82.704 E.43419
G1 X153.914 Y82.705 E.36436
G1 X153.888 Y82.524 E.33179
G1 X153.822 Y81.923 E.22409
G1 X153.76 Y81.42 E.13387
;WIPE_END
G92 E0
G1 X149.989 Y95.41 F18000
G1 E.7 F2700
;WIDTH:0.67868
G1 F1800
G1 X150.159 Y96.533 E.74579
;WIDTH:0.66435
G1 X150.233 Y97.047 E.76626
G1 X149.899 Y96.898 E.78068
G1 X149.579 Y96.88 E.79332
G1 X149.535 Y96.634 E.80317
;WIDTH:0.67868
G1 X149.323 Y95.413 E.85313
G1 X149.929 Y95.411 E.87756
;WIPE_START
G1 F14400
G1 X150.159 Y96.533 E.67355
G1 X150.233 Y97.047 E.58105
G1 X149.899 Y96.898 E.5159
G1 X149.579 Y96.88 E.45881
G1 X149.535 Y96.634 E.4143
G1 X149.323 Y95.413 E.19356
G1 X149.413 Y95.413 E.17756
;WIPE_END
G92 E0
G1 X145.434 Y67.365 F18000
G1 E.7 F2700
;WIDTH:0.499999
G1 F1800
G1 X145.529 Y67.445 E.70362
G1 X145.62 Y67.603 E.70894
G1 X145.714 Y68 E.72084
G1 X145.714 Y68.647 E.73972
G1 X145.574 Y69.1 E.75355
G1 X145.412 Y69.303 E.76113
G1 X145.234 Y69.42 E.76734
G1 X145.512 Y69.647 E.77781
G1 X145.604 Y69.76 E.78206
G1 X145.691 Y70.054 E.791
G1 X148.001 Y70.054 E.85839
G1 X148.566 Y70.14 E.87506
G1 X149.05 Y70.365 E.89063
G1 X149.437 Y70.693 E.90543
G1 X149.726 Y71.109 E.92021
G1 X149.898 Y71.586 E.935
G1 X149.946 Y72.229 E.95381
G1 X149.946 Y92.882 E1.55634
G1 X151.251 Y92.882 E1.59441
G1 X151.666 Y92.94 E1.60663
G1 X151.998 Y93.061 E1.61694
G1 X152.209 Y93.182 E1.62404
G1 X152.479 Y93.409 E1.63433
G1 X152.636 Y93.596 E1.64145
G1 X152.813 Y93.902 E1.65176
G1 X152.896 Y94.13 E1.65884
G1 X152.968 Y94.599 E1.67268
G1 X152.968 Y102.751 E1.91051
G1 X152.902 Y103.048 E1.91939
G1 X152.807 Y103.251 E1.92593
G1 X152.468 Y103.59 E1.93992
G1 X152.051 Y103.714 E1.95261
G1 X151.403 Y103.718 E1.97152
G1 X150.988 Y103.613 E1.98401
G1 X150.779 Y103.493 E1.99104
G1 X150.58 Y103.234 E2.00057
G1 X150.353 Y103.512 E2.01104
G1 X150.24 Y103.604 E2.01529
G1 X149.946 Y103.691 E2.02423
G1 X149.946 Y106.001 E2.09162
G1 X149.86 Y106.566 E2.10829
G1 X149.635 Y107.05 E2.12386
G1 X149.307 Y107.437 E2.13866
G1 X148.891 Y107.726 E2.15344
G1 X148.414 Y107.898 E2.16823
G1 X147.768 Y107.946 E2.18713
G1 X127.118 Y107.946 E2.78957
G1 X127.118 Y109.251 E2.82764
G1 X127.06 Y109.666 E2.83986
G1 X126.939 Y109.998 E2.85017
G1 X126.818 Y110.209 E2.85727
G1 X126.591 Y110.479 E2.86756
G1 X126.404 Y110.636 E2.87468
G1 X126.098 Y110.813 E2.88499
G1 X125.87 Y110.896 E2.89207
G1 X125.401 Y110.968 E2.90591
G1 X117.249 Y110.968 E3.14374
G1 X116.952 Y110.902 E3.15262
G1 X116.749 Y110.807 E3.15916
G1 X116.41 Y110.468 E3.17315
G1 X116.286 Y110.051 E3.18584
G1 X116.282 Y109.403 E3.20475
G1 X116.387 Y108.988 E3.21724
G1 X116.507 Y108.779 E3.22427
G1 X116.766 Y108.58 E3.2338
G1 X116.488 Y108.353 E3.24427
G1 X116.396 Y108.24 E3.24852
G1 X116.309 Y107.946 E3.25746
G1 X113.999 Y107.946 E3.32485
G1 X113.493 Y107.879 E3.33974
G1 X113.021 Y107.682 E3.35466
G1 X112.624 Y107.376 E3.36928
G1 X112.318 Y106.979 E3.3839
G1 X112.121 Y106.507 E3.39882
G1 X112.054 Y106.001 E3.41371
G1 X112.054 Y85.118 E4.02295
G1 X110.749 Y85.118 E4.06102
G1 X110.334 Y85.06 E4.07324
G1 X110.002 Y84.939 E4.08355
G1 X109.791 Y84.818 E4.09065
G1 X109.521 Y84.591 E4.10094
G1 X109.364 Y84.404 E4.10806
G1 X109.187 Y84.098 E4.11837
G1 X109.104 Y83.87 E4.12545
G1 X109.032 Y83.401 E4.13929
G1 X109.032 Y75.249 E4.37712
G1 X109.098 Y74.952 E4.386
G1 X109.193 Y74.749 E4.39254
G1 X109.532 Y74.41 E4.40653
G1 X109.949 Y74.286 E4.41922
G1 X110.597 Y74.282 E4.43813
G1 X111.012 Y74.387 E4.45062
G1 X111.221 Y74.507 E4.45765
G1 X111.42 Y74.766 E4.46718
G1 X111.647 Y74.488 E4.47765
G1 X111.76 Y74.396 E4.4819
G1 X112.054 Y74.309 E4.49084
G1 X112.054 Y71.999 E4.55823
G1 X112.121 Y71.493 E4.57312
G1 X112.318 Y71.021 E4.58804
G1 X112.693 Y70.563 E4.60531
G1 X113.109 Y70.274 E4.62009
G1 X113.586 Y70.102 E4.63488
G1 X114.229 Y70.054 E4.65369
G1 X134.882 Y70.054 E5.25622
G1 X134.882 Y68.749 E5.29429
G1 X134.94 Y68.334 E5.30651
G1 X135.061 Y68.002 E5.31682
G1 X135.182 Y67.791 E5.32392
G1 X135.409 Y67.521 E5.33421
G1 X135.596 Y67.364 E5.34133
G1 X135.902 Y67.187 E5.35164
G1 X136.13 Y67.104 E5.35872
G1 X136.599 Y67.032 E5.37256
G1 X144.751 Y67.032 E5.61039
G1 X145.162 Y67.137 E5.62277
G1 X145.388 Y67.327 E5.63138
;WIPE_START
G1 F14400
G1 X145.529 Y67.445 E5.59863
G1 X145.62 Y67.603 E5.56615
G1 X145.714 Y68 E5.49348
G1 X145.714 Y68.647 E5.37823
G1 X145.574 Y69.1 E5.29377
G1 X145.412 Y69.303 E5.24751
G1 X145.234 Y69.42 E5.20957
G1 X145.512 Y69.647 E5.14564
G1 X145.604 Y69.76 E5.11968
G1 X145.691 Y70.054 E5.06507
G1 X146.442 Y70.054 E4.93138
;WIPE_END
G92 E0
G1 X139.043 Y111.77 F18000
G1 E.7 F2700
;WIDTH:0.668801
G1 F1800
G1 X138.895 Y112.101 E.71439
G1 X138.878 Y112.428 E.72739
G1 X138.629 Y112.473 E.73744
;WIDTH:0.682692
G1 X137.415 Y112.682 E.78741
G1 X137.412 Y112.013 E.81455
G1 X138.528 Y111.844 E.86034
;WIDTH:0.668801
G1 X138.984 Y111.778 E.87863
;WIPE_START
G1 F14400
G1 X138.895 Y112.101 E.81895
G1 X138.878 Y112.428 E.76062
G1 X138.629 Y112.473 E.71555
G1 X137.415 Y112.682 E.49613
G1 X137.412 Y112.013 E.37696
G1 X138.513 Y111.846 E.17863
;WIPE_END
G92 E0
G1 X124.587 Y107.323 F18000
G1 E.7 F2700
;WIDTH:0.678679
G1 F1800
G1 X124.59 Y107.989 E.72685
G1 X123.467 Y108.159 E.77264
;WIDTH:0.66435
G1 X122.953 Y108.233 E.79311
G1 X123.102 Y107.899 E.80753
G1 X123.12 Y107.579 E.82017
G1 X123.366 Y107.535 E.83002
;WIDTH:0.678679
G1 X124.528 Y107.333 E.87757
;WIPE_START
G1 F14400
G1 X124.59 Y107.989 E.7602
G1 X123.467 Y108.159 E.55789
G1 X122.953 Y108.233 E.46539
G1 X123.102 Y107.899 E.40024
G1 X123.12 Y107.579 E.34315
G1 X123.366 Y107.535 E.29864
G1 X124.036 Y107.419 E.17757
;WIPE_END
G92 E0
G1 X108.233 Y97.047 F18000
G1 E.7 F2700
;WIDTH:0.664348
G1 F1800
G1 X107.899 Y96.898 E.71442
G1 X107.579 Y96.88 E.72706
G1 X107.535 Y96.634 E.73691
;WIDTH:0.678678
G1 X107.323 Y95.413 E.78687
G1 X107.989 Y95.41 E.81372
G1 X108.159 Y96.533 E.85951
;WIDTH:0.664348
G1 X108.224 Y96.987 E.87759
;WIPE_START
G1 F14400
G1 X107.899 Y96.898 E.81757
G1 X107.579 Y96.88 E.76048
G1 X107.535 Y96.634 E.71597
G1 X107.323 Y95.413 E.49523
G1 X107.989 Y95.41 E.3766
G1 X108.156 Y96.515 E.17759
;WIPE_END
G92 E0
G1 X112.421 Y81.12 F18000
G1 E.7 F2700
;WIDTH:0.664349
G1 F1800
G1 X112.465 Y81.366 E.70985
;WIDTH:0.678752
G1 X112.678 Y82.593 E.76006
G1 X112.012 Y82.593 E.78691
G1 X111.841 Y81.467 E.83283
;WIDTH:0.664349
G1 X111.767 Y80.953 E.8533
G1 X112.101 Y81.102 E.86772
G1 X112.361 Y81.117 E.87799
;WIPE_START
G1 F14400
G1 X112.465 Y81.366 E.82992
G1 X112.678 Y82.593 E.60809
G1 X112.012 Y82.593 E.48946
G1 X111.841 Y81.467 E.28659
G1 X111.767 Y80.953 E.19409
G1 X111.85 Y80.99 E.17799
;WIPE_END
G92 E0
G1 X110.718 Y103.34 F18000
G1 E.7 F2700
;WIDTH:0.499999
G1 F1800
G1 X110.468 Y103.59 E.71031
