; generated by PrusaSlicer 2.6.0-alpha5+win64 on 2023-03-16 at 13:14:45 UTC

; 

; external perimeters extrusion width = 0.55mm
; perimeters extrusion width = 0.55mm
; infill extrusion width = 0.55mm
; solid infill extrusion width = 0.55mm
; top infill extrusion width = 0.55mm
; first layer extrusion width = 0.55mm

M107
M190 S60 ; set bed temperature and wait for it to be reached
M104 S215 ; set temperature
;TYPE:Custom
SET_GCODE_VARIABLE MACRO=START_PRINT VARIABLE=bed_temp VALUE=60
SET_GCODE_VARIABLE MACRO=START_PRINT VARIABLE=extruder_temp VALUE=215
START_PRINT
M109 S215 ; set temperature and wait for it to be reached
G21 ; set units to millimeters
G90 ; use absolute coordinates
M82 ; use absolute distances for extrusion
G92 E0
; Filament gcode
M107
;LAYER_CHANGE
;Z:0.2
;HEIGHT:0.2
;BEFORE_LAYER_CHANGE
;0.2


G1 Z.2 F18000
;AFTER_LAYER_CHANGE
;0.2
G1 E-.5 F2700
G92 E0
G1 Z.4 F18000
G1 X88.468 Y87.825
G1 Z.2
G1 E.5 F2700
;TYPE:Skirt/Brim
;WIDTH:0.55
G1 F3600
G1 X89.684 Y86.979 E.56246
G1 X91.149 Y86.374 E.62929
G1 X92.433 Y86.139 E.68433
G1 X127.416 Y86.126 E2.15935
G1 X128.588 Y86.303 E2.20933
G1 X129.52 Y86.599 E2.25056
G1 X130.577 Y87.126 E2.30036
G1 X131.736 Y88.019 E2.36205
G1 X132.724 Y89.188 E2.42659
G1 X133.284 Y90.198 E2.47528
G1 X133.634 Y91.179 E2.5192
G1 X133.857 Y92.395 E2.57133
G1 X133.874 Y127.416 E4.04795
G1 X133.697 Y128.588 E4.09793
G1 X133.412 Y129.491 E4.13786
G1 X132.89 Y130.551 E4.18768
G1 X132.346 Y131.323 E4.2275
G1 X131.532 Y132.175 E4.27718
G1 X130.787 Y132.741 E4.31663
G1 X129.802 Y133.284 E4.36405
G1 X128.402 Y133.73 E4.426
G1 X126.976 Y133.89 E4.4865
G1 X92.584 Y133.874 E5.9366
G1 X91.412 Y133.697 E5.98658
G1 X90.509 Y133.412 E6.02651
G1 X89.449 Y132.89 E6.07633
G1 X88.677 Y132.346 E6.11615
G1 X87.825 Y131.532 E6.16583
G1 X87.259 Y130.787 E6.20528
G1 X86.716 Y129.802 E6.2527
G1 X86.27 Y128.402 E6.31465
G1 X86.11 Y126.976 E6.37515
G1 X86.126 Y92.584 E7.82525
G1 X86.303 Y91.412 E7.87523
G1 X86.588 Y90.509 E7.91516
G1 X87.11 Y89.449 E7.96498
G1 X87.654 Y88.677 E8.0048
G1 X88.427 Y87.868 E8.05198
G1 X88.792 Y88.217 F18000
G1 F3600
G1 X89.936 Y87.419 E8.11079
G1 X91.28 Y86.864 E8.1721
G1 X92.483 Y86.644 E8.22366
G1 X127.379 Y86.632 E9.69501
G1 X128.472 Y86.797 E9.74162
G1 X129.33 Y87.069 E9.77957
G1 X130.316 Y87.561 E9.82603
G1 X131.392 Y88.392 E9.88335
G1 X132.299 Y89.464 E9.94256
G1 X132.822 Y90.406 E9.98799
G1 X133.144 Y91.31 E10.02845
G1 X133.353 Y92.445 E10.07711
G1 X133.383 Y126.974 E11.53299
G1 X133.286 Y128.041 E11.57816
G1 X132.942 Y129.301 E11.63323
G1 X132.455 Y130.29 E11.67971
G1 X131.954 Y131.001 E11.71638
G1 X131.195 Y131.796 E11.76272
G1 X130.51 Y132.316 E11.79898
G1 X129.594 Y132.822 E11.8431
G1 X128.307 Y133.232 E11.90005
G1 X126.976 Y133.383 E11.95653
G1 X92.621 Y133.368 E13.40507
G1 X91.528 Y133.203 E13.45168
G1 X90.699 Y132.942 E13.48833
G1 X89.71 Y132.455 E13.53481
G1 X88.999 Y131.954 E13.57148
G1 X88.204 Y131.195 E13.61782
G1 X87.684 Y130.51 E13.65408
G1 X87.178 Y129.594 E13.6982
G1 X86.768 Y128.307 E13.75515
G1 X86.617 Y126.976 E13.81163
G1 X86.632 Y92.621 E15.26017
G1 X86.797 Y91.528 E15.30678
G1 X87.058 Y90.699 E15.34343
G1 X87.545 Y89.71 E15.38991
G1 X88.046 Y88.999 E15.42658
G1 X88.751 Y88.261 E15.46961
;WIPE_START
G1 F14400
G1 X89.936 Y87.419 E15.21067
G1 X91.187 Y86.902 E14.96961
;WIPE_END
G92 E0
G1 Z.4 F18000
G1 X92.563 Y92.617
G1 Z.2
G1 E.5 F2700
;TYPE:External perimeter
;WIDTH:0.549999
G1 F3600
G1 X92.8 Y92.446 E.51232
G1 X93.05 Y92.399 E.52305
G1 X126.886 Y92.401 E1.9497
G1 X127.181 Y92.439 E1.96224
G1 X127.383 Y92.563 E1.97223
G1 X127.554 Y92.8 E1.98455
G1 X127.601 Y93.05 E1.99528
G1 X127.601 Y126.884 E3.42185
G1 X127.56 Y127.182 E3.43453
G1 X127.437 Y127.383 E3.44447
G1 X127.2 Y127.554 E3.45679
G1 X126.95 Y127.601 E3.46752
G1 X93.116 Y127.601 E4.89409
G1 X92.818 Y127.56 E4.90677
G1 X92.617 Y127.437 E4.91671
G1 X92.446 Y127.2 E4.92903
G1 X92.399 Y126.95 E4.93976
G1 X92.399 Y93.113 E6.36646
G1 X92.44 Y92.818 E6.37902
G1 X92.532 Y92.668 E6.38644
;WIPE_START
G1 F14400
G1 X92.8 Y92.446 E6.32445
G1 X93.05 Y92.399 E6.27914
G1 X95.255 Y92.399 E5.88644
;WIPE_END
G92 E0
G1 Z.4 F18000
G1 X127.449 Y93.882
G1 Z.2
G1 E.5 F2700
;TYPE:Solid infill
;WIDTH:0.553352
G1 F3600
G1 X126.348 Y92.782 E.56606
G1 X125.626 Y92.781 E.5967
G1 X127.221 Y94.376 E.69244
G1 X127.221 Y95.098 E.72308
G1 X124.904 Y92.781 E.86215
G1 X124.182 Y92.781 E.89279
G1 X127.221 Y95.82 E1.0752
G1 X127.221 Y96.542 E1.10584
G1 X123.46 Y92.781 E1.33159
G1 X122.738 Y92.781 E1.36223
G1 X127.221 Y97.264 E1.63131
G1 X127.221 Y97.985 E1.66191
G1 X122.017 Y92.781 E1.97427
G1 X121.295 Y92.781 E2.00491
G1 X127.221 Y98.707 E2.36061
G1 X127.221 Y99.429 E2.39125
G1 X120.573 Y92.781 E2.79028
G1 X119.851 Y92.781 E2.82092
G1 X127.221 Y100.151 E3.26329
G1 X127.221 Y100.873 E3.29393
G1 X119.129 Y92.781 E3.77964
G1 X118.407 Y92.781 E3.81028
G1 X127.221 Y101.595 E4.33932
G1 X127.221 Y102.317 E4.36996
G1 X117.685 Y92.781 E4.94234
G1 X116.963 Y92.781 E4.97298
G1 X127.221 Y103.038 E5.58866
G1 X127.221 Y103.76 E5.6193
G1 X116.241 Y92.781 E6.27832
G1 X115.519 Y92.781 E6.30896
G1 X127.221 Y104.482 E7.01132
G1 X127.221 Y105.204 E7.04196
G1 X114.797 Y92.781 E7.78765
G1 X114.076 Y92.781 E7.81825
G1 X127.221 Y105.926 E8.60725
G1 X127.221 Y106.648 E8.63789
G1 X113.354 Y92.781 E9.47023
G1 X112.632 Y92.781 E9.50087
G1 X127.221 Y107.37 E10.37654
G1 X127.221 Y108.091 E10.40714
G1 X111.91 Y92.781 E11.32612
G1 X111.188 Y92.781 E11.35676
G1 X127.221 Y108.813 E12.31908
G1 X127.221 Y109.535 E12.34972
G1 X110.466 Y92.78 E13.3554
G1 X109.744 Y92.78 E13.38604
G1 X127.221 Y110.257 E14.43506
G1 X127.221 Y110.979 E14.4657
G1 X109.022 Y92.78 E15.55806
G1 X108.3 Y92.78 E15.5887
G1 X127.221 Y111.701 E16.72439
G1 X127.221 Y112.423 E16.75503
G1 X107.578 Y92.78 E17.93406
G1 X106.856 Y92.78 E17.9647
G1 X127.221 Y113.144 E19.18704
G1 X127.221 Y113.866 E19.21768
G1 X106.135 Y92.78 E20.48332
G1 X105.413 Y92.78 E20.51396
G1 X127.221 Y114.588 E21.82294
G1 X127.221 Y115.31 E21.85358
G1 X104.691 Y92.78 E23.2059
G1 X103.969 Y92.78 E23.23654
G1 X127.221 Y116.032 E24.63219
G1 X127.221 Y116.754 E24.66283
G1 X103.247 Y92.78 E26.10182
G1 X102.525 Y92.78 E26.13246
G1 X127.221 Y117.476 E27.61479
G1 X127.221 Y118.197 E27.64539
G1 X101.803 Y92.78 E29.17102
G1 X101.081 Y92.78 E29.20166
G1 X127.221 Y118.919 E30.77063
G1 X127.221 Y119.641 E30.80127
G1 X100.359 Y92.78 E32.41357
G1 X99.637 Y92.78 E32.44421
G1 X127.221 Y120.363 E34.09985
G1 X127.221 Y121.085 E34.13049
G1 X98.915 Y92.78 E35.82947
G1 X98.194 Y92.78 E35.86007
G1 X127.221 Y121.807 E37.60235
G1 X127.221 Y122.529 E37.63299
G1 X97.472 Y92.78 E39.41861
G1 X96.75 Y92.78 E39.44925
G1 X127.221 Y123.25 E41.27818
G1 X127.221 Y123.972 E41.30882
G1 X96.028 Y92.78 E43.18108
G1 X95.306 Y92.779 E43.21172
G1 X127.221 Y124.694 E45.12735
G1 X127.221 Y125.416 E45.15799
G1 X94.584 Y92.779 E47.11696
G1 X93.862 Y92.779 E47.1476
G1 X127.221 Y126.138 E49.1499
G1 X127.221 Y126.86 E49.18054
G1 X93.14 Y92.779 E51.22618
G1 X92.934 Y92.808 E51.23501
G1 X92.873 Y92.845 E51.23804
G1 X92.803 Y92.947 E51.24329
G1 X92.779 Y93.14 E51.25154
G1 X126.86 Y127.221 E53.29718
G1 X126.138 Y127.221 E53.32782
G1 X92.779 Y93.862 E55.33012
G1 X92.779 Y94.584 E55.36076
G1 X125.416 Y127.221 E57.31973
G1 X124.694 Y127.221 E57.35037
G1 X92.779 Y95.306 E59.266
G1 X92.779 Y96.028 E59.29664
G1 X123.972 Y127.221 E61.16893
G1 X123.25 Y127.221 E61.19957
G1 X92.779 Y96.75 E63.02853
G1 X92.779 Y97.471 E63.05913
G1 X122.529 Y127.221 E64.84481
G1 X121.807 Y127.221 E64.87545
G1 X92.779 Y98.193 E66.61779
G1 X92.779 Y98.915 E66.64843
G1 X121.085 Y127.221 E68.34744
G1 X120.363 Y127.221 E68.37808
G1 X92.779 Y99.637 E70.03375
G1 X92.779 Y100.359 E70.06439
G1 X119.641 Y127.221 E71.67672
G1 X118.919 Y127.221 E71.70736
G1 X92.779 Y101.081 E73.27636
G1 X92.779 Y101.803 E73.307
G1 X118.197 Y127.221 E74.83266
G1 X117.476 Y127.221 E74.86326
G1 X92.779 Y102.524 E76.34565
G1 X92.779 Y103.246 E76.37629
G1 X116.754 Y127.221 E77.81534
G1 X116.032 Y127.221 E77.84598
G1 X92.779 Y103.968 E79.24169
G1 X92.779 Y104.69 E79.27233
G1 X115.31 Y127.221 E80.62471
G1 X114.588 Y127.221 E80.65535
G1 X92.779 Y105.412 E81.96439
G1 X92.779 Y106.134 E81.99503
G1 X113.866 Y127.221 E83.26073
G1 X113.144 Y127.221 E83.29137
G1 X92.779 Y106.856 E84.51374
G1 X92.779 Y107.577 E84.54434
G1 X112.423 Y127.221 E85.72343
G1 X111.701 Y127.221 E85.75407
G1 X92.779 Y108.299 E86.88982
G1 X92.779 Y109.021 E86.92046
G1 X110.979 Y127.221 E88.01288
G1 X110.257 Y127.221 E88.04352
G1 X92.779 Y109.743 E89.0926
G1 X92.779 Y110.465 E89.12324
G1 X109.535 Y127.221 E90.12898
G1 X108.813 Y127.221 E90.15962
G1 X92.779 Y111.187 E91.12203
G1 X92.779 Y111.909 E91.15267
G1 X108.091 Y127.221 E92.07174
G1 X107.37 Y127.221 E92.10234
G1 X92.779 Y112.63 E92.97813
G1 X92.779 Y113.352 E93.00877
G1 X106.648 Y127.221 E93.84123
G1 X105.926 Y127.221 E93.87187
G1 X92.779 Y114.074 E94.66099
G1 X92.779 Y114.796 E94.69163
G1 X105.204 Y127.221 E95.43741
G1 X104.482 Y127.221 E95.46805
G1 X92.779 Y115.518 E96.1705
G1 X92.779 Y116.24 E96.20114
G1 X103.76 Y127.221 E96.86025
G1 X103.038 Y127.221 E96.89089
G1 X92.779 Y116.962 E97.50666
G1 X92.779 Y117.683 E97.53726
G1 X102.317 Y127.221 E98.10976
G1 X101.595 Y127.221 E98.1404
G1 X92.779 Y118.405 E98.66956
G1 X92.779 Y119.127 E98.7002
G1 X100.873 Y127.221 E99.18603
G1 X100.151 Y127.221 E99.21667
G1 X92.779 Y119.849 E99.65916
G1 X92.779 Y120.571 E99.6898
G1 X99.429 Y127.221 E100.08895
G1 X98.707 Y127.221 E100.11959
G1 X92.779 Y121.293 E100.47541
G1 X92.779 Y122.015 E100.50605
G1 X97.985 Y127.221 E100.81853
G1 X97.263 Y127.221 E100.84917
G1 X92.779 Y122.737 E101.11831
G1 X92.779 Y123.458 E101.14891
G1 X96.542 Y127.221 E101.37478
G1 X95.82 Y127.221 E101.40542
G1 X92.779 Y124.18 E101.58795
G1 X92.779 Y124.902 E101.61859
G1 X95.098 Y127.221 E101.75778
G1 X94.376 Y127.221 E101.78842
G1 X92.779 Y125.624 E101.88428
G1 X92.779 Y126.346 E101.91492
G1 X93.882 Y127.449 E101.98113
M106 S255
;LAYER_CHANGE
;Z:0.4
;HEIGHT:0.2
;BEFORE_LAYER_CHANGE
;0.4


G1 Z.4 F18000
;AFTER_LAYER_CHANGE
;0.4
G1 X93.882 Y127.801
;TYPE:External perimeter
;WIDTH:0.549999
G1 F1390.903
G1 X93.149 Y127.801 E102.01204
G1 X92.871 Y127.764 E102.02386
G1 F1407.751
G1 X92.566 Y127.656 E102.0375
G1 F1402.54
G1 X92.295 Y127.344 E102.05492
G1 F1390.91
G1 X92.199 Y126.951 E102.07198
G1 X92.199 Y126.201 E102.1036
G1 X92.199 Y93.899 E103.46557
G1 X92.199 Y93.149 E103.49719
G1 X92.236 Y92.871 E103.50901
G1 F1407.751
G1 X92.344 Y92.566 E103.52265
G1 F1402.537
G1 X92.656 Y92.295 E103.54007
G1 F1390.936
G1 X93.049 Y92.199 E103.55713
G1 X93.799 Y92.199 E103.58875
G1 F1391.909
G1 X126.131 Y92.206 E104.95199
G1 F1433.872
G1 X126.875 Y92.206 E104.98336
G1 F1400.824
G1 X127.219 Y92.239 E104.99793
G1 F1394.282
G1 X127.576 Y92.467 E105.01579
G1 X127.745 Y92.739 E105.02929
G1 F1390.903
G1 X127.801 Y93.132 E105.04603
G1 X127.801 Y93.882 E105.07765
G1 X127.801 Y126.101 E106.43613
G1 X127.801 Y126.851 E106.46775
G1 X127.764 Y127.129 E106.47957
G1 F1407.751
G1 X127.656 Y127.434 E106.49321
G1 F1402.54
G1 X127.344 Y127.705 E106.51063
G1 F1390.91
G1 X126.951 Y127.801 E106.52769
G1 X126.201 Y127.801 E106.55931
G1 X94.692 Y127.801 E107.88785
G1 X93.942 Y127.801 E107.91947
;WIPE_START
G1 F14400
G1 X93.149 Y127.801 E107.77822
G1 X92.871 Y127.764 E107.72826
G1 X92.566 Y127.656 E107.67063
G1 X92.295 Y127.344 E107.59702
G1 X92.199 Y126.951 E107.52496
G1 X92.199 Y126.359 E107.41947
;WIPE_END
G92 E0
G1 Z.6 F18000
G1 X126.901 Y127.649
G1 Z.4
G1 E.5 F2700
;TYPE:Top solid infill
;WIDTH:0.551889
G1 F9000
G1 X127.369 Y127.164 E.52852
G1 X127.421 Y126.909 E.53953
G1 X127.421 Y126.409 E.56069
G1 X126.409 Y127.421 E.62126
G1 X125.69 Y127.421 E.65169
G1 X127.421 Y125.69 E.75529
G1 X127.421 Y124.97 E.78576
G1 X124.97 Y127.421 E.93245
G1 X124.25 Y127.421 E.96292
G1 X127.421 Y124.25 E1.15271
G1 X127.421 Y123.53 E1.18318
G1 X123.53 Y127.421 E1.41606
G1 X122.81 Y127.421 E1.44653
G1 X127.421 Y122.81 E1.7225
G1 X127.421 Y122.091 E1.75293
G1 X122.091 Y127.421 E2.07194
G1 X121.371 Y127.421 E2.10241
G1 X127.421 Y121.371 E2.46451
G1 X127.421 Y120.651 E2.49498
G1 X120.651 Y127.421 E2.90017
G1 X119.931 Y127.421 E2.93064
G1 X127.421 Y119.931 E3.37892
G1 X127.421 Y119.212 E3.40935
G1 X119.212 Y127.421 E3.90067
G1 X118.492 Y127.421 E3.93114
G1 X127.421 Y118.492 E4.46555
G1 X127.421 Y117.772 E4.49602
G1 X117.772 Y127.421 E5.07352
G1 X117.052 Y127.421 E5.10399
G1 X127.421 Y117.052 E5.72458
G1 X127.421 Y116.332 E5.75505
G1 X116.332 Y127.421 E6.41874
G1 X115.613 Y127.421 E6.44917
G1 X127.421 Y115.613 E7.15589
G1 X127.421 Y114.893 E7.18636
G1 X114.893 Y127.421 E7.93617
G1 X114.173 Y127.421 E7.96664
G1 X127.421 Y114.173 E8.75954
G1 X127.421 Y113.453 E8.79001
G1 X113.453 Y127.421 E9.62601
G1 X112.733 Y127.421 E9.65648
G1 X127.421 Y112.733 E10.53557
G1 X127.421 Y112.014 E10.566
G1 X112.014 Y127.421 E11.48812
G1 X111.294 Y127.421 E11.51859
G1 X127.421 Y111.294 E12.4838
G1 X127.421 Y110.574 E12.51427
G1 X110.574 Y127.421 E13.52258
G1 X109.854 Y127.421 E13.55305
G1 X127.421 Y109.854 E14.60445
G1 X127.421 Y109.134 E14.63492
G1 X109.134 Y127.421 E15.72941
G1 X108.415 Y127.421 E15.75984
G1 X127.421 Y108.415 E16.89737
G1 X127.421 Y107.695 E16.92784
G1 X107.695 Y127.421 E18.10846
G1 X106.975 Y127.421 E18.13893
G1 X127.421 Y106.975 E19.36264
G1 X127.421 Y106.255 E19.39311
G1 X106.255 Y127.421 E20.65991
G1 X105.536 Y127.421 E20.69034
G1 X127.421 Y105.536 E22.00018
G1 X127.421 Y104.816 E22.03065
G1 X104.816 Y127.421 E23.38358
G1 X104.096 Y127.421 E23.41405
G1 X127.421 Y104.096 E24.81007
G1 X127.421 Y103.376 E24.84054
G1 X103.376 Y127.421 E26.27965
G1 X102.656 Y127.421 E26.31012
G1 X127.421 Y102.656 E27.79233
G1 X127.421 Y101.937 E27.82276
G1 X101.937 Y127.421 E29.348
G1 X101.217 Y127.421 E29.37847
G1 X127.421 Y101.217 E30.9468
G1 X127.421 Y100.497 E30.97727
G1 X100.497 Y127.421 E32.58869
G1 X99.777 Y127.421 E32.61916
G1 X127.421 Y99.777 E34.27368
G1 X127.421 Y99.057 E34.30415
G1 X99.057 Y127.421 E36.00176
G1 X98.338 Y127.421 E36.03219
G1 X127.421 Y98.338 E37.77283
G1 X127.421 Y97.618 E37.8033
G1 X97.618 Y127.421 E39.58704
G1 X96.898 Y127.421 E39.61751
G1 X127.421 Y96.898 E41.44434
G1 X127.421 Y96.178 E41.47481
G1 X96.178 Y127.421 E43.34473
G1 X95.458 Y127.421 E43.3752
G1 X127.421 Y95.458 E45.28821
G1 X127.421 Y94.739 E45.31864
G1 X94.739 Y127.421 E47.27469
G1 X94.019 Y127.421 E47.30516
G1 X127.421 Y94.019 E49.3043
G1 X127.421 Y93.299 E49.33477
G1 X93.299 Y127.421 E51.377
G1 X93.091 Y127.421 E51.3858
G1 X92.836 Y127.369 E51.39681
G1 X92.726 Y127.274 E51.40296
G1 X127.281 Y92.719 E53.47111
G1 X127.105 Y92.604 E53.48001
G1 X127.006 Y92.586 E53.48427
G1 X126.694 Y92.586 E53.49747
G1 X92.579 Y126.701 E55.53928
G1 X92.579 Y125.981 E55.56975
G1 X125.975 Y92.586 E57.5685
G1 X125.255 Y92.586 E57.59897
G1 X92.579 Y125.261 E59.55463
G1 X92.579 Y124.541 E59.5851
G1 X124.535 Y92.586 E61.49766
G1 X123.816 Y92.585 E61.52809
G1 X92.579 Y123.822 E63.39765
G1 X92.579 Y123.102 E63.42812
G1 X123.096 Y92.585 E65.25459
G1 X122.376 Y92.585 E65.28506
G1 X92.579 Y122.382 E67.06844
G1 X92.579 Y121.662 E67.09891
G1 X121.657 Y92.585 E68.83922
G1 X120.937 Y92.585 E68.86969
G1 X92.579 Y120.943 E70.56694
G1 X92.579 Y120.223 E70.59741
G1 X120.217 Y92.585 E72.25157
G1 X119.498 Y92.585 E72.282
G1 X92.579 Y119.503 E73.8931
G1 X92.579 Y118.783 E73.92357
G1 X118.778 Y92.584 E75.4916
G1 X118.058 Y92.584 E75.52207
G1 X92.579 Y118.063 E77.04701
G1 X92.579 Y117.344 E77.07744
G1 X117.339 Y92.584 E78.55935
G1 X116.619 Y92.584 E78.58982
G1 X92.579 Y116.624 E80.02863
G1 X92.579 Y115.904 E80.0591
G1 X115.899 Y92.584 E81.45482
G1 X115.18 Y92.584 E81.48525
G1 X92.579 Y115.184 E82.83791
G1 X92.579 Y114.464 E82.86838
G1 X114.46 Y92.584 E84.17795
G1 X113.741 Y92.583 E84.20838
G1 X92.579 Y113.745 E85.47494
G1 X92.579 Y113.025 E85.50541
G1 X113.021 Y92.583 E86.72888
G1 X112.301 Y92.583 E86.75935
G1 X92.579 Y112.305 E87.93973
G1 X92.579 Y111.585 E87.9702
G1 X111.582 Y92.583 E89.10752
G1 X110.862 Y92.583 E89.13799
G1 X92.579 Y110.865 E90.23221
G1 X92.579 Y110.146 E90.26264
G1 X110.142 Y92.583 E91.3138
G1 X109.423 Y92.583 E91.34423
G1 X92.579 Y109.426 E92.35233
