; generated by PrusaSlicer 2.6.0-alpha5+win64 on 2023-03-18 at 08:45:12 UTC

; 

; external perimeters extrusion width = 0.55mm
; perimeters extrusion width = 0.55mm
; infill extrusion width = 0.55mm
; solid infill extrusion width = 0.55mm
; top infill extrusion width = 0.55mm
; first layer extrusion width = 0.55mm

; external perimeters extrusion width = 0.55mm
; perimeters extrusion width = 0.55mm
; infill extrusion width = 0.55mm
; solid infill extrusion width = 0.55mm
; top infill extrusion width = 0.55mm
; first layer extrusion width = 0.55mm

; external perimeters extrusion width = 0.55mm
; perimeters extrusion width = 0.55mm
; infill extrusion width = 0.55mm
; solid infill extrusion width = 0.55mm
; top infill extrusion width = 0.55mm
; first layer extrusion width = 0.55mm

; external perimeters extrusion width = 0.55mm
; perimeters extrusion width = 0.55mm
; infill extrusion width = 0.55mm
; solid infill extrusion width = 0.55mm
; top infill extrusion width = 0.55mm
; first layer extrusion width = 0.55mm

M107
M190 S60 ; set bed temperature and wait for it to be reached
M104 S215 ; set temperature
;TYPE:Custom
SET_GCODE_VARIABLE MACRO=START_PRINT VARIABLE=bed_temp VALUE=60
SET_GCODE_VARIABLE MACRO=START_PRINT VARIABLE=extruder_temp VALUE=215
START_PRINT
M109 S215 ; set temperature and wait for it to be reached
G21 ; set units to millimeters
G90 ; use absolute coordinates
M82 ; use absolute distances for extrusion
G92 E0
; Filament gcode
M107
;LAYER_CHANGE
;Z:0.2
;HEIGHT:0.2
;BEFORE_LAYER_CHANGE
;0.2


G1 Z.2 F18000
;AFTER_LAYER_CHANGE
;0.2
G1 E-.5 F2700
G92 E0
G1 Z.4 F18000
G1 X37.666 Y25.977
G1 Z.2
G1 E.5 F2700
;TYPE:Skirt/Brim
;WIDTH:0.55
G1 F3600
G1 X38.194 Y25.231 E.53854
G1 X39.008 Y24.379 E.58822
G1 X39.753 Y23.813 E.62767
G1 X40.765 Y23.258 E.67634
G1 X41.718 Y22.92 E.71897
G1 X42.935 Y22.697 E.77114
G1 X77.956 Y22.68 E2.24776
G1 X79.128 Y22.858 E2.29774
G1 X79.905 Y23.092 E2.33195
G1 X190.707 Y64.936 E7.32583
G1 X191.892 Y65.508 E7.38131
G1 X192.64 Y66.032 E7.41982
G1 X193.496 Y66.843 E7.46954
G1 X194.082 Y67.611 E7.51027
G1 X194.625 Y68.595 E7.55766
G1 X194.967 Y69.546 E7.60027
G1 X195.199 Y70.793 E7.65375
G1 X195.231 Y71.421 E7.68026
G1 X195.231 Y105.391 E9.11257
G1 X194.947 Y192.706 E12.79413
G1 X194.747 Y194.33 E12.86312
G1 X194.199 Y195.797 E12.92915
G1 X193.931 Y196.289 E12.95277
G1 X193.22 Y197.247 E13.00307
G1 X192.589 Y197.887 E13.04096
G1 X191.844 Y198.453 E13.08041
G1 X190.859 Y198.996 E13.12783
G1 X189.908 Y199.338 E13.17044
G1 X188.662 Y199.569 E13.22387
G1 X188.033 Y199.602 E13.25043
G1 X154.083 Y199.602 E14.68189
G1 X152.439 Y199.401 E14.75172
G1 X151.59 Y199.134 E14.78925
G1 X41.848 Y155.411 E19.77012
G1 X40.817 Y154.9 E19.81864
G1 X40.069 Y154.376 E19.85715
G1 X39.213 Y153.565 E19.90687
G1 X38.627 Y152.797 E19.9476
G1 X38.084 Y151.813 E19.99499
G1 X37.742 Y150.861 E20.03764
G1 X37.589 Y150.157 E20.06802
G1 X37.478 Y149.045 E20.11514
G1 X36.65 Y63.588 E23.7185
G1 X36.649 Y29.58 E25.15241
G1 X36.85 Y27.936 E25.22224
G1 X37.139 Y27.034 E25.26218
G1 X37.639 Y26.03 E25.30947
G1 X38.091 Y26.256 F18000
G1 F3600
G1 X38.586 Y25.553 E25.34572
G1 X39.345 Y24.758 E25.39206
G1 X40.029 Y24.238 E25.42829
G1 X40.974 Y23.72 E25.47373
G1 X41.849 Y23.41 E25.51287
G1 X42.985 Y23.201 E25.56157
G1 X77.919 Y23.186 E27.03452
G1 X79.012 Y23.351 E27.08113
G1 X79.726 Y23.567 E27.11258
G1 X190.528 Y65.41 E32.10645
G1 X191.631 Y65.942 E32.15808
G1 X192.318 Y66.424 E32.19346
G1 X193.117 Y67.18 E32.23984
G1 X193.657 Y67.887 E32.27735
G1 X194.163 Y68.804 E32.32151
G1 X194.477 Y69.677 E32.36063
G1 X194.694 Y70.842 E32.4106
G1 X194.724 Y71.421 E32.43505
G1 X194.724 Y105.389 E33.86727
G1 X194.44 Y192.704 E37.54883
G1 X194.253 Y194.214 E37.61298
G1 X193.743 Y195.576 E37.6743
G1 X192.844 Y196.907 E37.74202
G1 X192.252 Y197.508 E37.77759
G1 X191.567 Y198.028 E37.81385
G1 X190.651 Y198.534 E37.85797
G1 X189.777 Y198.848 E37.89713
G1 X188.612 Y199.065 E37.9471
G1 X188.033 Y199.095 E37.97155
G1 X154.083 Y199.095 E39.40301
G1 X152.555 Y198.908 E39.46792
G1 X151.778 Y198.663 E39.50227
G1 X42.038 Y154.941 E44.48305
G1 X41.078 Y154.465 E44.52823
G1 X40.391 Y153.984 E44.56359
G1 X39.592 Y153.228 E44.60997
G1 X39.052 Y152.52 E44.64751
G1 X38.546 Y151.604 E44.69163
G1 X38.232 Y150.731 E44.73075
G1 X37.985 Y149.04 E44.80281
G1 X37.157 Y63.583 E48.40617
G1 X37.156 Y29.58 E49.83987
G1 X37.344 Y28.052 E49.90478
G1 X37.609 Y27.224 E49.94144
G1 X38.065 Y26.31 E49.98451
;WIPE_START
G1 F14400
G1 X38.586 Y25.553 E49.82082
G1 X39.345 Y24.758 E49.62504
G1 X39.973 Y24.281 E49.48451
;WIPE_END
G92 E0
G1 Z.4 F18000
G1 X43.004 Y29.332
G1 Z.2
G1 E.5 F2700
;TYPE:External perimeter
;WIDTH:0.549999
G1 F3600
G1 X43.103 Y29.171 E.50797
G1 X43.339 Y29 E.52026
G1 X43.589 Y28.953 E.53099
G1 X77.426 Y28.955 E1.95769
G1 X77.72 Y28.993 E1.97019
G1 X77.923 Y29.117 E1.98022
G1 X78.094 Y29.354 E1.99254
G1 X78.141 Y29.67 E2.00601
G1 X78.141 Y63.438 E3.4298
G1 X78.099 Y63.736 E3.44249
G1 X77.976 Y63.937 E3.45243
G1 X77.74 Y64.108 E3.46472
G1 X77.49 Y64.155 E3.47545
G1 X43.656 Y64.155 E4.90202
G1 X43.358 Y64.114 E4.9147
G1 X43.156 Y63.991 E4.92467
G1 X42.985 Y63.754 E4.93699
G1 X42.939 Y63.504 E4.94771
G1 X42.939 Y29.67 E6.37428
G1 X42.978 Y29.385 E6.38641
;WIPE_START
G1 F14400
G1 X43.103 Y29.171 E6.34226
G1 X43.339 Y29 E6.29035
G1 X43.589 Y28.953 E6.24504
G1 X45.602 Y28.953 E5.88641
;WIPE_END
G92 E0
G1 Z.4 F18000
G1 X77.988 Y30.436
G1 Z.2
G1 E.5 F2700
;TYPE:Solid infill
;WIDTH:0.553352
G1 F3600
G1 X76.888 Y29.336 E.56603
G1 X76.166 Y29.336 E.59667
G1 X77.76 Y30.93 E.69235
G1 X77.76 Y31.652 E.72299
G1 X75.444 Y29.335 E.86203
G1 X74.722 Y29.335 E.89267
G1 X77.76 Y32.374 E1.07505
G1 X77.76 Y33.096 E1.10569
G1 X74 Y29.335 E1.33141
G1 X73.278 Y29.335 E1.36205
G1 X77.76 Y33.818 E1.6311
G1 X77.76 Y34.539 E1.6617
G1 X72.556 Y29.335 E1.97406
G1 X71.834 Y29.335 E2.0047
G1 X77.76 Y35.261 E2.3604
G1 X77.76 Y35.983 E2.39104
G1 X71.112 Y29.335 E2.79007
G1 X70.39 Y29.335 E2.82071
G1 X77.76 Y36.705 E3.26308
G1 X77.76 Y37.427 E3.29372
G1 X69.668 Y29.335 E3.77943
G1 X68.947 Y29.335 E3.81003
G1 X77.76 Y38.149 E4.33904
G1 X77.76 Y38.871 E4.36968
G1 X68.225 Y29.335 E4.94203
G1 X67.503 Y29.335 E4.97267
G1 X77.76 Y39.592 E5.58832
G1 X77.76 Y40.314 E5.61896
G1 X66.781 Y29.335 E6.27795
G1 X66.059 Y29.335 E6.30859
G1 X77.76 Y41.036 E7.01092
G1 X77.76 Y41.758 E7.04156
G1 X65.337 Y29.335 E7.78722
G1 X64.615 Y29.335 E7.81786
G1 X77.76 Y42.48 E8.60686
G1 X77.76 Y43.202 E8.6375
G1 X63.893 Y29.335 E9.46984
G1 X63.171 Y29.335 E9.50048
G1 X77.76 Y43.924 E10.37615
G1 X77.76 Y44.645 E10.40675
G1 X62.449 Y29.335 E11.32573
G1 X61.727 Y29.335 E11.35637
G1 X77.76 Y45.367 E12.31869
G1 X77.76 Y46.089 E12.34933
G1 X61.006 Y29.335 E13.35495
G1 X60.284 Y29.334 E13.38559
G1 X77.76 Y46.811 E14.43458
G1 X77.76 Y47.533 E14.46522
G1 X59.562 Y29.334 E15.55755
G1 X58.84 Y29.334 E15.58819
G1 X77.76 Y48.255 E16.72385
G1 X77.76 Y48.977 E16.75449
G1 X58.118 Y29.334 E17.93349
G1 X57.396 Y29.334 E17.96413
G1 X77.76 Y49.698 E19.18644
G1 X77.76 Y50.42 E19.21708
G1 X56.674 Y29.334 E20.48272
G1 X55.952 Y29.334 E20.51336
G1 X77.76 Y51.142 E21.82234
G1 X77.76 Y51.864 E21.85298
G1 X55.23 Y29.334 E23.2053
G1 X54.508 Y29.334 E23.23594
G1 X77.76 Y52.586 E24.63159
G1 X77.76 Y53.308 E24.66223
G1 X53.786 Y29.334 E26.10122
G1 X53.065 Y29.334 E26.13182
G1 X77.76 Y54.03 E27.61412
G1 X77.76 Y54.752 E27.64476
G1 X52.343 Y29.334 E29.17039
G1 X51.621 Y29.334 E29.20103
G1 X77.76 Y55.473 E30.76997
G1 X77.76 Y56.195 E30.80061
G1 X50.899 Y29.334 E32.41288
G1 X50.177 Y29.334 E32.44352
G1 X77.76 Y56.917 E34.09913
G1 X77.76 Y57.639 E34.12977
G1 X49.455 Y29.334 E35.82872
G1 X48.733 Y29.334 E35.85936
G1 X77.76 Y58.361 E37.60164
G1 X77.76 Y59.083 E37.63228
G1 X48.011 Y29.334 E39.4179
G1 X47.289 Y29.334 E39.44854
G1 X77.76 Y59.805 E41.2775
G1 X77.76 Y60.526 E41.3081
G1 X46.567 Y29.334 E43.18036
G1 X45.845 Y29.334 E43.211
G1 X77.76 Y61.248 E45.1266
G1 X77.76 Y61.97 E45.15724
G1 X45.124 Y29.333 E47.11618
G1 X44.402 Y29.333 E47.14682
G1 X77.76 Y62.692 E49.14909
G1 X77.76 Y63.414 E49.17973
G1 X43.68 Y29.333 E51.22534
G1 X43.474 Y29.362 E51.23417
G1 X43.412 Y29.399 E51.23723
G1 X43.343 Y29.501 E51.24246
G1 X43.319 Y29.694 E51.25071
G1 X77.399 Y63.775 E53.29632
G1 X76.677 Y63.775 E53.32696
G1 X43.319 Y30.416 E55.32923
G1 X43.319 Y31.138 E55.35987
G1 X75.956 Y63.775 E57.31884
G1 X75.234 Y63.775 E57.34948
G1 X43.319 Y31.86 E59.26511
G1 X43.319 Y32.582 E59.29575
G1 X74.512 Y63.775 E61.16804
G1 X73.79 Y63.775 E61.19868
G1 X43.319 Y33.304 E63.02764
G1 X43.319 Y34.025 E63.05824
G1 X73.068 Y63.775 E64.84389
G1 X72.346 Y63.775 E64.87453
G1 X43.319 Y34.747 E66.61684
G1 X43.319 Y35.469 E66.64748
G1 X71.624 Y63.775 E68.34646
G1 X70.903 Y63.775 E68.37706
G1 X43.319 Y36.191 E70.03273
G1 X43.319 Y36.913 E70.06337
G1 X70.181 Y63.775 E71.6757
G1 X69.459 Y63.775 E71.70634
G1 X43.319 Y37.635 E73.27534
G1 X43.319 Y38.357 E73.30598
G1 X68.737 Y63.775 E74.83164
G1 X68.015 Y63.775 E74.86228
G1 X43.319 Y39.078 E76.34464
G1 X43.319 Y39.8 E76.37528
G1 X67.293 Y63.775 E77.8143
G1 X66.571 Y63.775 E77.84494
G1 X43.319 Y40.522 E79.24062
G1 X43.319 Y41.244 E79.27126
G1 X65.85 Y63.775 E80.62364
G1 X65.128 Y63.775 E80.65428
G1 X43.319 Y41.966 E81.96332
G1 X43.319 Y42.688 E81.99396
G1 X64.406 Y63.775 E83.25966
G1 X63.684 Y63.775 E83.2903
G1 X43.319 Y43.41 E84.51267
G1 X43.319 Y44.132 E84.54331
G1 X62.962 Y63.775 E85.72234
G1 X62.24 Y63.775 E85.75298
G1 X43.319 Y44.853 E86.8887
G1 X43.319 Y45.575 E86.91934
G1 X61.518 Y63.775 E88.01173
G1 X60.796 Y63.775 E88.04237
G1 X43.319 Y46.297 E89.09142
G1 X43.319 Y47.019 E89.12206
G1 X60.075 Y63.775 E90.1278
G1 X59.353 Y63.775 E90.15844
G1 X43.319 Y47.741 E91.12085
G1 X43.319 Y48.463 E91.15149
G1 X58.631 Y63.775 E92.07056
G1 X57.909 Y63.775 E92.1012
G1 X43.319 Y49.185 E92.97693
G1 X43.319 Y49.906 E93.00753
G1 X57.187 Y63.775 E93.83996
G1 X56.465 Y63.775 E93.8706
G1 X43.319 Y50.628 E94.65969
G1 X43.319 Y51.35 E94.69033
G1 X55.743 Y63.775 E95.43608
G1 X55.022 Y63.775 E95.46668
G1 X43.319 Y52.072 E96.16913
G1 X43.319 Y52.794 E96.19977
G1 X54.3 Y63.775 E96.85888
G1 X53.578 Y63.775 E96.88952
G1 X43.319 Y53.516 E97.50529
G1 X43.319 Y54.238 E97.53593
G1 X52.856 Y63.775 E98.10837
G1 X52.134 Y63.775 E98.13901
G1 X43.319 Y54.959 E98.66814
G1 X43.319 Y55.681 E98.69878
G1 X51.412 Y63.775 E99.18458
G1 X50.69 Y63.775 E99.21522
G1 X43.319 Y56.403 E99.65768
G1 X43.319 Y57.125 E99.68832
G1 X49.969 Y63.775 E100.08747
G1 X49.247 Y63.775 E100.11811
G1 X43.319 Y57.847 E100.47393
G1 X43.319 Y58.569 E100.50457
G1 X48.525 Y63.775 E100.81705
G1 X47.803 Y63.775 E100.84769
G1 X43.319 Y59.291 E101.11683
G1 X43.319 Y60.012 E101.14743
G1 X47.081 Y63.775 E101.37327
G1 X46.359 Y63.775 E101.40391
G1 X43.319 Y60.734 E101.58641
G1 X43.319 Y61.456 E101.61705
G1 X45.637 Y63.775 E101.75621
G1 X44.916 Y63.775 E101.78681
G1 X43.319 Y62.178 E101.88267
G1 X43.319 Y62.9 E101.91331
G1 X44.422 Y64.003 E101.97952
M106 S255
;LAYER_CHANGE
;Z:0.4
;HEIGHT:0.2
;BEFORE_LAYER_CHANGE
;0.4


G1 Z.4 F18000
;AFTER_LAYER_CHANGE
;0.4
G1 X44.422 Y64.355
;TYPE:External perimeter
;WIDTH:0.549999
G1 F1799.991
G1 X43.689 Y64.355 E102.01043
G1 X43.41 Y64.318 E102.0223
G1 F1824.701
G1 X43.106 Y64.21 E102.0359
G1 F1817.058
G1 X42.835 Y63.898 E102.05332
G1 F1800.001
G1 X42.739 Y63.505 E102.07038
G1 X42.739 Y62.755 E102.102
G1 F1799.991
G1 X42.739 Y30.453 E103.46397
G1 X42.739 Y29.703 E103.49559
G1 X42.776 Y29.425 E103.50741
G1 F1824.701
G1 X42.884 Y29.12 E103.52105
G1 F1817.055
G1 X43.196 Y28.85 E103.53845
G1 F1800.039
G1 X43.588 Y28.753 E103.55548
G1 X44.338 Y28.753 E103.5871
G1 F1801.467
G1 X76.671 Y28.76 E104.95038
G1 F1863.012
G1 X77.414 Y28.76 E104.98171
G1 F1814.542
G1 X77.759 Y28.793 E104.99632
G1 F1804.947
G1 X78.116 Y29.021 E105.01418
G1 X78.284 Y29.293 E105.02766
G1 F1799.991
G1 X78.341 Y29.686 E105.0444
G1 X78.341 Y30.436 E105.07602
G1 X78.341 Y62.655 E106.4345
G1 X78.341 Y63.405 E106.46612
G1 X78.303 Y63.683 E106.47795
G1 F1824.701
G1 X78.195 Y63.988 E106.49159
G1 F1817.058
G1 X77.884 Y64.259 E106.50898
G1 F1800.001
G1 X77.491 Y64.355 E106.52604
G1 X76.741 Y64.355 E106.55766
G1 X45.232 Y64.355 E107.8862
G1 X44.482 Y64.355 E107.91782
;WIPE_START
G1 F14400
G1 X43.689 Y64.355 E107.77657
G1 X43.41 Y64.318 E107.72644
G1 X43.106 Y64.21 E107.66897
G1 X42.835 Y63.898 E107.59536
G1 X42.739 Y63.505 E107.5233
G1 X42.739 Y62.913 E107.41782
;WIPE_END
G92 E0
G1 Z.6 F18000
G1 X77.441 Y64.203
G1 Z.4
G1 E.5 F2700
;TYPE:Top solid infill
;WIDTH:0.551889
G1 F9000
G1 X77.908 Y63.718 E.52849
G1 X77.96 Y63.463 E.5395
G1 X77.96 Y62.963 E.56066
G1 X76.949 Y63.975 E.6212
G1 X76.229 Y63.975 E.65167
G1 X77.96 Y62.244 E.75527
G1 X77.96 Y61.524 E.78574
G1 X75.509 Y63.975 E.93243
G1 X74.79 Y63.975 E.96286
G1 X77.96 Y60.804 E1.15262
G1 X77.96 Y60.084 E1.18309
G1 X74.07 Y63.975 E1.41594
G1 X73.35 Y63.975 E1.44641
G1 X77.96 Y59.365 E1.72232
G1 X77.96 Y58.645 E1.75279
G1 X72.63 Y63.975 E2.0718
G1 X71.91 Y63.975 E2.10227
G1 X77.96 Y57.925 E2.46437
G1 X77.96 Y57.205 E2.49484
G1 X71.191 Y63.975 E2.9
G1 X70.471 Y63.975 E2.93047
G1 X77.96 Y56.485 E3.37872
G1 X77.96 Y55.766 E3.40915
G1 X69.751 Y63.975 E3.90047
G1 X69.031 Y63.975 E3.93094
G1 X77.96 Y55.046 E4.46535
G1 X77.96 Y54.326 E4.49582
G1 X68.311 Y63.975 E5.07332
G1 X67.592 Y63.975 E5.10375
G1 X77.96 Y53.606 E5.72431
G1 X77.96 Y52.886 E5.75478
G1 X66.872 Y63.975 E6.41844
G1 X66.152 Y63.975 E6.44891
G1 X77.96 Y52.167 E7.15563
G1 X77.96 Y51.447 E7.1861
G1 X65.432 Y63.975 E7.93591
G1 X64.713 Y63.975 E7.96634
G1 X77.96 Y50.727 E8.75921
G1 X77.96 Y50.007 E8.78968
G1 X63.993 Y63.975 E9.62565
G1 X63.273 Y63.975 E9.65612
G1 X77.96 Y49.287 E10.53518
G1 X77.96 Y48.568 E10.56561
G1 X62.553 Y63.975 E11.48773
G1 X61.833 Y63.975 E11.5182
G1 X77.96 Y47.848 E12.48341
G1 X77.96 Y47.128 E12.51388
G1 X61.114 Y63.975 E13.52216
G1 X60.394 Y63.975 E13.55263
G1 X77.96 Y46.408 E14.604
G1 X77.96 Y45.689 E14.63443
G1 X59.674 Y63.975 E15.72886
G1 X58.954 Y63.975 E15.75933
G1 X77.96 Y44.969 E16.89686
G1 X77.96 Y44.249 E16.92733
G1 X58.234 Y63.975 E18.10795
G1 X57.515 Y63.975 E18.13838
G1 X77.96 Y43.529 E19.36206
G1 X77.96 Y42.809 E19.39253
G1 X56.795 Y63.975 E20.6593
G1 X56.075 Y63.975 E20.68977
G1 X77.96 Y42.09 E21.99961
G1 X77.96 Y41.37 E22.03008
G1 X55.355 Y63.975 E23.38301
G1 X54.635 Y63.975 E23.41348
G1 X77.96 Y40.65 E24.8095
G1 X77.96 Y39.93 E24.83997
G1 X53.916 Y63.975 E26.27905
G1 X53.196 Y63.975 E26.30952
G1 X77.96 Y39.21 E27.7917
G1 X77.96 Y38.491 E27.82213
G1 X52.476 Y63.975 E29.34737
G1 X51.756 Y63.975 E29.37784
G1 X77.96 Y37.771 E30.94617
G1 X77.96 Y37.051 E30.97664
G1 X51.036 Y63.975 E32.58806
G1 X50.317 Y63.975 E32.61849
G1 X77.96 Y36.331 E34.27298
G1 X77.96 Y35.611 E34.30345
G1 X49.597 Y63.975 E36.00103
G1 X48.877 Y63.975 E36.0315
G1 X77.96 Y34.892 E37.77214
G1 X77.96 Y34.172 E37.80261
G1 X48.157 Y63.975 E39.58635
G1 X47.438 Y63.975 E39.61678
G1 X77.96 Y33.452 E41.44358
G1 X77.96 Y32.732 E41.47405
G1 X46.718 Y63.975 E43.34394
G1 X45.998 Y63.975 E43.37441
G1 X77.96 Y32.012 E45.28739
G1 X77.96 Y31.293 E45.31782
G1 X45.278 Y63.975 E47.27387
G1 X44.558 Y63.975 E47.30434
G1 X77.96 Y30.573 E49.30348
G1 X77.96 Y29.853 E49.33395
G1 X43.839 Y63.975 E51.37615
G1 X43.631 Y63.975 E51.38495
G1 X43.376 Y63.923 E51.39596
G1 X43.266 Y63.828 E51.40211
G1 X77.821 Y29.273 E53.47026
G1 X77.644 Y29.158 E53.47919
G1 X77.545 Y29.14 E53.48345
G1 X77.234 Y29.14 E53.49661
G1 X43.119 Y63.255 E55.53842
G1 X43.119 Y62.535 E55.56889
G1 X76.514 Y29.14 E57.56761
G1 X75.794 Y29.14 E57.59808
G1 X43.119 Y61.815 E59.55371
G1 X43.119 Y61.096 E59.58414
G1 X75.075 Y29.14 E61.49673
G1 X74.355 Y29.139 E61.5272
G1 X43.119 Y60.376 E63.39673
G1 X43.119 Y59.656 E63.4272
G1 X73.635 Y29.139 E65.25364
G1 X72.916 Y29.139 E65.28407
G1 X43.119 Y58.936 E67.06745
G1 X43.119 Y58.216 E67.09792
G1 X72.196 Y29.139 E68.8382
G1 X71.477 Y29.139 E68.86863
G1 X43.119 Y57.497 E70.56588
G1 X43.119 Y56.777 E70.59635
G1 X70.757 Y29.139 E72.25051
G1 X70.037 Y29.139 E72.28098
G1 X43.119 Y56.057 E73.89205
G1 X43.119 Y55.337 E73.92252
G1 X69.318 Y29.138 E75.49055
G1 X68.598 Y29.138 E75.52102
G1 X43.119 Y54.617 E77.04596
