; generated by PrusaSlicer 2.6.0-alpha5+win64 on 2023-03-16 at 13:35:54 UTC

; 

; external perimeters extrusion width = 0.55mm
; perimeters extrusion width = 0.55mm
; infill extrusion width = 0.55mm
; solid infill extrusion width = 0.55mm
; top infill extrusion width = 0.55mm
; first layer extrusion width = 0.55mm

; external perimeters extrusion width = 0.55mm
; perimeters extrusion width = 0.55mm
; infill extrusion width = 0.55mm
; solid infill extrusion width = 0.55mm
; top infill extrusion width = 0.55mm
; first layer extrusion width = 0.55mm

; external perimeters extrusion width = 0.55mm
; perimeters extrusion width = 0.55mm
; infill extrusion width = 0.55mm
; solid infill extrusion width = 0.55mm
; top infill extrusion width = 0.55mm
; first layer extrusion width = 0.55mm

M107
M190 S60 ; set bed temperature and wait for it to be reached
M104 S215 ; set temperature
;TYPE:Custom
SET_GCODE_VARIABLE MACRO=START_PRINT VARIABLE=bed_temp VALUE=60
SET_GCODE_VARIABLE MACRO=START_PRINT VARIABLE=extruder_temp VALUE=215
START_PRINT
M109 S215 ; set temperature and wait for it to be reached
G21 ; set units to millimeters
G90 ; use absolute coordinates
M82 ; use absolute distances for extrusion
G92 E0
; Filament gcode
M107
;LAYER_CHANGE
;Z:0.2
;HEIGHT:0.2
;BEFORE_LAYER_CHANGE
;0.2


G1 Z.2 F18000
;AFTER_LAYER_CHANGE
;0.2
G1 E-.5 F2700
G92 E0
G1 Z.4 F18000
G1 X34.009 Y25.284
G1 Z.2
G1 E.5 F2700
;TYPE:Skirt/Brim
;WIDTH:0.55
G1 F3600
G1 X34.823 Y24.431 E.54971
G1 X35.568 Y23.865 E.58916
G1 X36.58 Y23.31 E.63783
G1 X37.533 Y22.973 E.68045
G1 X38.75 Y22.749 E.73263
G1 X73.771 Y22.733 E2.20925
G1 X74.973 Y22.917 E2.26052
G1 X75.874 Y23.205 E2.3004
G1 X76.855 Y23.687 E2.34649
G1 X184.855 Y87.058 E7.62622
G1 X186.09 Y87.997 E7.69163
G1 X187.079 Y89.166 E7.75619
G1 X187.651 Y90.204 E7.80616
G1 X188.084 Y91.576 E7.86682
G1 X188.245 Y93.002 E7.92733
G1 X188.245 Y126.952 E9.35879
G1 X188.051 Y128.567 E9.42737
G1 X187.496 Y130.063 E9.49465
G1 X186.72 Y131.277 E9.5554
G1 X185.886 Y132.153 E9.6064
G1 X184.671 Y133 E9.66885
G1 X74.309 Y193.037 E14.96611
G1 X72.937 Y193.47 E15.02677
G1 X71.511 Y193.63 E15.08727
G1 X37.561 Y193.63 E16.51873
G1 X35.946 Y193.437 E16.58731
G1 X35.015 Y193.141 E16.6285
G1 X33.958 Y192.614 E16.6783
G1 X33.212 Y192.086 E16.71684
G1 X32.36 Y191.272 E16.76652
G1 X31.794 Y190.527 E16.80597
G1 X31.238 Y189.515 E16.85466
G1 X30.805 Y188.142 E16.91536
G1 X30.645 Y186.716 E16.97586
G1 X30.645 Y152.677 E18.41108
G1 X32.465 Y29.544 E23.60341
G1 X32.658 Y28.018 E23.66826
G1 X32.953 Y27.087 E23.70944
G1 X33.48 Y26.029 E23.75928
G1 X33.974 Y25.333 E23.79527
G1 X34.387 Y25.625 F18000
G1 F3600
G1 X35.16 Y24.81 E23.84263
G1 X35.844 Y24.291 E23.87883
G1 X36.789 Y23.772 E23.92429
G1 X37.664 Y23.463 E23.96342
G1 X38.799 Y23.254 E24.01208
G1 X73.733 Y23.238 E25.48503
G1 X74.856 Y23.411 E25.53294
G1 X75.684 Y23.676 E25.5696
G1 X76.598 Y24.124 E25.61252
G1 X184.598 Y87.496 E30.89227
G1 X185.746 Y88.371 E30.95313
G1 X186.653 Y89.442 E31.01231
G1 X187.189 Y90.412 E31.05904
G1 X187.586 Y91.672 E31.11474
G1 X187.737 Y93.002 E31.17118
G1 X187.737 Y126.952 E32.60264
G1 X187.557 Y128.451 E32.6663
G1 X187.04 Y129.842 E32.72887
G1 X186.328 Y130.955 E32.78458
G1 X185.549 Y131.774 E32.83224
G1 X184.419 Y132.56 E32.89028
G1 X74.101 Y192.575 E38.18547
G1 X72.842 Y192.972 E38.24113
G1 X71.511 Y193.123 E38.29761
G1 X37.561 Y193.123 E39.72907
G1 X36.063 Y192.943 E39.79269
G1 X35.205 Y192.671 E39.83064
G1 X34.219 Y192.179 E39.8771
G1 X33.534 Y191.694 E39.91249
G1 X32.739 Y190.935 E39.95883
G1 X32.219 Y190.25 E39.99509
G1 X31.701 Y189.306 E40.04049
G1 X31.303 Y188.047 E40.09616
G1 X31.152 Y186.716 E40.15264
G1 X31.152 Y152.685 E41.58752
G1 X32.972 Y29.551 E46.77989
G1 X33.151 Y28.134 E46.84011
G1 X33.424 Y27.277 E46.87803
G1 X33.915 Y26.29 E46.92451
G1 X34.352 Y25.674 E46.95635
;WIPE_START
G1 F14400
G1 X35.16 Y24.81 E46.74564
G1 X35.844 Y24.291 E46.5927
G1 X36.515 Y23.923 E46.45635
;WIPE_END
G92 E0
G1 Z.4 F18000
G1 X38.918 Y29.223
G1 Z.2
G1 E.5 F2700
;TYPE:External perimeter
;WIDTH:0.549999
G1 F3600
G1 X39.154 Y29.052 E.51229
G1 X39.404 Y29.005 E.52302
G1 X73.241 Y29.008 E1.94972
G1 X73.535 Y29.046 E1.96222
G1 X73.738 Y29.17 E1.97225
G1 X73.908 Y29.406 E1.98451
G1 X73.955 Y29.723 E1.99802
G1 X73.955 Y63.49 E3.42176
G1 X73.914 Y63.788 E3.43444
G1 X73.791 Y63.99 E3.44441
G1 X73.555 Y64.161 E3.4567
G1 X73.305 Y64.207 E3.46742
G1 X39.471 Y64.207 E4.89399
G1 X39.172 Y64.166 E4.90671
G1 X38.971 Y64.043 E4.91665
G1 X38.8 Y63.807 E4.92894
G1 X38.753 Y63.557 E4.93967
G1 X38.753 Y29.723 E6.36624
G1 X38.794 Y29.424 E6.37896
G1 X38.886 Y29.274 E6.38638
;WIPE_START
G1 F14400
G1 X39.154 Y29.052 E6.32439
G1 X39.404 Y29.005 E6.27908
G1 X41.609 Y29.005 E5.88638
;WIPE_END
G92 E0
G1 Z.4 F18000
G1 X73.803 Y30.489
G1 Z.2
G1 E.5 F2700
;TYPE:Solid infill
;WIDTH:0.553352
G1 F3600
G1 X72.702 Y29.388 E.56609
G1 X71.98 Y29.388 E.59673
G1 X73.575 Y30.983 E.69247
G1 X73.575 Y31.704 E.72307
G1 X71.259 Y29.388 E.86208
G1 X70.537 Y29.388 E.89272
G1 X73.575 Y32.426 E1.07507
G1 X73.575 Y33.148 E1.10571
G1 X69.815 Y29.388 E1.3314
G1 X69.093 Y29.388 E1.36204
G1 X73.575 Y33.87 E1.63106
G1 X73.575 Y34.592 E1.6617
G1 X68.371 Y29.388 E1.97406
G1 X67.649 Y29.388 E2.0047
G1 X73.575 Y35.314 E2.3604
G1 X73.575 Y36.036 E2.39104
G1 X66.927 Y29.388 E2.79007
G1 X66.205 Y29.388 E2.82071
G1 X73.575 Y36.757 E3.26305
G1 X73.575 Y37.479 E3.29369
G1 X65.483 Y29.388 E3.77937
G1 X64.761 Y29.387 E3.81001
G1 X73.575 Y38.201 E4.33905
G1 X73.575 Y38.923 E4.36969
G1 X64.039 Y29.387 E4.94207
G1 X63.318 Y29.387 E4.97267
G1 X73.575 Y39.645 E5.58835
G1 X73.575 Y40.367 E5.61899
G1 X62.596 Y29.387 E6.27801
G1 X61.874 Y29.387 E6.30865
G1 X73.575 Y41.089 E7.01101
G1 X73.575 Y41.81 E7.04161
G1 X61.152 Y29.387 E7.78727
G1 X60.43 Y29.387 E7.81791
G1 X73.575 Y42.532 E8.60691
G1 X73.575 Y43.254 E8.63755
G1 X59.708 Y29.387 E9.46989
G1 X58.986 Y29.387 E9.50053
G1 X73.575 Y43.976 E10.3762
G1 X73.575 Y44.698 E10.40684
G1 X58.264 Y29.387 E11.32585
G1 X57.542 Y29.387 E11.35649
G1 X73.575 Y45.42 E12.31884
G1 X73.575 Y46.142 E12.34948
G1 X56.82 Y29.387 E13.35516
G1 X56.098 Y29.387 E13.3858
G1 X73.575 Y46.863 E14.43479
G1 X73.575 Y47.585 E14.46543
G1 X55.377 Y29.387 E15.55773
G1 X54.655 Y29.387 E15.58837
G1 X73.575 Y48.307 E16.724
G1 X73.575 Y49.029 E16.75464
G1 X53.933 Y29.387 E17.93361
G1 X53.211 Y29.387 E17.96425
G1 X73.575 Y49.751 E19.18656
G1 X73.575 Y50.473 E19.2172
G1 X52.489 Y29.387 E20.48284
G1 X51.767 Y29.387 E20.51348
G1 X73.575 Y51.195 E21.82246
G1 X73.575 Y51.916 E21.85306
G1 X51.045 Y29.387 E23.20535
G1 X50.323 Y29.386 E23.23599
G1 X73.575 Y52.638 E24.63164
G1 X73.575 Y53.36 E24.66228
G1 X49.601 Y29.386 E26.10127
G1 X48.879 Y29.386 E26.13191
G1 X73.575 Y54.082 E27.61424
G1 X73.575 Y54.804 E27.64488
G1 X48.157 Y29.386 E29.17054
G1 X47.436 Y29.386 E29.20114
G1 X73.575 Y55.526 E30.77011
G1 X73.575 Y56.248 E30.80075
G1 X46.714 Y29.386 E32.41305
G1 X45.992 Y29.386 E32.44369
G1 X73.575 Y56.97 E34.09933
G1 X73.575 Y57.691 E34.12993
G1 X45.27 Y29.386 E35.82888
G1 X44.548 Y29.386 E35.85952
G1 X73.575 Y58.413 E37.6018
G1 X73.575 Y59.135 E37.63244
G1 X43.826 Y29.386 E39.41806
G1 X43.104 Y29.386 E39.4487
G1 X73.575 Y59.857 E41.27766
G1 X73.575 Y60.579 E41.3083
G1 X42.382 Y29.386 E43.18059
G1 X41.66 Y29.386 E43.21123
G1 X73.575 Y61.301 E45.12686
G1 X73.575 Y62.023 E45.1575
G1 X40.938 Y29.386 E47.11647
G1 X40.217 Y29.386 E47.14707
G1 X73.575 Y62.744 E49.14931
G1 X73.575 Y63.466 E49.17995
G1 X39.495 Y29.386 E51.22553
G1 X39.289 Y29.415 E51.23436
G1 X39.227 Y29.451 E51.2374
G1 X39.158 Y29.554 E51.24266
G1 X39.134 Y29.747 E51.25091
G1 X73.214 Y63.827 E53.29649
G1 X72.492 Y63.827 E53.32713
G1 X39.134 Y30.469 E55.32937
G1 X39.134 Y31.19 E55.35997
G1 X71.77 Y63.827 E57.31891
G1 X71.049 Y63.827 E57.34951
G1 X39.134 Y31.912 E59.26514
G1 X39.134 Y32.634 E59.29578
G1 X70.327 Y63.827 E61.16807
G1 X69.605 Y63.827 E61.19871
G1 X39.134 Y33.356 E63.02767
G1 X39.134 Y34.078 E63.05831
G1 X68.883 Y63.827 E64.84393
G1 X68.161 Y63.827 E64.87457
G1 X39.134 Y34.8 E66.61685
G1 X39.134 Y35.522 E66.64749
G1 X67.439 Y63.827 E68.34644
G1 X66.717 Y63.827 E68.37708
G1 X39.134 Y36.243 E70.03272
G1 X39.134 Y36.965 E70.06336
G1 X65.996 Y63.827 E71.67569
G1 X65.274 Y63.827 E71.70633
G1 X39.134 Y37.687 E73.27533
G1 X39.134 Y38.409 E73.30597
G1 X64.552 Y63.827 E74.83163
G1 X63.83 Y63.827 E74.86227
G1 X39.134 Y39.131 E76.3446
G1 X39.134 Y39.853 E76.37524
G1 X63.108 Y63.827 E77.81423
G1 X62.386 Y63.827 E77.84487
G1 X39.134 Y40.575 E79.24052
G1 X39.134 Y41.296 E79.27112
G1 X61.664 Y63.827 E80.62347
G1 X60.942 Y63.827 E80.65411
G1 X39.134 Y42.018 E81.96312
G1 X39.134 Y42.74 E81.99376
G1 X60.221 Y63.827 E83.25946
G1 X59.499 Y63.827 E83.2901
G1 X39.134 Y43.462 E84.51247
G1 X39.134 Y44.184 E84.54311
G1 X58.777 Y63.827 E85.72214
G1 X58.055 Y63.827 E85.75278
G1 X39.134 Y44.906 E86.88847
G1 X39.134 Y45.628 E86.91911
G1 X57.333 Y63.827 E88.01147
G1 X56.611 Y63.827 E88.04211
G1 X39.134 Y46.349 E89.09116
G1 X39.134 Y47.071 E89.1218
G1 X55.889 Y63.827 E90.12751
G1 X55.168 Y63.827 E90.15811
G1 X39.134 Y47.793 E91.12052
G1 X39.134 Y48.515 E91.15116
G1 X54.446 Y63.827 E92.07023
G1 X53.724 Y63.827 E92.10087
G1 X39.134 Y49.237 E92.9766
G1 X39.134 Y49.959 E93.00724
G1 X53.002 Y63.827 E93.83964
G1 X52.28 Y63.827 E93.87028
G1 X39.134 Y50.681 E94.65934
G1 X39.134 Y51.403 E94.68998
G1 X51.558 Y63.827 E95.4357
G1 X50.836 Y63.827 E95.46634
G1 X39.134 Y52.124 E96.16876
G1 X39.134 Y52.846 E96.1994
G1 X50.115 Y63.827 E96.85851
G1 X49.393 Y63.827 E96.88915
G1 X39.134 Y53.568 E97.50492
G1 X39.134 Y54.29 E97.53556
G1 X48.671 Y63.827 E98.108
G1 X47.949 Y63.827 E98.13864
G1 X39.134 Y55.012 E98.66774
G1 X39.134 Y55.734 E98.69838
G1 X47.227 Y63.827 E99.18415
G1 X46.505 Y63.827 E99.21479
G1 X39.134 Y56.456 E99.65722
G1 X39.134 Y57.177 E99.68782
G1 X45.783 Y63.827 E100.08694
G1 X45.062 Y63.827 E100.11754
G1 X39.134 Y57.899 E100.47336
G1 X39.134 Y58.621 E100.504
G1 X44.34 Y63.827 E100.81648
G1 X43.618 Y63.827 E100.84712
G1 X39.134 Y59.343 E101.11626
G1 X39.134 Y60.065 E101.1469
G1 X42.896 Y63.827 E101.37271
G1 X42.174 Y63.827 E101.40335
G1 X39.134 Y60.787 E101.58582
G1 X39.134 Y61.509 E101.61646
G1 X41.452 Y63.827 E101.75559
G1 X40.73 Y63.827 E101.78623
G1 X39.134 Y62.23 E101.88206
G1 X39.134 Y62.952 E101.9127
G1 X40.237 Y64.055 E101.97891
M106 S255
;LAYER_CHANGE
;Z:0.4
;HEIGHT:0.2
;BEFORE_LAYER_CHANGE
;0.4


G1 Z.4 F18000
;AFTER_LAYER_CHANGE
;0.4
G1 X40.237 Y64.407
;TYPE:External perimeter
;WIDTH:0.549999
G1 F1799.991
G1 X39.503 Y64.407 E102.00986
G1 X39.225 Y64.37 E102.02168
G1 F1824.701
G1 X38.921 Y64.262 E102.03528
G1 F1817.058
G1 X38.65 Y63.95 E102.0527
G1 F1800.001
G1 X38.553 Y63.558 E102.06973
G1 X38.553 Y62.808 E102.10135
G1 F1799.991
G1 X38.553 Y30.506 E103.46332
G1 X38.553 Y29.756 E103.49494
G1 X38.591 Y29.477 E103.50681
G1 F1824.701
G1 X38.698 Y29.173 E103.5204
G1 F1817.055
G1 X39.01 Y28.902 E103.53782
G1 F1800.039
G1 X39.403 Y28.805 E103.55489
G1 X40.153 Y28.806 E103.58651
G1 F1801.467
G1 X72.486 Y28.812 E104.94979
G1 F1863.012
G1 X73.229 Y28.812 E104.98112
G1 F1814.542
G1 X73.574 Y28.845 E104.99573
G1 F1804.947
G1 X73.931 Y29.074 E105.01361
G1 X74.099 Y29.345 E105.02705
G1 F1799.991
G1 X74.155 Y29.739 E105.04383
G1 X74.155 Y30.489 E105.07545
G1 X74.155 Y62.707 E106.43388
G1 X74.155 Y63.457 E106.4655
G1 X74.118 Y63.736 E106.47737
G1 F1824.701
G1 X74.01 Y64.04 E106.49097
G1 F1817.058
G1 X73.698 Y64.311 E106.50839
G1 F1800.001
G1 X73.306 Y64.407 E106.52541
G1 X72.556 Y64.407 E106.55703
G1 X41.047 Y64.407 E107.88557
G1 X40.297 Y64.407 E107.91719
;WIPE_START
G1 F14400
G1 X39.503 Y64.407 E107.77576
G1 X39.225 Y64.37 E107.7258
G1 X38.921 Y64.262 E107.66833
G1 X38.65 Y63.95 E107.59472
G1 X38.553 Y63.558 E107.52279
G1 X38.553 Y62.965 E107.41719
;WIPE_END
G92 E0
G1 Z.6 F18000
G1 X73.255 Y64.255
G1 Z.4
G1 E.5 F2700
;TYPE:Top solid infill
;WIDTH:0.551889
G1 F9000
G1 X73.723 Y63.77 E.52852
G1 X73.775 Y63.515 E.53953
G1 X73.775 Y63.016 E.56065
G1 X72.764 Y64.027 E.62116
G1 X72.044 Y64.027 E.65163
G1 X73.775 Y62.296 E.75523
G1 X73.775 Y61.576 E.7857
G1 X71.324 Y64.027 E.93239
G1 X70.604 Y64.027 E.96286
G1 X73.775 Y60.857 E1.15262
G1 X73.775 Y60.137 E1.18309
G1 X69.885 Y64.027 E1.41591
G1 X69.165 Y64.027 E1.44638
G1 X73.775 Y59.417 E1.72229
G1 X73.775 Y58.697 E1.75276
G1 X68.445 Y64.027 E2.07177
G1 X67.725 Y64.027 E2.10224
G1 X73.775 Y57.977 E2.46434
G1 X73.775 Y57.258 E2.49477
G1 X67.005 Y64.027 E2.89993
G1 X66.286 Y64.027 E2.93036
G1 X73.775 Y56.538 E3.37858
G1 X73.775 Y55.818 E3.40905
G1 X65.566 Y64.027 E3.90037
G1 X64.846 Y64.027 E3.93084
G1 X73.775 Y55.098 E4.46525
G1 X73.775 Y54.378 E4.49572
G1 X64.126 Y64.027 E5.07322
G1 X63.407 Y64.027 E5.10365
G1 X73.775 Y53.659 E5.72418
G1 X73.775 Y52.939 E5.75465
G1 X62.687 Y64.027 E6.41828
G1 X61.967 Y64.027 E6.44875
G1 X73.775 Y52.219 E7.15547
G1 X73.775 Y51.499 E7.18594
G1 X61.247 Y64.027 E7.93575
G1 X60.527 Y64.027 E7.96622
G1 X73.775 Y50.779 E8.75912
G1 X73.775 Y50.06 E8.78955
G1 X59.808 Y64.027 E9.62549
G1 X59.088 Y64.027 E9.65596
G1 X73.775 Y49.34 E10.53499
G1 X73.775 Y48.62 E10.56546
G1 X58.368 Y64.027 E11.48758
G1 X57.648 Y64.027 E11.51805
G1 X73.775 Y47.9 E12.48326
G1 X73.775 Y47.181 E12.51369
G1 X56.928 Y64.027 E13.52197
G1 X56.209 Y64.027 E13.5524
G1 X73.775 Y46.461 E14.60374
G1 X73.775 Y45.741 E14.63421
G1 X55.489 Y64.027 E15.72864
G1 X54.769 Y64.027 E15.75911
G1 X73.775 Y45.021 E16.89664
G1 X73.775 Y44.301 E16.92711
G1 X54.049 Y64.027 E18.10773
G1 X53.329 Y64.027 E18.1382
G1 X73.775 Y43.582 E19.36188
G1 X73.775 Y42.862 E19.39235
G1 X52.61 Y64.027 E20.65909
G1 X51.89 Y64.027 E20.68956
G1 X73.775 Y42.142 E21.9994
G1 X73.775 Y41.422 E22.02987
G1 X51.17 Y64.027 E23.3828
G1 X50.45 Y64.027 E23.41327
G1 X73.775 Y40.702 E24.80929
G1 X73.775 Y39.983 E24.83972
G1 X49.731 Y64.027 E26.27877
G1 X49.011 Y64.027 E26.30924
G1 X73.775 Y39.263 E27.79139
G1 X73.775 Y38.543 E27.82186
G1 X48.291 Y64.027 E29.3471
G1 X47.571 Y64.027 E29.37757
G1 X73.775 Y37.823 E30.9459
G1 X73.775 Y37.103 E30.97637
G1 X46.851 Y64.027 E32.58779
G1 X46.132 Y64.027 E32.61822
G1 X73.775 Y36.384 E34.27268
G1 X73.775 Y35.664 E34.30315
G1 X45.412 Y64.027 E36.0007
G1 X44.692 Y64.027 E36.03117
G1 X73.775 Y34.944 E37.77181
G1 X73.775 Y34.224 E37.80228
G1 X43.972 Y64.027 E39.58602
G1 X43.252 Y64.027 E39.61649
G1 X73.775 Y33.504 E41.44332
G1 X73.775 Y32.785 E41.47375
G1 X42.533 Y64.027 E43.34361
G1 X41.813 Y64.027 E43.37408
G1 X73.775 Y32.065 E45.28703
G1 X73.775 Y31.345 E45.3175
G1 X41.093 Y64.027 E47.27355
G1 X40.373 Y64.027 E47.30402
G1 X73.775 Y30.625 E49.30316
G1 X73.775 Y29.906 E49.33359
G1 X39.653 Y64.027 E51.37579
G1 X39.446 Y64.027 E51.38455
G1 X39.191 Y63.975 E51.39556
G1 X39.081 Y63.88 E51.40171
G1 X73.635 Y29.325 E53.46983
G1 X73.459 Y29.211 E53.4787
G1 X73.36 Y29.193 E53.48296
G1 X73.049 Y29.192 E53.49612
G1 X38.934 Y63.307 E55.53793
G1 X38.934 Y62.588 E55.56836
G1 X72.329 Y29.192 E57.56711
G1 X71.609 Y29.192 E57.59758
G1 X38.934 Y61.868 E59.55324
G1 X38.934 Y61.148 E59.58371
G1 X70.89 Y29.192 E61.4963
G1 X70.17 Y29.192 E61.52677
G1 X38.934 Y60.428 E63.39627
G1 X38.934 Y59.708 E63.42674
G1 X69.45 Y29.192 E65.25315
G1 X68.731 Y29.192 E65.28358
G1 X38.934 Y58.989 E67.06696
G1 X38.934 Y58.269 E67.09743
G1 X68.011 Y29.191 E68.83774
G1 X67.291 Y29.191 E68.86821
G1 X38.934 Y57.549 E70.56543
G1 X38.934 Y56.829 E70.5959
G1 X66.572 Y29.191 E72.25006
G1 X65.852 Y29.191 E72.28053
G1 X38.934 Y56.109 E73.8916
G1 X38.934 Y55.39 E73.92203
G1 X65.132 Y29.191 E75.49003
G1 X64.413 Y29.191 E75.52046
G1 X38.934 Y54.67 E77.0454
G1 X38.934 Y53.95 E77.07587
G1 X63.693 Y29.191 E78.55772
G1 X62.973 Y29.19 E78.58819
G1 X38.934 Y53.23 E80.02697
G1 X38.934 Y52.51 E80.05744
G1 X62.254 Y29.19 E81.45316
G1 X61.534 Y29.19 E81.48363
G1 X38.934 Y51.791 E82.83629
G1 X38.934 Y51.071 E82.86676
G1 X60.815 Y29.19 E84.17636
G1 X60.095 Y29.19 E84.20683
G1 X38.934 Y50.351 E85.47333
G1 X38.934 Y49.631 E85.5038
G1 X59.375 Y29.19 E86.72721
G1 X58.656 Y29.19 E86.75764
G1 X38.934 Y48.912 E87.93802
G1 X38.934 Y48.192 E87.96849
G1 X57.936 Y29.189 E89.10581
G1 X57.216 Y29.189 E89.13628
