; generated by PrusaSlicer 2.6.0-alpha5+win64 on 2023-03-20 at 16:09:04 UTC

; 

; external perimeters extrusion width = 0.80mm
; perimeters extrusion width = 0.80mm
; infill extrusion width = 0.40mm
; solid infill extrusion width = 0.80mm
; top infill extrusion width = 0.80mm
; support material extrusion width = 0.80mm

; external perimeters extrusion width = 0.80mm
; perimeters extrusion width = 0.80mm
; infill extrusion width = 0.40mm
; solid infill extrusion width = 0.80mm
; top infill extrusion width = 0.80mm
; support material extrusion width = 0.80mm

M107
M190 S60 ; set bed temperature and wait for it to be reached
M104 S215 ; set temperature
;TYPE:Custom
SET_GCODE_VARIABLE MACRO=START_PRINT VARIABLE=bed_temp VALUE=60
SET_GCODE_VARIABLE MACRO=START_PRINT VARIABLE=extruder_temp VALUE=215
START_PRINT
M109 S215 ; set temperature and wait for it to be reached
G21 ; set units to millimeters
G90 ; use absolute coordinates
M82 ; use absolute distances for extrusion
G92 E0
; Filament gcode
M107
;LAYER_CHANGE
;Z:0.2
;HEIGHT:0.2
;BEFORE_LAYER_CHANGE
;0.2


G1 Z.2 F18000
;AFTER_LAYER_CHANGE
;0.2
G1 E-.7 F2700
G92 E0
G1 X36.249 Y21.061 F18000
G1 E.7 F2700
;TYPE:Skirt/Brim
;WIDTH:0.8
G1 F1800
G1 X36.27 Y21.024 E.70268
G1 X38.019 Y19.571 E.84582
G1 X41.245 Y18.716 E1.05591
G1 X75.52 Y18.716 E3.21357
G1 X77.759 Y19.112 E3.35671
G1 X79.735 Y20.262 E3.50063
G1 X195.586 Y118.549 E13.06465
G1 X196.196 Y119.125 E13.11746
G1 X196.865 Y119.941 E13.18389
G1 X197.514 Y121.043 E13.2644
G1 X203.957 Y134.484 E14.20272
G1 X204.536 Y136.277 E14.32133
G1 X204.714 Y137.459 E14.39658
G1 X204.75 Y138.449 E14.45894
G1 X204.634 Y139.777 E14.54286
G1 X198.167 Y179.444 E17.07292
G1 X197.415 Y181.59 E17.21607
G1 X195.971 Y183.347 E17.35924
G1 X194.011 Y184.501 E17.50242
G1 X191.737 Y184.91 E17.64787
G1 X134.737 Y184.91 E21.2361
G1 X132.498 Y184.513 E21.37925
G1 X130.15 Y183.022 E21.55434
G1 X36.778 Y90.428 E29.83239
G1 X36.082 Y89.621 E29.89948
G1 X35.696 Y89.035 E29.94365
G1 X35.139 Y87.845 E30.02636
G1 X34.837 Y86.695 E30.10121
G1 X34.731 Y85.502 E30.17661
G1 X34.731 Y25.23 E33.97082
G1 X35.128 Y22.991 E34.11397
G1 X36.219 Y21.113 E34.25069
G1 X36.887 Y21.531 F18000
G1 F1800
G1 X37.019 Y21.32 E34.26636
G1 X38.736 Y20.048 E34.40088
G1 X41.245 Y19.473 E34.56292
G1 X75.52 Y19.473 E36.72058
G1 X77.62 Y19.869 E36.85511
G1 X79.245 Y20.84 E36.97428
G1 X195.096 Y119.126 E46.53826
G1 X195.648 Y119.647 E46.58604
G1 X196.246 Y120.377 E46.64545
G1 X196.832 Y121.371 E46.71809
G1 X203.264 Y134.79 E47.65486
G1 X203.797 Y136.442 E47.76413
G1 X203.959 Y137.519 E47.83269
G1 X203.993 Y138.43 E47.89008
G1 X203.887 Y139.656 E47.96755
G1 X197.419 Y179.323 E50.49762
G1 X196.69 Y181.331 E50.6321
G1 X195.279 Y182.935 E50.76658
G1 X193.379 Y183.914 E50.90113
G1 X191.737 Y184.153 E51.00559
G1 X134.737 Y184.153 E54.59382
G1 X132.638 Y183.757 E54.72829
G1 X130.684 Y182.484 E54.8751
G1 X37.311 Y89.891 E63.15315
G1 X36.691 Y89.171 E63.21296
G1 X36.347 Y88.649 E63.25231
G1 X35.851 Y87.589 E63.32598
G1 X35.597 Y86.646 E63.38746
G1 X35.489 Y85.591 E63.45422
G1 X35.488 Y25.23 E67.25403
G1 X35.884 Y23.13 E67.38856
G1 X36.855 Y21.582 E67.50359
;WIPE_START
G1 F14400
G1 X37.019 Y21.32 E67.44853
G1 X38.736 Y20.048 E67.06791
G1 X40.182 Y19.717 E66.80359
;WIPE_END
G92 E0
G1 X58.383 Y27.868 F18000
G1 E.7 F2700
;TYPE:Perimeter
;WIDTH:0.644832
G1 F1800
G1 X58.172 Y27.583 E.71775
G1 X57.453 Y27.151 E.75973
;WIDTH:0.644302
G1 X57.119 Y27.064 E.77699
G1 X57.466 Y27.066 E.79434
;WIDTH:0.644832
G1 X59.646 Y27.064 E.90345
;WIDTH:0.644302
G1 X59.312 Y27.151 E.92071
;WIDTH:0.644832
G1 X58.593 Y27.583 E.96269
G1 X58.418 Y27.82 E.97743
;WIPE_START
G1 F14400
G1 X58.172 Y27.583 E.91658
G1 X57.453 Y27.151 E.76717
G1 X57.119 Y27.064 E.70569
G1 X57.466 Y27.066 E.64388
G1 X59.523 Y27.064 E.27743
;WIPE_END
G92 E0
G1 X43.064 Y45.771 F18000
G1 E.7 F2700
;WIDTH:0.657065
G1 F1800
G1 X43.088 Y45.486 E.71461
;WIDTH:0.70471
G1 X43.111 Y45.201 E.73034
;WIDTH:0.752355
G1 X43.135 Y44.916 E.74721
;WIDTH:0.799999
G1 X43.159 Y44.63 E.76528
G1 X43.159 Y27.144 E1.86605
G1 X55.748 Y27.144 E2.65854
G1 X55.934 Y27.124 E2.67032
;WIDTH:0.760143
G1 X56.12 Y27.104 E2.68148
;WIDTH:0.720287
G1 X56.306 Y27.084 E2.69202
;WIDTH:0.680431
G1 X56.492 Y27.064 E2.70194
G1 X56.315 Y27.113 E2.71168
;WIDTH:0.720287
G1 X56.137 Y27.161 E2.72206
;WIDTH:0.760143
G1 X55.96 Y27.21 E2.73301
;WIDTH:0.799999
G1 X55.782 Y27.258 E2.74462
G1 X55.259 Y27.758 E2.79017
G1 X43.315 Y44.68 E4.09406
G1 X43.252 Y44.953 E4.1117
;WIDTH:0.752355
G1 X43.189 Y45.226 E4.12823
;WIDTH:0.70471
G1 X43.126 Y45.499 E4.14365
;WIDTH:0.657065
G1 X43.077 Y45.713 E4.15486
;WIPE_START
G1 F14400
G1 X43.088 Y45.486 E4.11438
G1 X43.111 Y45.201 E4.06345
G1 X43.135 Y44.916 E4.0125
G1 X43.159 Y44.63 E3.96138
G1 X43.159 Y41.786 E3.45486
;WIPE_END
G92 E0
G1 X58.383 Y35.543 F18000
G1 E.7 F2700
;WIDTH:1.01953
G1 F1800
G1 X58.093 Y35.27 E.73234
G1 X57.662 Y35.05 E.77164
G1 X58.383 Y34.03 E.87307
G1 X59.103 Y35.05 E.97446
G1 X58.672 Y35.27 E1.01376
G1 X58.426 Y35.502 E1.04122
;WIPE_START
G1 F14400
G1 X58.093 Y35.27 E.96893
G1 X57.662 Y35.05 E.88273
G1 X58.383 Y34.03 E.66023
G1 X59.103 Y35.05 E.43784
G1 X58.672 Y35.27 E.35164
G1 X58.629 Y35.31 E.34122
;WIPE_END
G92 E0
G1 X58.383 Y43.543 F18000
G1 E.7 F2700
;WIDTH:1.01953
G1 F1800
G1 X58.093 Y43.27 E.73234
G1 X57.662 Y43.05 E.77164
G1 X58.383 Y42.03 E.87307
G1 X59.103 Y43.05 E.97446
G1 X58.672 Y43.27 E1.01376
G1 X58.426 Y43.502 E1.04122
;WIPE_START
G1 F14400
G1 X58.093 Y43.27 E.96893
G1 X57.662 Y43.05 E.88273
G1 X58.383 Y42.03 E.66023
G1 X59.103 Y43.05 E.43784
G1 X58.672 Y43.27 E.35164
G1 X58.629 Y43.31 E.34122
;WIPE_END
G92 E0
G1 X58.383 Y51.543 F18000
G1 E.7 F2700
;WIDTH:1.01953
G1 F1800
G1 X58.093 Y51.27 E.73234
G1 X57.662 Y51.05 E.77164
G1 X58.383 Y50.03 E.87307
G1 X59.103 Y51.05 E.97446
G1 X58.672 Y51.27 E1.01376
G1 X58.426 Y51.502 E1.04122
;WIPE_START
G1 F14400
G1 X58.093 Y51.27 E.96893
G1 X57.662 Y51.05 E.88273
G1 X58.383 Y50.03 E.66023
G1 X59.103 Y51.05 E.43784
G1 X58.672 Y51.27 E.35164
G1 X58.629 Y51.31 E.34122
;WIPE_END
G92 E0
G1 X73.701 Y53.771 F18000
G1 E.7 F2700
;WIDTH:0.651768
G1 F1800
G1 X73.664 Y53.586 E.70955
;WIDTH:0.694116
G1 X73.626 Y53.402 E.71972
;WIDTH:0.736463
G1 X73.589 Y53.217 E.7306
;WIDTH:0.778811
G1 X73.551 Y53.032 E.74216
;WIDTH:0.821159
G1 X73.514 Y52.847 E.75437
;WIDTH:0.863506
G1 X73.476 Y52.662 E.76726
G1 X72.549 Y51.347 E.87704
G1 X72.943 Y51.163 E.90671
G1 X73.561 Y50.521 E.96751
G1 X73.586 Y50.388 E.97674
;WIDTH:0.818136
G1 X73.612 Y50.255 E.98548
;WIDTH:0.772766
G1 X73.637 Y50.122 E.99369
;WIDTH:0.727396
G1 X73.662 Y49.989 E1.00139
;WIDTH:0.682026
G1 X73.688 Y49.855 E1.00864
G1 X73.665 Y49.989 E1.01587
;WIDTH:0.727396
G1 X73.642 Y50.123 E1.02361
;WIDTH:0.772766
G1 X73.62 Y50.257 E1.03185
;WIDTH:0.818136
G1 X73.597 Y50.391 E1.04061
;WIDTH:0.863506
G1 X73.574 Y50.525 E1.04989
G1 X73.574 Y52.63 E1.19352
G1 X73.596 Y52.821 E1.20664
;WIDTH:0.821159
G1 X73.617 Y53.011 E1.21901
;WIDTH:0.778811
G1 X73.638 Y53.201 E1.23071
;WIDTH:0.736463
G1 X73.659 Y53.391 E1.24173
;WIDTH:0.694116
G1 X73.68 Y53.581 E1.25208
;WIDTH:0.651768
G1 X73.695 Y53.712 E1.25876
;WIPE_START
G1 F14400
G1 X73.664 Y53.586 E1.23565
G1 X73.626 Y53.402 E1.20218
G1 X73.589 Y53.217 E1.16857
G1 X73.551 Y53.032 E1.13493
G1 X73.514 Y52.847 E1.10132
G1 X73.476 Y52.662 E1.06768
G1 X72.549 Y51.347 E.78109
G1 X72.943 Y51.163 E.70363
G1 X73.507 Y50.577 E.55876
;WIPE_END
G92 E0
G1 X73.701 Y61.771 F18000
G1 E.7 F2700
G1 F1800
G1 X73.664 Y61.586 E.70955
;WIDTH:0.694116
G1 X73.626 Y61.402 E.71972
;WIDTH:0.736463
G1 X73.589 Y61.217 E.7306
;WIDTH:0.778811
G1 X73.551 Y61.032 E.74216
;WIDTH:0.821159
G1 X73.514 Y60.847 E.75437
;WIDTH:0.863506
G1 X73.476 Y60.662 E.76726
G1 X72.549 Y59.347 E.87704
G1 X72.943 Y59.163 E.90671
G1 X73.561 Y58.521 E.96751
G1 X73.586 Y58.388 E.97674
;WIDTH:0.818136
G1 X73.612 Y58.255 E.98548
;WIDTH:0.772766
G1 X73.637 Y58.122 E.99369
;WIDTH:0.727396
G1 X73.662 Y57.989 E1.00139
;WIDTH:0.682026
G1 X73.688 Y57.855 E1.00864
G1 X73.665 Y57.989 E1.01587
;WIDTH:0.727396
G1 X73.642 Y58.123 E1.02361
;WIDTH:0.772766
G1 X73.62 Y58.257 E1.03185
;WIDTH:0.818136
G1 X73.597 Y58.391 E1.04061
;WIDTH:0.863506
G1 X73.574 Y58.525 E1.04989
G1 X73.574 Y60.63 E1.19352
G1 X73.596 Y60.821 E1.20664
;WIDTH:0.821159
G1 X73.617 Y61.011 E1.21901
;WIDTH:0.778811
G1 X73.638 Y61.201 E1.23071
;WIDTH:0.736463
G1 X73.659 Y61.391 E1.24173
;WIDTH:0.694116
G1 X73.68 Y61.581 E1.25208
;WIDTH:0.651768
G1 X73.695 Y61.712 E1.25876
;WIPE_START
G1 F14400
G1 X73.664 Y61.586 E1.23565
G1 X73.626 Y61.402 E1.20218
G1 X73.589 Y61.217 E1.16857
G1 X73.551 Y61.032 E1.13493
G1 X73.514 Y60.847 E1.10132
G1 X73.476 Y60.662 E1.06768
G1 X72.549 Y59.347 E.78109
G1 X72.943 Y59.163 E.70363
G1 X73.507 Y58.577 E.55876
;WIPE_END
G92 E0
G1 X71.414 Y58.563 F18000
G1 E.7 F2700
;WIDTH:0.752136
G1 F1800
G1 X71.406 Y58.555 E.70067
;WIDTH:0.704273
G1 X71.35 Y58.496 E.70514
;WIDTH:0.65641
G1 X71.293 Y58.437 E.70932
;WIDTH:0.608547
G1 X71.236 Y58.378 E.71318
;WIDTH:0.560684
G1 X71.18 Y58.319 E.71668
;WIDTH:0.512821
G1 X71.123 Y58.26 E.71989
;WIDTH:0.464957
G1 X71.018 Y58.129 E.72578
;WIDTH:0.456089
G1 X61.084 Y44.056 E1.31758
;WIDTH:0.464957
G1 X60.963 Y43.892 E1.32473
;WIDTH:0.512821
G1 X60.89 Y43.83 E1.32847
;WIDTH:0.560684
G1 X60.816 Y43.767 E1.33265
;WIDTH:0.608547
G1 X60.743 Y43.705 E1.33715
;WIDTH:0.65641
G1 X60.67 Y43.643 E1.34204
;WIDTH:0.704273
G1 X60.597 Y43.58 E1.34734
;WIDTH:0.752136
G1 X60.523 Y43.518 E1.35303
;WIDTH:0.799999
G1 X60.45 Y43.455 E1.3591
G1 X58.933 Y41.307 E1.52464
G1 X58.79 Y41.03 E1.54426
;WIDTH:0.799435
G1 X58.743 Y40.652 E1.56822
;WIDTH:0.764381
G1 X58.743 Y36.881 E1.79444
;WIDTH:0.799999
G1 X58.786 Y36.517 E1.81751
G1 X58.921 Y36.244 E1.83668
G1 X59.187 Y35.967 E1.86086
G1 X59.616 Y35.767 E1.89066
G1 X60.245 Y35.751 E1.93027
G1 X60.302 Y35.81 E1.93543
;WIDTH:0.752136
G1 X60.359 Y35.869 E1.94027
;WIDTH:0.704273
G1 X60.415 Y35.928 E1.94474
;WIDTH:0.65641
G1 X60.472 Y35.987 E1.94892
;WIDTH:0.608547
G1 X60.529 Y36.045 E1.95274
;WIDTH:0.560684
G1 X60.585 Y36.104 E1.95624
;WIDTH:0.512821
G1 X60.642 Y36.163 E1.95945
;WIDTH:0.464957
G1 X60.747 Y36.294 E1.96534
;WIDTH:0.45609
G1 X70.681 Y50.368 E2.55717
;WIDTH:0.464957
G1 X70.802 Y50.532 E2.56432
;WIDTH:0.512821
G1 X70.875 Y50.594 E2.56806
;WIDTH:0.560684
G1 X70.949 Y50.656 E2.57222
;WIDTH:0.608547
G1 X71.022 Y50.719 E2.57676
;WIDTH:0.65641
G1 X71.095 Y50.781 E2.58165
;WIDTH:0.704273
G1 X71.169 Y50.843 E2.58696
;WIDTH:0.752136
G1 X71.242 Y50.906 E2.59265
;WIDTH:0.799999
G1 X71.315 Y50.968 E2.59868
G1 X72.832 Y53.117 E2.76427
G1 X73.04 Y53.771 E2.80747
G1 X73.04 Y57.542 E3.04486
G1 X73.023 Y57.739 E3.05731
G1 X72.882 Y58.12 E3.08288
G1 X72.517 Y58.498 E3.11596
G1 X72.149 Y58.656 E3.14117
G1 X71.52 Y58.673 E3.18078
G1 X71.463 Y58.614 E3.18594
;WIDTH:0.752136
G1 X71.456 Y58.606 E3.18657
;WIPE_START
G1 F14400
G1 X71.406 Y58.555 E3.17385
G1 X71.35 Y58.496 E3.15936
G1 X71.293 Y58.437 E3.14475
G1 X71.236 Y58.378 E3.13014
G1 X71.18 Y58.319 E3.11565
G1 X71.123 Y58.26 E3.10104
G1 X71.018 Y58.129 E3.07114
G1 X69.125 Y55.448 E2.48657
;WIPE_END
G92 E0
G1 X73.701 Y53.771 F18000
G1 E.7 F2700
;WIDTH:0.60942
G1 F1800
G1 X73.701 Y57.542 E.87763
;WIDTH:0.636656
G1 X73.688 Y57.855 E.8931
;WIPE_START
G1 F14400
G1 X73.701 Y57.542 E.8373
G1 X73.701 Y53.925 E.1931
;WIPE_END
G92 E0
G1 X73.701 Y69.771 F18000
G1 E.7 F2700
;WIDTH:0.651766
G1 F1800
G1 X73.664 Y69.586 E.70955
;WIDTH:0.694114
G1 X73.626 Y69.402 E.71972
;WIDTH:0.736462
G1 X73.589 Y69.217 E.7306
;WIDTH:0.77881
G1 X73.551 Y69.032 E.74216
;WIDTH:0.821158
G1 X73.514 Y68.847 E.75437
;WIDTH:0.863505
G1 X73.476 Y68.662 E.76726
G1 X72.549 Y67.347 E.87704
G1 X72.943 Y67.163 E.90671
G1 X73.561 Y66.522 E.96746
G1 X73.586 Y66.388 E.97676
;WIDTH:0.818135
G1 X73.612 Y66.255 E.9855
;WIDTH:0.772765
G1 X73.637 Y66.122 E.99371
;WIDTH:0.727395
G1 X73.662 Y65.989 E1.00141
;WIDTH:0.682025
G1 X73.688 Y65.855 E1.00866
G1 X73.665 Y65.989 E1.01589
;WIDTH:0.727395
G1 X73.642 Y66.123 E1.02363
;WIDTH:0.772765
G1 X73.62 Y66.257 E1.03187
;WIDTH:0.818135
G1 X73.597 Y66.391 E1.04063
;WIDTH:0.863505
G1 X73.574 Y66.525 E1.04991
G1 X73.574 Y68.63 E1.19354
G1 X73.596 Y68.821 E1.20666
;WIDTH:0.821158
G1 X73.617 Y69.011 E1.21903
;WIDTH:0.77881
G1 X73.638 Y69.201 E1.23073
;WIDTH:0.736462
G1 X73.659 Y69.391 E1.24175
;WIDTH:0.694114
G1 X73.68 Y69.581 E1.2521
;WIDTH:0.651766
G1 X73.695 Y69.712 E1.25878
;WIPE_START
G1 F14400
G1 X73.664 Y69.586 E1.23567
G1 X73.626 Y69.402 E1.2022
G1 X73.589 Y69.217 E1.16859
G1 X73.551 Y69.032 E1.13495
G1 X73.514 Y68.847 E1.10134
G1 X73.476 Y68.662 E1.0677
G1 X72.549 Y67.347 E.78111
G1 X72.943 Y67.163 E.70365
G1 X73.507 Y66.577 E.55878
;WIPE_END
G92 E0
G1 X73.564 Y74.535 F18000
G1 E.7 F2700
;WIDTH:0.874018
G1 F1800
G1 X73.569 Y76.574 E.84091
G1 X73.591 Y76.774 E.85481
;WIDTH:0.829918
G1 X73.613 Y76.973 E.86791
;WIDTH:0.785818
G1 X73.635 Y77.173 E.88034
;WIDTH:0.741718
G1 X73.657 Y77.372 E.89197
;WIDTH:0.697618
G1 X73.679 Y77.572 E.90292
;WIDTH:0.653518
G1 X73.701 Y77.771 E.91309
G1 X73.659 Y77.578 E.92312
;WIDTH:0.697618
G1 X73.617 Y77.386 E.93382
;WIDTH:0.741718
G1 X73.575 Y77.193 E.9453
;WIDTH:0.785818
G1 X73.533 Y77 E.9575
;WIDTH:0.829918
G1 X73.491 Y76.807 E.97043
;WIDTH:0.874018
G1 X73.449 Y76.614 E.98408
G1 X72.516 Y75.369 E1.0916
G1 X72.932 Y75.175 E1.12332
G1 X73.522 Y74.577 E1.18137
;WIPE_START
G1 F14400
G1 X73.569 Y76.574 E.82556
G1 X73.591 Y76.774 E.78972
G1 X73.613 Y76.973 E.75406
G1 X73.635 Y77.173 E.71822
G1 X73.657 Y77.372 E.68256
G1 X73.679 Y77.572 E.64672
G1 X73.701 Y77.771 E.61106
G1 X73.659 Y77.578 E.57588
G1 X73.617 Y77.386 E.54087
G1 X73.575 Y77.193 E.50569
G1 X73.546 Y77.06 E.48137
;WIPE_END
G92 E0
G1 X71.415 Y74.574 F18000
G1 E.7 F2700
;WIDTH:0.752283
G1 F1800
G1 X71.386 Y74.547 E.70234
;WIDTH:0.704566
G1 X71.321 Y74.484 E.70732
;WIDTH:0.65685
G1 X71.256 Y74.422 E.71191
;WIDTH:0.609133
G1 X71.191 Y74.359 E.71617
;WIDTH:0.561417
G1 X71.126 Y74.297 E.72004
;WIDTH:0.5137
G1 X70.999 Y74.143 E.72785
;WIDTH:0.549414
G1 X69.144 Y71.555 E.86195
;WIDTH:0.594123
G1 X67.289 Y68.966 E1.00793
;WIDTH:0.638832
G1 X65.435 Y66.378 E1.16568
;WIDTH:0.683541
G1 X63.58 Y63.789 E1.33534
;WIDTH:0.72825
G1 X61.726 Y61.201 E1.51676
;WIDTH:0.772959
G1 X59.871 Y58.612 E1.7101
;WIDTH:0.799999
G1 X58.933 Y57.307 E1.81127
G1 X58.79 Y57.03 E1.83089
;WIDTH:0.799435
G1 X58.743 Y56.652 E1.85485
;WIDTH:0.764381
G1 X58.743 Y52.881 E2.08107
;WIDTH:0.799999
G1 X58.786 Y52.517 E2.10414
G1 X58.921 Y52.244 E2.12331
G1 X59.187 Y51.967 E2.14749
G1 X59.616 Y51.767 E2.17729
G1 X60.245 Y51.751 E2.2169
G1 X60.302 Y51.81 E2.22206
;WIDTH:0.752136
G1 X60.359 Y51.869 E2.2269
;WIDTH:0.704273
G1 X60.415 Y51.928 E2.23137
;WIDTH:0.65641
G1 X60.472 Y51.987 E2.23555
;WIDTH:0.608547
G1 X60.529 Y52.045 E2.23937
;WIDTH:0.560684
G1 X60.585 Y52.104 E2.24287
;WIDTH:0.512821
G1 X60.642 Y52.163 E2.24608
;WIDTH:0.464957
G1 X60.747 Y52.294 E2.25197
;WIDTH:0.456089
G1 X70.681 Y66.368 E2.8438
;WIDTH:0.464957
G1 X70.802 Y66.532 E2.85095
;WIDTH:0.512821
G1 X70.875 Y66.594 E2.85469
;WIDTH:0.560684
G1 X70.949 Y66.656 E2.85885
;WIDTH:0.608547
G1 X71.022 Y66.719 E2.86339
;WIDTH:0.65641
G1 X71.095 Y66.781 E2.86828
;WIDTH:0.704273
G1 X71.169 Y66.843 E2.87359
;WIDTH:0.752136
G1 X71.242 Y66.906 E2.87928
;WIDTH:0.799999
G1 X71.315 Y66.968 E2.88531
G1 X72.832 Y69.117 E3.0509
G1 X73.04 Y69.771 E3.0941
G1 X73.04 Y73.542 E3.33149
G1 X73.023 Y73.739 E3.34394
G1 X72.879 Y74.125 E3.36988
G1 X72.509 Y74.503 E3.40318
G1 X72.149 Y74.656 E3.4278
G1 X71.516 Y74.672 E3.46766
G1 X71.458 Y74.616 E3.47274
;WIPE_START
G1 F14400
G1 X71.386 Y74.547 E3.45498
G1 X71.321 Y74.484 E3.43886
G1 X71.256 Y74.422 E3.42286
G1 X71.191 Y74.359 E3.40674
G1 X71.126 Y74.297 E3.39074
G1 X70.999 Y74.143 E3.35518
G1 X69.144 Y71.555 E2.788
G1 X69.094 Y71.485 E2.77274
;WIPE_END
G92 E0
G1 X73.701 Y69.771 F18000
G1 E.7 F2700
;WIDTH:0.609418
G1 F1800
G1 X73.701 Y73.542 E.87763
;WIDTH:0.636654
G1 X73.688 Y73.855 E.8931
;WIPE_START
G1 F14400
G1 X73.701 Y73.542 E.8373
G1 X73.701 Y69.925 E.1931
;WIPE_END
G92 E0
G1 X71.397 Y66.545 F18000
G1 E.7 F2700
;WIDTH:0.704273
G1 F1800
