; generated by PrusaSlicer 2.6.0-alpha5+win64 on 2023-03-18 at 12:49:42 UTC

; 

; external perimeters extrusion width = 0.40mm
; perimeters extrusion width = 0.40mm
; infill extrusion width = 0.40mm
; solid infill extrusion width = 0.40mm
; top infill extrusion width = 0.40mm
; support material extrusion width = 0.40mm
; first layer extrusion width = 0.60mm

M107
M190 S60 ; set bed temperature and wait for it to be reached
M104 S215 ; set temperature
;TYPE:Custom
SET_GCODE_VARIABLE MACRO=START_PRINT VARIABLE=bed_temp VALUE=60
SET_GCODE_VARIABLE MACRO=START_PRINT VARIABLE=extruder_temp VALUE=215
START_PRINT
M109 S215 ; set temperature and wait for it to be reached
G21 ; set units to millimeters
G90 ; use absolute coordinates
M82 ; use absolute distances for extrusion
G92 E0
; Filament gcode
M107
;LAYER_CHANGE
;Z:0.2
;HEIGHT:0.2
;BEFORE_LAYER_CHANGE
;0.2


G1 Z.2 F18000
;AFTER_LAYER_CHANGE
;0.2
G1 E-.6 F2700
G92 E0
G1 Z.4 F18000
G1 X8.27 Y213.923
G1 Z.2
G1 E.6 F2700
;TYPE:Perimeter
;WIDTH:0.831618
G1 F1800
G1 X8.007 Y213.831 E.61827
;WIDTH:0.835918
G1 X7.416 Y213.555 E.66128
G1 X6.836 Y213.094 E.71013
;WIDTH:0.83133
G1 X6.518 Y212.681 E.7443
;WIDTH:0.825851
G1 X6.296 Y212.3 E.77301
;WIDTH:0.831611
G1 X6.104 Y211.829 E.80637
G1 X6.052 Y211.556 E.8246
;WIDTH:0.8376
G1 X5.976 Y210.936 E.86587
G1 X5.976 Y176.999 E3.10836
;WIDTH:0.865138
G1 X5.99 Y176.49 E3.14317
G1 X5.965 Y176.417 E3.14845
;WIDTH:0.816158
G1 X5.941 Y176.343 E3.15345
;WIDTH:0.767177
G1 X5.916 Y176.27 E3.1581
;WIDTH:0.718196
G1 X5.892 Y176.197 E3.16241
;WIDTH:0.669215
G1 X5.867 Y176.124 E3.16643
;WIDTH:0.620234
G1 X5.857 Y175.791 E3.18242
;WIDTH:0.599999
G1 X5.857 Y170.209 E3.44099
;WIDTH:0.644189
G1 X5.879 Y170.093 E3.44689
;WIDTH:0.688378
G1 X5.901 Y169.976 E3.45328
;WIDTH:0.732568
G1 X5.923 Y169.86 E3.46005
;WIDTH:0.776757
G1 X5.945 Y169.743 E3.46731
;WIDTH:0.820947
G1 X5.968 Y169.627 E3.47496
;WIDTH:0.865136
G1 X5.99 Y169.51 E3.4831
G1 X5.976 Y169.001 E3.51791
;WIDTH:0.837601
G1 X5.976 Y134.999 E5.76469
;WIDTH:0.865137
G1 X5.99 Y134.49 E5.7995
G1 X5.965 Y134.417 E5.80478
;WIDTH:0.816151
G1 X5.941 Y134.343 E5.80978
;WIDTH:0.767165
G1 X5.916 Y134.27 E5.81443
;WIDTH:0.718179
G1 X5.892 Y134.197 E5.81874
;WIDTH:0.669193
G1 X5.867 Y134.124 E5.82276
;WIDTH:0.620207
G1 X5.857 Y133.791 E5.83875
;WIDTH:0.599999
G1 X5.857 Y128.209 E6.09732
;WIDTH:0.644189
G1 X5.879 Y128.093 E6.10322
;WIDTH:0.688379
G1 X5.901 Y127.976 E6.10961
;WIDTH:0.732568
G1 X5.923 Y127.86 E6.11638
;WIDTH:0.776758
G1 X5.945 Y127.743 E6.12364
;WIDTH:0.820948
G1 X5.968 Y127.627 E6.13129
;WIDTH:0.865137
G1 X5.99 Y127.51 E6.13943
G1 X5.976 Y127.001 E6.17424
;WIDTH:0.837601
G1 X5.976 Y92.999 E8.42102
;WIDTH:0.865136
G1 X5.99 Y92.49 E8.45583
G1 X5.965 Y92.417 E8.46111
;WIDTH:0.816151
G1 X5.941 Y92.343 E8.46611
;WIDTH:0.767165
G1 X5.916 Y92.27 E8.47076
;WIDTH:0.718179
G1 X5.892 Y92.197 E8.47507
;WIDTH:0.669193
G1 X5.867 Y92.124 E8.47909
;WIDTH:0.620207
G1 X5.857 Y91.791 E8.49508
;WIDTH:0.599999
G1 X5.857 Y86.209 E8.75365
;WIDTH:0.644189
G1 X5.879 Y86.093 E8.75955
;WIDTH:0.688379
G1 X5.901 Y85.976 E8.76594
;WIDTH:0.732568
G1 X5.923 Y85.86 E8.77271
;WIDTH:0.776758
G1 X5.945 Y85.743 E8.77997
;WIDTH:0.820948
G1 X5.968 Y85.627 E8.78762
;WIDTH:0.865137
G1 X5.99 Y85.51 E8.79576
G1 X5.976 Y85.001 E8.83057
;WIDTH:0.837601
G1 X5.976 Y50.999 E11.07735
;WIDTH:0.865137
G1 X5.99 Y50.49 E11.11216
G1 X5.965 Y50.417 E11.11744
;WIDTH:0.816155
G1 X5.941 Y50.343 E11.12244
;WIDTH:0.767172
G1 X5.916 Y50.27 E11.12709
;WIDTH:0.71819
G1 X5.892 Y50.197 E11.1314
;WIDTH:0.669207
G1 X5.867 Y50.124 E11.13542
;WIDTH:0.620224
G1 X5.857 Y49.791 E11.15141
;WIDTH:0.599999
G1 X5.857 Y43.644 E11.43615
;WIDTH:0.649658
G1 X5.882 Y43.563 E11.44043
;WIDTH:0.699317
G1 X5.907 Y43.483 E11.445
;WIDTH:0.748976
G1 X5.932 Y43.403 E11.44992
;WIDTH:0.798635
G1 X5.956 Y43.322 E11.45523
;WIDTH:0.848294
G1 X5.981 Y43.242 E11.46084
G1 X5.976 Y43.001 E11.47698
;WIDTH:0.837599
G1 X5.976 Y9.09 E13.71775
G1 X6.008 Y8.773 E13.7388
;WIDTH:0.831611
G1 X6.077 Y8.27 E13.7721
G1 X6.366 Y7.539 E13.82365
G1 X6.834 Y6.907 E13.87522
G1 X7.449 Y6.417 E13.92679
G1 X8.171 Y6.104 E13.9784
G1 X8.444 Y6.052 E13.99663
;WIDTH:0.8376
G1 X9.09 Y5.976 E14.03961
G1 X43.001 Y5.976 E16.28038
;WIDTH:0.864844
G1 X43.51 Y5.99 E16.31518
G1 X43.583 Y5.966 E16.32043
;WIDTH:0.815923
G1 X43.657 Y5.941 E16.32545
;WIDTH:0.767001
G1 X43.73 Y5.917 E16.33008
;WIDTH:0.718079
G1 X43.803 Y5.892 E16.33441
;WIDTH:0.669157
G1 X43.876 Y5.868 E16.33841
;WIDTH:0.620235
G1 X44.209 Y5.858 E16.3544
;WIDTH:0.599999
G1 X49.791 Y5.858 E16.61297
;WIDTH:0.644131
G1 X49.907 Y5.88 E16.61887
;WIDTH:0.688262
G1 X50.024 Y5.902 E16.62526
;WIDTH:0.732393
G1 X50.14 Y5.924 E16.63203
;WIDTH:0.776524
G1 X50.257 Y5.946 E16.63929
;WIDTH:0.820655
G1 X50.373 Y5.968 E16.64693
;WIDTH:0.864786
G1 X50.49 Y5.99 E16.65507
G1 X50.999 Y5.976 E16.68987
;WIDTH:0.837247
G1 X85.001 Y5.977 E18.93565
;WIDTH:0.864488
G1 X85.51 Y5.991 E18.97043
G1 X85.583 Y5.966 E18.9757
;WIDTH:0.815646
G1 X85.656 Y5.942 E18.98064
;WIDTH:0.766804
G1 X85.73 Y5.917 E18.98534
;WIDTH:0.717961
G1 X85.803 Y5.893 E18.98965
;WIDTH:0.669119
G1 X85.876 Y5.869 E18.99365
;WIDTH:0.620276
G1 X86.209 Y5.858 E19.00965
;WIDTH:0.599999
G1 X91.791 Y5.858 E19.26822
;WIDTH:0.644071
G1 X91.907 Y5.881 E19.27413
;WIDTH:0.688143
G1 X92.024 Y5.903 E19.28052
;WIDTH:0.732215
G1 X92.14 Y5.925 E19.28729
;WIDTH:0.776287
G1 X92.257 Y5.947 E19.29455
;WIDTH:0.820359
G1 X92.373 Y5.969 E19.30218
;WIDTH:0.86443
G1 X92.49 Y5.991 E19.31031
G1 X92.999 Y5.977 E19.34509
;WIDTH:0.836893
G1 X127.001 Y5.977 E21.58987
;WIDTH:0.864133
G1 X127.51 Y5.991 E21.62464
G1 X127.583 Y5.967 E21.62989
;WIDTH:0.815369
G1 X127.656 Y5.942 E21.63485
;WIDTH:0.766604
G1 X127.73 Y5.918 E21.63953
;WIDTH:0.717839
G1 X127.803 Y5.894 E21.64384
;WIDTH:0.669074
G1 X127.876 Y5.869 E21.64786
;WIDTH:0.620309
G1 X128.209 Y5.859 E21.66385
;WIDTH:0.599999
G1 X133.791 Y5.859 E21.92242
;WIDTH:0.644012
G1 X133.908 Y5.881 E21.92837
;WIDTH:0.688024
G1 X134.024 Y5.903 E21.9347
;WIDTH:0.732037
G1 X134.141 Y5.925 E21.94152
;WIDTH:0.776049
G1 X134.257 Y5.947 E21.94872
;WIDTH:0.820062
G1 X134.374 Y5.969 E21.95641
;WIDTH:0.864074
G1 X134.49 Y5.991 E21.96447
G1 X134.999 Y5.977 E21.99924
;WIDTH:0.836539
G1 X169.001 Y5.978 E24.24302
;WIDTH:0.863777
G1 X169.51 Y5.992 E24.27777
G1 X169.583 Y5.967 E24.28304
;WIDTH:0.815088
G1 X169.656 Y5.943 E24.28797
;WIDTH:0.766399
G1 X169.73 Y5.919 E24.29265
;WIDTH:0.71771
G1 X169.803 Y5.894 E24.29698
;WIDTH:0.669021
G1 X169.876 Y5.87 E24.30098
;WIDTH:0.620332
G1 X170.209 Y5.86 E24.31698
;WIDTH:0.599999
G1 X175.791 Y5.86 E24.57555
;WIDTH:0.643953
G1 X175.908 Y5.882 E24.5815
;WIDTH:0.687906
G1 X176.024 Y5.904 E24.58783
;WIDTH:0.731859
G1 X176.141 Y5.926 E24.59465
;WIDTH:0.775813
G1 X176.257 Y5.948 E24.60185
;WIDTH:0.819766
G1 X176.374 Y5.97 E24.60954
;WIDTH:0.863719
G1 X176.49 Y5.992 E24.6176
G1 X176.999 Y5.978 E24.65235
;WIDTH:0.836184
G1 X210.936 Y5.978 E26.89084
;WIDTH:0.835897
G1 X211.227 Y6.008 E26.91013
;WIDTH:0.83161
G1 X211.73 Y6.077 E26.94343
G1 X211.993 Y6.169 E26.9617
;WIDTH:0.835912
G1 X212.584 Y6.445 E27.00471
G1 X213.093 Y6.834 E27.04695
;WIDTH:0.831609
G1 X213.275 Y7.044 E27.06517
G1 X213.634 Y7.539 E27.10527
;WIDTH:0.831616
G1 X213.896 Y8.171 E27.15014
G1 X213.948 Y8.444 E27.16837
;WIDTH:0.837597
G1 X214.024 Y9.064 E27.20964
G1 X214.024 Y43.001 E29.45212
;WIDTH:0.865145
G1 X214.01 Y43.51 E29.48693
G1 X214.035 Y43.583 E29.49221
;WIDTH:0.816169
G1 X214.059 Y43.657 E29.49721
;WIDTH:0.767193
G1 X214.084 Y43.73 E29.50186
;WIDTH:0.718216
G1 X214.108 Y43.803 E29.50617
;WIDTH:0.66924
G1 X214.133 Y43.876 E29.51019
;WIDTH:0.620263
G1 X214.143 Y44.137 E29.52273
;WIDTH:0.599999
G1 X214.143 Y49.791 E29.78463
;WIDTH:0.64419
G1 X214.121 Y49.907 E29.79053
;WIDTH:0.688381
G1 X214.099 Y50.024 E29.79692
;WIDTH:0.732572
G1 X214.077 Y50.14 E29.80369
;WIDTH:0.776763
G1 X214.055 Y50.257 E29.81095
;WIDTH:0.820954
G1 X214.032 Y50.373 E29.8186
;WIDTH:0.865144
G1 X214.01 Y50.49 E29.82674
G1 X214.024 Y50.999 E29.86155
;WIDTH:0.837597
G1 X214.024 Y85.001 E32.10832
;WIDTH:0.865145
G1 X214.01 Y85.51 E32.14313
G1 X214.035 Y85.583 E32.14841
;WIDTH:0.816172
G1 X214.059 Y85.657 E32.15341
;WIDTH:0.767199
G1 X214.084 Y85.73 E32.15806
;WIDTH:0.718225
G1 X214.108 Y85.803 E32.16237
;WIDTH:0.669252
G1 X214.133 Y85.876 E32.16639
;WIDTH:0.620278
G1 X214.143 Y86.137 E32.17893
;WIDTH:0.599999
G1 X214.143 Y91.791 E32.44083
;WIDTH:0.64419
G1 X214.121 Y91.907 E32.44673
;WIDTH:0.688381
G1 X214.099 Y92.024 E32.45312
;WIDTH:0.732571
G1 X214.077 Y92.14 E32.45989
;WIDTH:0.776762
G1 X214.055 Y92.257 E32.46715
;WIDTH:0.820953
G1 X214.032 Y92.373 E32.4748
;WIDTH:0.865143
G1 X214.01 Y92.49 E32.48294
G1 X214.024 Y92.999 E32.51775
;WIDTH:0.837597
G1 X214.024 Y127.001 E34.76452
;WIDTH:0.865145
G1 X214.01 Y127.51 E34.79933
G1 X214.035 Y127.583 E34.80461
;WIDTH:0.816171
G1 X214.059 Y127.657 E34.80961
;WIDTH:0.767196
G1 X214.084 Y127.73 E34.81426
;WIDTH:0.718221
G1 X214.108 Y127.803 E34.81857
;WIDTH:0.669246
G1 X214.133 Y127.876 E34.82259
;WIDTH:0.620271
G1 X214.143 Y128.137 E34.83513
;WIDTH:0.599999
G1 X214.143 Y133.791 E35.09703
;WIDTH:0.64419
G1 X214.121 Y133.907 E35.10293
;WIDTH:0.688381
G1 X214.099 Y134.024 E35.10932
;WIDTH:0.732572
G1 X214.077 Y134.14 E35.11609
;WIDTH:0.776763
G1 X214.055 Y134.257 E35.12335
;WIDTH:0.820954
G1 X214.032 Y134.373 E35.131
;WIDTH:0.865144
G1 X214.01 Y134.49 E35.13914
G1 X214.024 Y134.999 E35.17395
;WIDTH:0.837597
G1 X214.024 Y169.001 E37.42072
;WIDTH:0.865145
G1 X214.01 Y169.51 E37.45553
G1 X214.035 Y169.583 E37.46081
;WIDTH:0.816166
G1 X214.059 Y169.657 E37.46581
;WIDTH:0.767187
G1 X214.084 Y169.73 E37.47046
;WIDTH:0.718207
G1 X214.108 Y169.803 E37.47477
;WIDTH:0.669228
G1 X214.133 Y169.876 E37.47879
;WIDTH:0.620248
G1 X214.143 Y170.137 E37.49133
;WIDTH:0.599999
G1 X214.143 Y175.791 E37.75323
;WIDTH:0.64419
G1 X214.121 Y175.907 E37.75913
;WIDTH:0.688381
G1 X214.099 Y176.024 E37.76552
;WIDTH:0.732572
G1 X214.077 Y176.14 E37.77229
;WIDTH:0.776763
G1 X214.055 Y176.257 E37.77955
;WIDTH:0.820954
G1 X214.032 Y176.373 E37.7872
;WIDTH:0.865144
G1 X214.01 Y176.49 E37.79534
G1 X214.024 Y176.999 E37.83015
;WIDTH:0.837595
G1 X214.024 Y210.91 E40.0709
G1 X213.992 Y211.228 E40.09202
;WIDTH:0.831615
G1 X213.923 Y211.73 E40.12525
G1 X213.831 Y211.993 E40.14352
;WIDTH:0.83591
G1 X213.555 Y212.584 E40.18653
G1 X213.166 Y213.093 E40.22877
;WIDTH:0.831616
G1 X212.551 Y213.583 E40.28034
G1 X211.829 Y213.896 E40.33195
G1 X211.556 Y213.948 E40.35018
;WIDTH:0.837597
G1 X210.936 Y214.024 E40.39145
G1 X176.999 Y214.024 E42.63393
;WIDTH:0.865145
G1 X176.49 Y214.01 E42.66874
G1 X176.417 Y214.035 E42.67402
;WIDTH:0.816177
G1 X176.343 Y214.059 E42.67902
;WIDTH:0.767209
G1 X176.27 Y214.084 E42.68367
;WIDTH:0.718241
G1 X176.197 Y214.108 E42.68799
;WIDTH:0.669273
G1 X176.124 Y214.133 E42.69201
;WIDTH:0.620304
G1 X175.863 Y214.143 E42.70455
;WIDTH:0.599999
G1 X170.209 Y214.143 E42.96645
;WIDTH:0.64419
G1 X170.093 Y214.121 E42.97235
;WIDTH:0.688381
G1 X169.976 Y214.099 E42.97874
;WIDTH:0.732571
G1 X169.86 Y214.077 E42.98551
;WIDTH:0.776762
G1 X169.743 Y214.055 E42.99277
;WIDTH:0.820953
G1 X169.627 Y214.032 E43.00042
;WIDTH:0.865143
G1 X169.51 Y214.01 E43.00856
G1 X169.001 Y214.024 E43.04337
;WIDTH:0.837597
G1 X134.999 Y214.024 E45.29014
;WIDTH:0.865145
G1 X134.49 Y214.01 E45.32495
G1 X134.417 Y214.035 E45.33023
;WIDTH:0.816171
G1 X134.343 Y214.059 E45.33523
;WIDTH:0.767197
G1 X134.27 Y214.084 E45.33988
;WIDTH:0.718222
G1 X134.197 Y214.108 E45.34419
;WIDTH:0.669248
G1 X134.124 Y214.133 E45.34821
;WIDTH:0.620273
G1 X133.863 Y214.143 E45.36075
;WIDTH:0.599999
G1 X128.209 Y214.143 E45.62265
;WIDTH:0.64419
G1 X128.093 Y214.121 E45.62855
;WIDTH:0.688381
G1 X127.976 Y214.099 E45.63494
;WIDTH:0.732571
G1 X127.86 Y214.077 E45.64171
;WIDTH:0.776762
G1 X127.743 Y214.055 E45.64897
;WIDTH:0.820953
G1 X127.627 Y214.032 E45.65662
;WIDTH:0.865143
G1 X127.51 Y214.01 E45.66476
G1 X127.001 Y214.024 E45.69957
;WIDTH:0.837597
G1 X92.999 Y214.024 E47.94634
;WIDTH:0.865145
G1 X92.49 Y214.01 E47.98115
G1 X92.417 Y214.035 E47.98643
;WIDTH:0.816171
G1 X92.343 Y214.059 E47.99143
;WIDTH:0.767196
G1 X92.27 Y214.084 E47.99608
;WIDTH:0.718221
G1 X92.197 Y214.108 E48.00039
;WIDTH:0.669246
G1 X92.124 Y214.133 E48.00441
;WIDTH:0.620271
G1 X91.863 Y214.143 E48.01695
;WIDTH:0.599999
G1 X86.209 Y214.143 E48.27885
;WIDTH:0.64419
G1 X86.093 Y214.121 E48.28475
;WIDTH:0.688381
G1 X85.976 Y214.099 E48.29114
;WIDTH:0.732571
G1 X85.86 Y214.077 E48.29791
;WIDTH:0.776762
G1 X85.743 Y214.055 E48.30517
;WIDTH:0.820953
G1 X85.627 Y214.032 E48.31282
;WIDTH:0.865143
G1 X85.51 Y214.01 E48.32096
G1 X85.001 Y214.024 E48.35577
;WIDTH:0.837597
G1 X50.999 Y214.024 E50.60254
;WIDTH:0.865145
G1 X50.49 Y214.01 E50.63735
G1 X50.417 Y214.035 E50.64263
;WIDTH:0.816174
G1 X50.343 Y214.059 E50.64763
;WIDTH:0.767202
G1 X50.27 Y214.084 E50.65228
;WIDTH:0.71823
G1 X50.197 Y214.108 E50.65659
;WIDTH:0.669258
G1 X50.124 Y214.133 E50.66061
;WIDTH:0.620286
G1 X49.863 Y214.143 E50.67315
;WIDTH:0.599999
G1 X44.209 Y214.143 E50.93505
;WIDTH:0.64419
G1 X44.093 Y214.121 E50.94095
;WIDTH:0.688381
G1 X43.976 Y214.099 E50.94734
;WIDTH:0.732572
G1 X43.86 Y214.077 E50.95411
;WIDTH:0.776763
G1 X43.743 Y214.055 E50.96137
;WIDTH:0.820954
G1 X43.627 Y214.032 E50.96902
;WIDTH:0.865144
G1 X43.51 Y214.01 E50.97716
G1 X43.001 Y214.024 E51.01197
;WIDTH:0.837596
G1 X9.09 Y214.024 E53.25273
G1 X8.773 Y213.992 E53.27378
;WIDTH:0.831618
G1 X8.33 Y213.931 E53.30311
G1 X8.043 Y214.571 F18000
;TYPE:External perimeter
;WIDTH:0.599999
G1 F1800
G1 X7.151 Y214.202 E53.34782
G1 X6.386 Y213.615 E53.39249
G1 X5.788 Y212.825 E53.43839
G1 X5.429 Y211.957 E53.4819
G1 X5.3 Y210.98 E53.52755
G1 X5.3 Y9.02 E62.8826
G1 X5.429 Y8.043 E62.92825
G1 X5.798 Y7.151 E62.97296
G1 X6.386 Y6.386 E63.01765
G1 X7.151 Y5.798 E63.06234
G1 X8.043 Y5.429 E63.10705
G1 X9.02 Y5.3 E63.1527
G1 X211.006 Y5.303 E72.50896
G1 X211.957 Y5.429 E72.5534
G1 X212.849 Y5.798 E72.59811
G1 X213.614 Y6.386 E72.6428
G1 X214.117 Y7.04 E72.68102
G1 X214.256 Y7.281 E72.69391
G1 X214.571 Y8.043 E72.7321
G1 X214.7 Y9.02 E72.77775
G1 X214.7 Y210.98 E82.1328
G1 X214.571 Y211.957 E82.17845
G1 X214.202 Y212.849 E82.22316
G1 X213.614 Y213.614 E82.26785
G1 X212.849 Y214.202 E82.31254
G1 X211.957 Y214.571 E82.35725
G1 X210.98 Y214.7 E82.4029
G1 X9.02 Y214.7 E91.75795
G1 X8.103 Y214.579 E91.80079
G1 X7.94 Y214.185 F18000
;WIPE_START
G1 F14400
G1 X7.151 Y214.202 E91.6184
G1 X6.386 Y213.615 E91.44664
G1 X5.788 Y212.825 E91.27015
G1 X5.639 Y212.465 E91.20079
;WIPE_END
G92 E0
G1 Z.4 F18000
G1 X213.005 Y43.67
G1 Z.2
G1 E.6 F2700
;TYPE:Perimeter
;WIDTH:0.620263
G1 F1800
G1 X212.818 Y44.048 E.62025
;WIDTH:0.599999
G1 X212.41 Y44.565 E.65076
G1 X211.957 Y44.876 E.67621
G1 X211.439 Y45.06 E.70167
G1 X211.001 Y45.111 E.7221
G1 X176.999 Y45.111 E2.29712
G1 X176.45 Y45.038 E2.32277
G1 X175.937 Y44.824 E2.34852
G1 X175.507 Y44.493 E2.37366
G1 X175.199 Y44.099 E2.39683
G1 X174.992 Y43.624 E2.42083
G1 X174.889 Y43.001 E2.45008
G1 X174.889 Y8.999 E4.0251
G1 X174.95 Y8.502 E4.04829
G1 X175.124 Y8.043 E4.07103
G1 X175.435 Y7.59 E4.09648
G1 X175.854 Y7.233 E4.12198
;WIDTH:0.630149
G1 X176.096 Y7.101 E4.13544
;WIDTH:0.660299
G1 X176.339 Y6.968 E4.14966
;WIDTH:0.700983
G1 X176.38 Y6.937 E4.15247
;WIDTH:0.741667
G1 X176.421 Y6.905 E4.15549
;WIDTH:0.782351
G1 X176.462 Y6.873 E4.15869
;WIDTH:0.823035
G1 X176.503 Y6.841 E4.16206
;WIDTH:0.863719
G1 X176.544 Y6.809 E4.16561
G1 X176.999 Y6.771 E4.19677
;WIDTH:0.836184
G1 X210.936 Y6.771 E6.43526
;WIDTH:0.835897
G1 X211.454 Y6.828 E6.46962
;WIDTH:0.825854
G1 X211.934 Y6.992 E6.50264
;WIDTH:0.826575
G1 X212.444 Y7.32 E6.54215
G1 X212.654 Y7.521 E6.56109
;WIDTH:0.825854
G1 X212.981 Y7.999 E6.59879
;WIDTH:0.82586
G1 X213.172 Y8.546 E6.63651
;WIDTH:0.837597
G1 X213.229 Y9.09 E6.67265
G1 X213.229 Y43.001 E8.91341
;WIDTH:0.865145
G1 X213.192 Y43.456 E8.94462
G1 X213.156 Y43.496 E8.9483
;WIDTH:0.816169
G1 X213.12 Y43.535 E8.95171
;WIDTH:0.767193
G1 X213.085 Y43.575 E8.95491
;WIDTH:0.718216
G1 X213.049 Y43.614 E8.95789
;WIDTH:0.66924
G1 X213.041 Y43.623 E8.95852
