; generated by PrusaSlicer 2.6.0-alpha5+win64 on 2023-03-18 at 14:29:50 UTC

; 

; external perimeters extrusion width = 0.40mm
; perimeters extrusion width = 0.40mm
; infill extrusion width = 0.40mm
; solid infill extrusion width = 0.40mm
; top infill extrusion width = 0.40mm
; support material extrusion width = 0.40mm
; first layer extrusion width = 0.60mm

M107
M190 S60 ; set bed temperature and wait for it to be reached
M104 S215 ; set temperature
;TYPE:Custom
SET_GCODE_VARIABLE MACRO=START_PRINT VARIABLE=bed_temp VALUE=60
SET_GCODE_VARIABLE MACRO=START_PRINT VARIABLE=extruder_temp VALUE=215
START_PRINT
M109 S215 ; set temperature and wait for it to be reached
G21 ; set units to millimeters
G90 ; use absolute coordinates
M82 ; use absolute distances for extrusion
G92 E0
; Filament gcode
M107
;LAYER_CHANGE
;Z:0.2
;HEIGHT:0.2
;BEFORE_LAYER_CHANGE
;0.2


G1 Z.2 F18000
;AFTER_LAYER_CHANGE
;0.2
G1 E-.6 F2700
G92 E0
G1 Z.4 F18000
G1 X211.73 Y27.077
G1 Z.2
G1 E.6 F2700
;TYPE:Perimeter
;WIDTH:0.83161
G1 F1800
G1 X211.993 Y27.169 E.61827
;WIDTH:0.835913
G1 X212.584 Y27.445 E.66128
G1 X213.093 Y27.834 E.70352
;WIDTH:0.831609
G1 X213.275 Y28.044 E.72174
G1 X213.634 Y28.539 E.76184
;WIDTH:0.831616
G1 X213.896 Y29.171 E.80671
G1 X213.948 Y29.444 E.82494
;WIDTH:0.837597
G1 X214.024 Y30.064 E.86621
G1 X214.024 Y64.001 E3.10869
;WIDTH:0.865144
G1 X214.01 Y64.51 E3.1435
G1 X214.035 Y64.583 E3.14878
;WIDTH:0.816173
G1 X214.059 Y64.657 E3.15378
;WIDTH:0.767202
G1 X214.084 Y64.73 E3.15843
;WIDTH:0.718231
G1 X214.108 Y64.803 E3.16274
;WIDTH:0.66926
G1 X214.133 Y64.876 E3.16676
;WIDTH:0.620289
G1 X214.143 Y65.137 E3.1793
;WIDTH:0.599999
G1 X214.143 Y70.791 E3.4412
;WIDTH:0.64419
G1 X214.121 Y70.907 E3.4471
;WIDTH:0.688381
G1 X214.099 Y71.024 E3.45349
;WIDTH:0.732572
G1 X214.077 Y71.14 E3.46026
;WIDTH:0.776763
G1 X214.055 Y71.257 E3.46752
;WIDTH:0.820954
G1 X214.032 Y71.373 E3.47517
;WIDTH:0.865144
G1 X214.01 Y71.49 E3.48331
G1 X214.024 Y71.999 E3.51812
;WIDTH:0.837597
G1 X214.024 Y106.001 E5.76489
;WIDTH:0.865145
G1 X214.01 Y106.51 E5.7997
G1 X214.035 Y106.583 E5.80498
;WIDTH:0.816171
G1 X214.059 Y106.657 E5.80998
;WIDTH:0.767196
G1 X214.084 Y106.73 E5.81463
;WIDTH:0.718221
G1 X214.108 Y106.803 E5.81894
;WIDTH:0.669246
G1 X214.133 Y106.876 E5.82296
;WIDTH:0.620271
G1 X214.143 Y107.137 E5.8355
;WIDTH:0.599999
G1 X214.143 Y112.791 E6.0974
;WIDTH:0.64419
G1 X214.121 Y112.907 E6.1033
;WIDTH:0.688381
G1 X214.099 Y113.024 E6.10969
;WIDTH:0.732571
G1 X214.077 Y113.14 E6.11646
;WIDTH:0.776762
G1 X214.055 Y113.257 E6.12372
;WIDTH:0.820953
G1 X214.032 Y113.373 E6.13137
;WIDTH:0.865143
G1 X214.01 Y113.49 E6.13951
G1 X214.024 Y113.999 E6.17432
;WIDTH:0.837597
G1 X214.024 Y148.001 E8.42109
;WIDTH:0.865145
G1 X214.01 Y148.51 E8.4559
G1 X214.035 Y148.583 E8.46118
;WIDTH:0.816167
G1 X214.059 Y148.657 E8.46618
;WIDTH:0.767189
G1 X214.084 Y148.73 E8.47083
;WIDTH:0.718211
G1 X214.108 Y148.803 E8.47514
;WIDTH:0.669233
G1 X214.133 Y148.876 E8.47916
;WIDTH:0.620255
G1 X214.143 Y149.137 E8.4917
;WIDTH:0.599999
G1 X214.143 Y154.791 E8.7536
;WIDTH:0.64419
G1 X214.121 Y154.907 E8.7595
;WIDTH:0.688381
G1 X214.099 Y155.024 E8.76589
;WIDTH:0.732572
G1 X214.077 Y155.14 E8.77266
;WIDTH:0.776763
G1 X214.055 Y155.257 E8.77992
;WIDTH:0.820954
G1 X214.032 Y155.373 E8.78757
;WIDTH:0.865144
G1 X214.01 Y155.49 E8.79571
G1 X214.024 Y155.999 E8.83052
;WIDTH:0.837595
G1 X214.024 Y189.91 E11.07127
G1 X213.992 Y190.228 E11.09239
;WIDTH:0.831616
G1 X213.923 Y190.73 E11.12562
G1 X213.831 Y190.993 E11.14389
;WIDTH:0.83591
G1 X213.555 Y191.584 E11.1869
G1 X213.166 Y192.093 E11.22914
;WIDTH:0.831616
G1 X212.551 Y192.583 E11.28071
G1 X211.829 Y192.896 E11.33232
G1 X211.556 Y192.948 E11.35055
;WIDTH:0.837597
G1 X210.936 Y193.024 E11.39182
G1 X176.999 Y193.024 E13.6343
;WIDTH:0.865145
G1 X176.49 Y193.01 E13.66911
G1 X176.417 Y193.035 E13.67439
;WIDTH:0.816177
G1 X176.343 Y193.059 E13.67939
;WIDTH:0.767209
G1 X176.27 Y193.084 E13.68404
;WIDTH:0.718241
G1 X176.197 Y193.108 E13.68836
;WIDTH:0.669273
G1 X176.124 Y193.133 E13.69238
;WIDTH:0.620305
G1 X175.863 Y193.143 E13.70492
;WIDTH:0.599999
G1 X170.209 Y193.143 E13.96682
;WIDTH:0.64419
G1 X170.093 Y193.121 E13.97272
;WIDTH:0.688381
G1 X169.976 Y193.099 E13.97911
;WIDTH:0.732571
G1 X169.86 Y193.077 E13.98588
;WIDTH:0.776762
G1 X169.743 Y193.055 E13.99314
;WIDTH:0.820953
G1 X169.627 Y193.032 E14.00079
;WIDTH:0.865143
G1 X169.51 Y193.01 E14.00893
G1 X169.001 Y193.024 E14.04374
;WIDTH:0.837597
G1 X134.999 Y193.024 E16.29051
;WIDTH:0.865145
G1 X134.49 Y193.01 E16.32532
G1 X134.417 Y193.035 E16.3306
;WIDTH:0.816172
G1 X134.343 Y193.059 E16.3356
;WIDTH:0.767198
G1 X134.27 Y193.084 E16.34025
;WIDTH:0.718224
G1 X134.197 Y193.108 E16.34456
;WIDTH:0.66925
G1 X134.124 Y193.133 E16.34858
;WIDTH:0.620276
G1 X133.863 Y193.143 E16.36112
;WIDTH:0.599999
G1 X128.209 Y193.143 E16.62302
;WIDTH:0.64419
G1 X128.093 Y193.121 E16.62892
;WIDTH:0.688381
G1 X127.976 Y193.099 E16.63531
;WIDTH:0.732571
G1 X127.86 Y193.077 E16.64208
;WIDTH:0.776762
G1 X127.743 Y193.055 E16.64934
;WIDTH:0.820953
G1 X127.627 Y193.032 E16.65699
;WIDTH:0.865143
G1 X127.51 Y193.01 E16.66513
G1 X127.001 Y193.024 E16.69994
;WIDTH:0.837597
G1 X92.999 Y193.024 E18.94671
;WIDTH:0.865145
G1 X92.49 Y193.01 E18.98152
G1 X92.417 Y193.035 E18.9868
;WIDTH:0.816171
G1 X92.343 Y193.059 E18.9918
;WIDTH:0.767197
G1 X92.27 Y193.084 E18.99645
;WIDTH:0.718222
G1 X92.197 Y193.108 E19.00076
;WIDTH:0.669248
G1 X92.124 Y193.133 E19.00478
;WIDTH:0.620273
G1 X91.863 Y193.143 E19.01732
;WIDTH:0.599999
G1 X86.209 Y193.143 E19.27922
;WIDTH:0.64419
G1 X86.093 Y193.121 E19.28512
;WIDTH:0.688381
G1 X85.976 Y193.099 E19.29151
;WIDTH:0.732571
G1 X85.86 Y193.077 E19.29828
;WIDTH:0.776762
G1 X85.743 Y193.055 E19.30554
;WIDTH:0.820953
G1 X85.627 Y193.032 E19.31319
;WIDTH:0.865143
G1 X85.51 Y193.01 E19.32133
G1 X85.001 Y193.024 E19.35614
;WIDTH:0.837597
G1 X50.999 Y193.024 E21.60291
;WIDTH:0.865145
G1 X50.49 Y193.01 E21.63772
G1 X50.417 Y193.035 E21.643
;WIDTH:0.816173
G1 X50.343 Y193.059 E21.648
;WIDTH:0.767201
G1 X50.27 Y193.084 E21.65265
;WIDTH:0.718229
G1 X50.197 Y193.108 E21.65696
;WIDTH:0.669257
G1 X50.124 Y193.133 E21.66098
;WIDTH:0.620285
G1 X49.863 Y193.143 E21.67352
;WIDTH:0.599999
G1 X44.209 Y193.143 E21.93542
;WIDTH:0.64419
G1 X44.093 Y193.121 E21.94132
;WIDTH:0.688381
G1 X43.976 Y193.099 E21.94771
;WIDTH:0.732571
G1 X43.86 Y193.077 E21.95448
;WIDTH:0.776762
G1 X43.743 Y193.055 E21.96174
;WIDTH:0.820953
G1 X43.627 Y193.032 E21.96939
;WIDTH:0.865143
G1 X43.51 Y193.01 E21.97753
G1 X43.001 Y193.024 E22.01234
;WIDTH:0.837596
G1 X9.09 Y193.024 E24.2531
G1 X8.773 Y192.992 E24.27415
;WIDTH:0.831617
G1 X8.27 Y192.923 E24.30745
G1 X8.007 Y192.831 E24.32572
;WIDTH:0.835917
G1 X7.416 Y192.555 E24.36873
G1 X6.836 Y192.094 E24.41758
;WIDTH:0.83133
G1 X6.518 Y191.681 E24.45175
;WIDTH:0.825851
G1 X6.296 Y191.3 E24.48046
;WIDTH:0.831611
G1 X6.104 Y190.829 E24.51382
G1 X6.052 Y190.556 E24.53205
;WIDTH:0.8376
G1 X5.976 Y189.936 E24.57332
G1 X5.976 Y155.999 E26.81581
;WIDTH:0.865138
G1 X5.99 Y155.49 E26.85062
G1 X5.965 Y155.417 E26.8559
;WIDTH:0.816158
G1 X5.941 Y155.343 E26.8609
;WIDTH:0.767178
G1 X5.916 Y155.27 E26.86555
;WIDTH:0.718198
G1 X5.892 Y155.197 E26.86986
;WIDTH:0.669218
G1 X5.867 Y155.124 E26.87388
;WIDTH:0.620237
G1 X5.857 Y154.791 E26.88987
;WIDTH:0.599999
G1 X5.857 Y149.209 E27.14844
;WIDTH:0.644189
G1 X5.879 Y149.093 E27.15434
;WIDTH:0.688378
G1 X5.901 Y148.976 E27.16073
;WIDTH:0.732568
G1 X5.923 Y148.86 E27.1675
;WIDTH:0.776757
G1 X5.945 Y148.743 E27.17476
;WIDTH:0.820947
G1 X5.968 Y148.627 E27.18241
;WIDTH:0.865136
G1 X5.99 Y148.51 E27.19055
G1 X5.976 Y148.001 E27.22536
;WIDTH:0.837601
G1 X5.976 Y113.999 E29.47214
;WIDTH:0.865136
G1 X5.99 Y113.49 E29.50695
G1 X5.965 Y113.417 E29.51223
;WIDTH:0.81615
G1 X5.941 Y113.343 E29.51723
;WIDTH:0.767163
G1 X5.916 Y113.27 E29.52188
;WIDTH:0.718177
G1 X5.892 Y113.197 E29.52619
;WIDTH:0.66919
G1 X5.867 Y113.124 E29.53021
;WIDTH:0.620203
G1 X5.857 Y112.791 E29.5462
;WIDTH:0.599999
G1 X5.857 Y107.209 E29.80477
;WIDTH:0.644189
G1 X5.879 Y107.093 E29.81067
;WIDTH:0.688379
G1 X5.901 Y106.976 E29.81706
;WIDTH:0.732568
G1 X5.923 Y106.86 E29.82383
;WIDTH:0.776758
G1 X5.945 Y106.743 E29.83109
;WIDTH:0.820948
G1 X5.968 Y106.627 E29.83874
;WIDTH:0.865137
G1 X5.99 Y106.51 E29.84688
G1 X5.976 Y106.001 E29.88169
;WIDTH:0.837601
G1 X5.976 Y71.999 E32.12847
;WIDTH:0.865137
G1 X5.99 Y71.49 E32.16328
G1 X5.965 Y71.417 E32.16856
;WIDTH:0.816152
G1 X5.941 Y71.343 E32.17356
;WIDTH:0.767167
G1 X5.916 Y71.27 E32.17821
;WIDTH:0.718182
G1 X5.892 Y71.197 E32.18252
;WIDTH:0.669197
G1 X5.867 Y71.124 E32.18654
;WIDTH:0.620211
G1 X5.857 Y70.791 E32.20253
;WIDTH:0.599999
G1 X5.857 Y65.209 E32.4611
;WIDTH:0.644189
G1 X5.879 Y65.093 E32.467
;WIDTH:0.688379
G1 X5.901 Y64.976 E32.47339
;WIDTH:0.732568
G1 X5.923 Y64.86 E32.48016
;WIDTH:0.776758
G1 X5.945 Y64.743 E32.48742
;WIDTH:0.820948
G1 X5.968 Y64.627 E32.49507
;WIDTH:0.865137
G1 X5.99 Y64.51 E32.50321
G1 X5.976 Y64.001 E32.53802
;WIDTH:0.8376
G1 X5.976 Y30.09 E34.77879
G1 X6.008 Y29.773 E34.79984
;WIDTH:0.83161
G1 X6.077 Y29.27 E34.83314
G1 X6.366 Y28.539 E34.88469
G1 X6.834 Y27.907 E34.93626
G1 X7.449 Y27.417 E34.98783
G1 X8.171 Y27.104 E35.03944
G1 X8.444 Y27.052 E35.05767
;WIDTH:0.8376
G1 X9.09 Y26.976 E35.10065
G1 X43.001 Y26.976 E37.34142
;WIDTH:0.864844
G1 X43.51 Y26.99 E37.37622
G1 X43.583 Y26.966 E37.38147
;WIDTH:0.815923
G1 X43.657 Y26.941 E37.38649
;WIDTH:0.767002
G1 X43.73 Y26.917 E37.39112
;WIDTH:0.718081
G1 X43.803 Y26.892 E37.39545
;WIDTH:0.66916
G1 X43.876 Y26.868 E37.39945
;WIDTH:0.620238
G1 X44.209 Y26.858 E37.41544
;WIDTH:0.599999
G1 X49.791 Y26.858 E37.67401
;WIDTH:0.644131
G1 X49.907 Y26.88 E37.67991
;WIDTH:0.688262
G1 X50.024 Y26.902 E37.6863
;WIDTH:0.732393
G1 X50.14 Y26.924 E37.69307
;WIDTH:0.776524
G1 X50.257 Y26.946 E37.70033
;WIDTH:0.820655
G1 X50.373 Y26.968 E37.70797
;WIDTH:0.864786
G1 X50.49 Y26.99 E37.71611
G1 X50.999 Y26.976 E37.75091
;WIDTH:0.837246
G1 X85.001 Y26.977 E39.99669
;WIDTH:0.864489
G1 X85.51 Y26.991 E40.03147
G1 X85.583 Y26.966 E40.03674
;WIDTH:0.815647
G1 X85.656 Y26.942 E40.04168
;WIDTH:0.766805
G1 X85.73 Y26.917 E40.04638
;WIDTH:0.717963
G1 X85.803 Y26.893 E40.05069
;WIDTH:0.669121
G1 X85.876 Y26.869 E40.05469
;WIDTH:0.620278
G1 X86.209 Y26.858 E40.07069
;WIDTH:0.599999
G1 X91.791 Y26.858 E40.32926
;WIDTH:0.644071
G1 X91.907 Y26.881 E40.33517
;WIDTH:0.688143
G1 X92.024 Y26.903 E40.34156
;WIDTH:0.732215
G1 X92.14 Y26.925 E40.34833
;WIDTH:0.776287
G1 X92.257 Y26.947 E40.35559
;WIDTH:0.820359
G1 X92.373 Y26.969 E40.36322
;WIDTH:0.86443
G1 X92.49 Y26.991 E40.37135
G1 X92.999 Y26.977 E40.40613
;WIDTH:0.836893
G1 X127.001 Y26.977 E42.65091
;WIDTH:0.864133
G1 X127.51 Y26.991 E42.68568
G1 X127.583 Y26.967 E42.69093
;WIDTH:0.815369
G1 X127.656 Y26.942 E42.69589
;WIDTH:0.766605
G1 X127.73 Y26.918 E42.70057
;WIDTH:0.717841
G1 X127.803 Y26.894 E42.70488
;WIDTH:0.669077
G1 X127.876 Y26.869 E42.7089
;WIDTH:0.620312
G1 X128.209 Y26.859 E42.72489
;WIDTH:0.599999
G1 X133.791 Y26.859 E42.98346
;WIDTH:0.644012
G1 X133.908 Y26.881 E42.98941
;WIDTH:0.688025
G1 X134.024 Y26.903 E42.99574
;WIDTH:0.732037
G1 X134.141 Y26.925 E43.00256
;WIDTH:0.77605
G1 X134.257 Y26.947 E43.00976
;WIDTH:0.820063
G1 X134.374 Y26.969 E43.01745
;WIDTH:0.864075
G1 X134.49 Y26.991 E43.02551
G1 X134.999 Y26.977 E43.06028
;WIDTH:0.836539
G1 X169.001 Y26.978 E45.30406
;WIDTH:0.863777
G1 X169.51 Y26.992 E45.33881
G1 X169.583 Y26.967 E45.34408
;WIDTH:0.815088
G1 X169.656 Y26.943 E45.34901
;WIDTH:0.766399
G1 X169.73 Y26.919 E45.35369
;WIDTH:0.71771
G1 X169.803 Y26.894 E45.35802
;WIDTH:0.669021
G1 X169.876 Y26.87 E45.36202
;WIDTH:0.620332
G1 X170.209 Y26.86 E45.37802
;WIDTH:0.599999
G1 X175.791 Y26.86 E45.63659
;WIDTH:0.643953
G1 X175.908 Y26.882 E45.64254
;WIDTH:0.687906
G1 X176.024 Y26.904 E45.64887
;WIDTH:0.731859
G1 X176.141 Y26.926 E45.65569
;WIDTH:0.775813
G1 X176.257 Y26.948 E45.66289
;WIDTH:0.819766
G1 X176.374 Y26.97 E45.67058
;WIDTH:0.863719
G1 X176.49 Y26.992 E45.67864
G1 X176.999 Y26.978 E45.71339
;WIDTH:0.836183
G1 X210.936 Y26.978 E47.95188
;WIDTH:0.835897
G1 X211.227 Y27.008 E47.97117
;WIDTH:0.83161
G1 X211.67 Y27.069 E48.0005
G1 X211.957 Y26.429 F18000
;TYPE:External perimeter
;WIDTH:0.599999
G1 F1800
G1 X212.849 Y26.798 E48.04521
G1 X213.614 Y27.386 E48.0899
G1 X214.117 Y28.04 E48.12812
G1 X214.256 Y28.281 E48.14101
G1 X214.571 Y29.043 E48.1792
G1 X214.7 Y30.02 E48.22485
G1 X214.7 Y189.98 E55.63441
G1 X214.571 Y190.957 E55.68006
G1 X214.202 Y191.849 E55.72477
G1 X213.614 Y192.614 E55.76946
G1 X212.849 Y193.202 E55.81415
G1 X211.957 Y193.571 E55.85886
G1 X210.98 Y193.7 E55.90451
G1 X9.02 Y193.7 E65.25956
G1 X8.043 Y193.571 E65.30521
G1 X7.151 Y193.202 E65.34992
G1 X6.386 Y192.615 E65.39459
G1 X5.788 Y191.825 E65.44049
G1 X5.429 Y190.957 E65.484
G1 X5.3 Y189.98 E65.52965
G1 X5.3 Y30.02 E72.93921
G1 X5.429 Y29.043 E72.98486
G1 X5.798 Y28.151 E73.02957
G1 X6.386 Y27.386 E73.07426
G1 X7.151 Y26.798 E73.11895
G1 X8.043 Y26.429 E73.16366
G1 X9.02 Y26.3 E73.20931
G1 X211.006 Y26.303 E82.56557
G1 X211.897 Y26.421 E82.6072
G1 X212.06 Y26.815 F18000
G1 X211.642 Y27.892
;TYPE:Perimeter
;WIDTH:0.825854
G1 F1800
G1 X211.934 Y27.992 E82.62729
;WIDTH:0.826575
G1 X212.444 Y28.32 E82.6668
G1 X212.654 Y28.521 E82.68574
;WIDTH:0.825854
G1 X212.981 Y28.999 E82.72344
;WIDTH:0.825859
G1 X213.172 Y29.546 E82.76116
;WIDTH:0.837596
G1 X213.229 Y30.09 E82.7973
G1 X213.229 Y64.001 E85.03806
;WIDTH:0.865144
G1 X213.192 Y64.456 E85.06927
G1 X213.156 Y64.496 E85.07295
;WIDTH:0.816173
G1 X213.12 Y64.535 E85.07636
;WIDTH:0.767202
G1 X213.085 Y64.575 E85.07956
;WIDTH:0.718231
G1 X213.049 Y64.614 E85.08254
;WIDTH:0.66926
G1 X213.013 Y64.654 E85.08534
;WIDTH:0.620289
G1 X212.818 Y65.048 E85.10645
;WIDTH:0.599999
G1 X212.41 Y65.565 E85.13696
G1 X211.957 Y65.876 E85.16241
G1 X211.439 Y66.06 E85.18787
G1 X211.001 Y66.111 E85.2083
G1 X176.999 Y66.111 E86.78332
G1 X176.45 Y66.038 E86.80897
G1 X175.952 Y65.818 E86.83419
G1 X175.507 Y65.493 E86.85972
G1 X175.199 Y65.099 E86.88289
G1 X174.992 Y64.624 E86.90689
G1 X174.889 Y64.001 E86.93614
G1 X174.889 Y29.999 E88.51116
G1 X174.95 Y29.502 E88.53435
G1 X175.124 Y29.043 E88.55709
G1 X175.435 Y28.59 E88.58254
G1 X175.854 Y28.233 E88.60804
;WIDTH:0.630147
G1 X176.096 Y28.101 E88.6215
;WIDTH:0.660295
G1 X176.339 Y27.968 E88.63572
;WIDTH:0.70098
G1 X176.38 Y27.937 E88.63853
;WIDTH:0.741665
G1 X176.421 Y27.905 E88.64155
;WIDTH:0.78235
G1 X176.462 Y27.873 E88.64475
;WIDTH:0.823035
G1 X176.503 Y27.841 E88.64812
;WIDTH:0.863719
G1 X176.544 Y27.809 E88.65167
G1 X176.999 Y27.771 E88.68283
;WIDTH:0.836183
G1 X210.936 Y27.771 E90.92132
;WIDTH:0.835897
G1 X211.454 Y27.828 E90.95568
;WIDTH:0.825854
G1 X211.585 Y27.873 E90.9647
G1 X211.409 Y28.507 F18000
;TYPE:External perimeter
;WIDTH:0.599999
G1 F1800
G1 X211.73 Y28.639 E90.98078
G1 X212.123 Y28.929 E91.0034
G1 X212.362 Y29.256 E91.02216
G1 X212.508 Y29.634 E91.04093
G1 X212.554 Y30.09 E91.06216
G1 X212.554 Y64.001 E92.63296
G1 X212.489 Y64.437 E92.65338
G1 X212.361 Y64.73 E92.66819
G1 X212.071 Y65.123 E92.69081
G1 X211.744 Y65.362 E92.70957
G1 X211.366 Y65.508 E92.72834
G1 X211.001 Y65.554 E92.74538
G1 X176.999 Y65.554 E94.3204
G1 X176.563 Y65.489 E94.34082
G1 X176.27 Y65.361 E94.35563
G1 X175.877 Y65.071 E94.37825
G1 X175.611 Y64.677 E94.40027
G1 X175.487 Y64.251 E94.42082
G1 X175.446 Y64.001 E94.43256
G1 X175.446 Y29.999 E96.00758
G1 X175.511 Y29.563 E96.028
G1 X175.675 Y29.193 E96.04675
G1 X175.929 Y28.877 E96.06553
G1 X176.256 Y28.638 E96.08429
G1 X176.634 Y28.492 E96.10306
G1 X176.999 Y28.446 E96.1201
G1 X211.001 Y28.446 E97.69512
G1 X211.35 Y28.498 E97.71146
G1 X211.655 Y28.261 F18000
;WIPE_START
G1 F14400
G1 X211.73 Y28.639 E97.63926
G1 X212.123 Y28.929 E97.55226
G1 X212.362 Y29.256 E97.48011
G1 X212.508 Y29.634 E97.40793
G1 X212.554 Y30.09 E97.32629
G1 X212.554 Y31.296 E97.11146
;WIPE_END
G92 E0
G1 Z.4 F18000
G1 X170.976 Y29.291
G1 Z.2
G1 E.6 F2700
;TYPE:Perimeter
G1 F1800
G1 X171.004 Y29.35 E.60303
G1 X171.111 Y29.999 E.6335
G1 X171.111 Y64.001 E2.20852
