; generated by PrusaSlicer 2.6.0-alpha5+win64 on 2023-03-18 at 18:58:17 UTC

; 

; external perimeters extrusion width = 0.40mm
; perimeters extrusion width = 0.40mm
; infill extrusion width = 0.40mm
; solid infill extrusion width = 0.40mm
; top infill extrusion width = 0.40mm
; support material extrusion width = 0.40mm
; first layer extrusion width = 0.60mm

M107
M190 S60 ; set bed temperature and wait for it to be reached
M104 S215 ; set temperature
;TYPE:Custom
SET_GCODE_VARIABLE MACRO=START_PRINT VARIABLE=bed_temp VALUE=60
SET_GCODE_VARIABLE MACRO=START_PRINT VARIABLE=extruder_temp VALUE=215
START_PRINT
M109 S215 ; set temperature and wait for it to be reached
G21 ; set units to millimeters
G90 ; use absolute coordinates
M82 ; use absolute distances for extrusion
G92 E0
; Filament gcode
M107
;LAYER_CHANGE
;Z:0.2
;HEIGHT:0.2
;BEFORE_LAYER_CHANGE
;0.2


G1 Z.2 F18000
;AFTER_LAYER_CHANGE
;0.2
G1 E-.6 F2700
G92 E0
G1 Z.4 F18000
G1 X124.949 Y129.905
G1 Z.2
G1 E.6 F2700
;TYPE:Perimeter
;WIDTH:0.599999
G1 F1800
G1 X125.266 Y129.661 E.61853
G1 X125.357 Y129.527 E.62603
G1 X125.493 Y129.111 E.6463
G1 X127.001 Y129.111 E.71615
G1 X127.55 Y129.038 E.7418
G1 X128.063 Y128.824 E.76755
G1 X128.493 Y128.493 E.79269
G1 X128.824 Y128.063 E.81783
G1 X129.038 Y127.55 E.84358
G1 X129.111 Y127.001 E.86923
G1 X129.111 Y125.766 E.92644
;WIDTH:0.640182
G1 X129.131 Y124.563 E.98619
G1 X129.315 Y124.979 E1.00878
;WIDTH:0.599999
G1 X129.718 Y125.379 E1.03508
G1 X130.193 Y125.516 E1.05798
G1 X131.236 Y125.515 E1.10629
G1 X131.607 Y125.406 E1.1242
G1 X131.851 Y125.266 E1.13723
G1 X132.095 Y124.949 E1.15576
G1 X132.339 Y125.266 E1.17429
G1 X132.473 Y125.357 E1.18179
G1 X132.889 Y125.493 E1.20206
G1 X132.889 Y127.001 E1.27191
G1 X132.962 Y127.55 E1.29756
G1 X133.176 Y128.063 E1.32331
G1 X133.507 Y128.493 E1.34845
G1 X133.917 Y128.811 E1.37248
G1 X134.45 Y129.038 E1.39932
G1 X134.999 Y129.111 E1.42497
G1 X136.124 Y129.111 E1.47708
;WIDTH:0.644006
G1 X137.392 Y129.133 E1.54046
G1 X136.961 Y129.347 E1.56451
;WIDTH:0.599999
G1 X136.594 Y129.783 E1.59091
G1 X136.48 Y130.247 E1.61304
G1 X136.487 Y131.266 E1.66024
G1 X136.642 Y131.714 E1.6822
G1 X136.875 Y131.987 E1.69883
G1 X137.058 Y132.093 E1.70863
G1 X136.706 Y132.379 E1.72964
G1 X136.567 Y132.623 E1.74265
G1 X136.503 Y132.889 E1.75532
G1 X134.999 Y132.889 E1.82499
G1 X134.45 Y132.962 E1.85064
G1 X133.95 Y133.183 E1.87596
G1 X133.507 Y133.507 E1.90138
G1 X133.176 Y133.937 E1.92652
G1 X132.962 Y134.45 E1.95227
G1 X132.889 Y134.999 E1.97792
G1 X132.889 Y136.898 E2.06588
;WIDTH:0.631108
G1 X132.874 Y137.539 E2.09724
G1 X132.746 Y137.122 E2.11857
;WIDTH:0.599999
G1 X132.653 Y136.961 E2.12718
G1 X132.217 Y136.594 E2.15358
G1 X131.753 Y136.48 E2.17571
G1 X130.803 Y136.484 E2.21972
G1 X130.454 Y136.562 E2.23628
G1 X130.134 Y136.746 E2.25338
G1 X129.905 Y137.063 E2.27149
G1 X129.676 Y136.746 E2.2896
G1 X129.527 Y136.644 E2.29796
G1 X129.111 Y136.507 E2.31825
G1 X129.111 Y134.999 E2.3881
G1 X129.038 Y134.45 E2.41375
G1 X128.824 Y133.937 E2.4395
G1 X128.493 Y133.507 E2.46464
G1 X128.063 Y133.176 E2.48978
G1 X127.55 Y132.962 E2.51553
G1 X127.001 Y132.889 E2.54118
G1 X125.766 Y132.889 E2.59839
;WIDTH:0.640182
G1 X124.563 Y132.869 E2.65814
G1 X124.979 Y132.685 E2.68073
;WIDTH:0.599999
G1 X125.379 Y132.282 E2.70703
G1 X125.516 Y131.807 E2.72993
G1 X125.515 Y130.764 E2.77824
G1 X125.406 Y130.393 E2.79615
G1 X125.266 Y130.149 E2.80918
G1 X124.997 Y129.942 E2.8249
;WIPE_START
G1 F14400
G1 X125.266 Y129.661 E2.75561
G1 X125.357 Y129.527 E2.72676
G1 X125.493 Y129.111 E2.6488
G1 X127.001 Y129.111 E2.38019
G1 X127.55 Y129.038 E2.28154
G1 X127.843 Y128.916 E2.2249
;WIPE_END
G92 E0
G1 Z.4 F18000
G1 X132.252 Y114.516
G1 Z.2
G1 E.6 F2700
G1 F1800
G1 X133.788 Y114.516 E.67115
G1 X133.788 Y115.806 E.7309
G1 X132.774 Y115.806 E.77787
G1 X132.272 Y115.973 E.80238
G1 X132.251 Y116.014 E.80451
G1 X132.252 Y114.576 E.87112
;WIPE_START
G1 F14400
G1 X133.788 Y114.516 E.59731
G1 X133.788 Y115.806 E.36753
G1 X133.247 Y115.806 E.27112
;WIPE_END
G92 E0
G1 Z.4 F18000
G1 X129.111 Y108.16
G1 Z.2
G1 E.6 F2700
G1 F1800
G1 X131.757 Y108.16 E.72257
G1 X132.218 Y108.045 E.74458
G1 X132.688 Y107.614 E.77412
;WIDTH:0.640178
G1 X132.869 Y107.203 E.79642
G1 X132.889 Y107.658 E.81904
;WIDTH:0.599999
G1 X132.889 Y111.84 E1.01276
G1 X130.243 Y111.84 E1.13533
G1 X129.783 Y111.954 E1.15728
G1 X129.347 Y112.321 E1.18368
G1 X129.254 Y112.482 E1.19229
;WIDTH:0.631122
G1 X129.126 Y112.899 E1.21362
G1 X129.111 Y112.443 E1.23593
;WIDTH:0.599999
G1 X129.111 Y108.22 E1.43154
;WIPE_START
G1 F14400
G1 X131.757 Y108.16 E.9601
G1 X132.218 Y108.045 E.87547
G1 X132.4 Y107.878 E.83154
;WIPE_END
G92 E0
G1 Z.4 F18000
G1 X129.749 Y103.993
G1 Z.2
G1 E.6 F2700
G1 F1800
G1 X129.748 Y105.484 E.66907
G1 X128.212 Y105.484 E.74022
G1 X128.212 Y104.194 E.79997
G1 X129.226 Y104.194 E.84694
G1 X129.693 Y104.015 E.87011
;WIPE_START
G1 F14400
G1 X129.748 Y105.484 E.60826
G1 X128.212 Y105.484 E.33466
G1 X128.212 Y105.122 E.27011
;WIPE_END
G92 E0
G1 Z.4 F18000
G1 X130.61 Y94.536
G1 Z.2
G1 E.6 F2700
G1 F1800
G1 X130.287 Y94.642 E.61575
G1 X130.014 Y94.875 E.63238
G1 X129.903 Y95.054 E.64214
G1 X129.62 Y94.705 E.66295
G1 X129.377 Y94.567 E.67589
G1 X129.111 Y94.503 E.68856
G1 X129.111 Y92.999 E.75823
G1 X129.038 Y92.45 E.78388
G1 X128.824 Y91.937 E.80963
G1 X128.493 Y91.507 E.83477
G1 X128.063 Y91.176 E.85991
G1 X127.55 Y90.962 E.88566
G1 X127.001 Y90.889 E.91131
G1 X125.766 Y90.889 E.96852
;WIDTH:0.640184
G1 X124.563 Y90.869 E1.02827
G1 X124.979 Y90.685 E1.05086
;WIDTH:0.599999
G1 X125.379 Y90.282 E1.07716
G1 X125.516 Y89.807 E1.10006
G1 X125.515 Y88.764 E1.14837
G1 X125.406 Y88.393 E1.16628
G1 X125.266 Y88.149 E1.17931
G1 X124.949 Y87.905 E1.19784
G1 X125.266 Y87.661 E1.21637
G1 X125.356 Y87.527 E1.22385
G1 X125.493 Y87.111 E1.24414
G1 X127.001 Y87.111 E1.31399
G1 X127.55 Y87.038 E1.33964
G1 X128.063 Y86.824 E1.36539
G1 X128.493 Y86.493 E1.39053
G1 X128.824 Y86.063 E1.41567
G1 X129.038 Y85.55 E1.44142
G1 X129.111 Y85.001 E1.46707
G1 X129.111 Y83.876 E1.51918
;WIDTH:0.644012
G1 X129.133 Y82.608 E1.58257
G1 X129.347 Y83.039 E1.60662
;WIDTH:0.599999
G1 X129.783 Y83.406 E1.63302
G1 X130.247 Y83.52 E1.65515
G1 X131.197 Y83.516 E1.69916
G1 X131.546 Y83.438 E1.71572
G1 X131.828 Y83.285 E1.73058
G1 X132.077 Y82.975 E1.749
G1 X132.38 Y83.294 E1.76938
G1 X132.623 Y83.433 E1.78235
G1 X132.889 Y83.497 E1.79502
G1 X132.889 Y85.001 E1.86469
G1 X132.962 Y85.55 E1.89034
G1 X133.176 Y86.063 E1.91609
G1 X133.507 Y86.493 E1.94123
G1 X133.937 Y86.824 E1.96637
G1 X134.45 Y87.038 E1.99212
G1 X134.999 Y87.111 E2.01777
G1 X136.124 Y87.111 E2.06988
;WIDTH:0.644008
G1 X137.392 Y87.133 E2.13327
G1 X136.961 Y87.347 E2.15732
;WIDTH:0.599999
G1 X136.594 Y87.783 E2.18372
G1 X136.48 Y88.247 E2.20585
G1 X136.484 Y89.197 E2.24986
G1 X136.562 Y89.546 E2.26642
G1 X136.746 Y89.866 E2.28352
G1 X137.063 Y90.095 E2.30163
G1 X136.746 Y90.324 E2.31974
G1 X136.644 Y90.473 E2.3281
G1 X136.507 Y90.889 E2.34839
G1 X134.999 Y90.889 E2.41824
G1 X134.45 Y90.962 E2.44389
G1 X133.937 Y91.176 E2.46964
G1 X133.507 Y91.507 E2.49478
G1 X133.176 Y91.937 E2.51992
G1 X132.962 Y92.45 E2.54567
G1 X132.889 Y92.999 E2.57132
G1 X132.889 Y94.975 E2.66285
;WIDTH:0.627304
G1 X132.876 Y95.584 E2.69245
G1 X132.782 Y95.227 E2.71039
;WIDTH:0.601128
G1 X132.685 Y95.021 E2.72096
;WIDTH:0.599999
G1 X132.282 Y94.621 E2.74726
G1 X131.807 Y94.484 E2.77016
G1 X130.764 Y94.485 E2.81847
G1 X130.667 Y94.517 E2.8232
;WIPE_START
G1 F14400
G1 X130.287 Y94.642 E2.75194
G1 X130.014 Y94.875 E2.68801
G1 X129.903 Y95.054 E2.65049
G1 X129.62 Y94.705 E2.57045
G1 X129.377 Y94.567 E2.52067
G1 X129.111 Y94.503 E2.47194
G1 X129.111 Y93.107 E2.2232
;WIPE_END
G92 E0
G1 Z.4 F18000
G1 X114.516 Y87.748
G1 Z.2
G1 E.6 F2700
G1 F1800
G1 X114.516 Y86.212 E.67115
G1 X115.806 Y86.212 E.7309
G1 X115.806 Y87.226 E.77787
G1 X115.973 Y87.728 E.80238
G1 X116.014 Y87.749 E.80451
G1 X114.576 Y87.748 E.87112
;WIPE_START
G1 F14400
G1 X114.516 Y86.212 E.59731
G1 X115.806 Y86.212 E.36753
G1 X115.806 Y86.753 E.27112
;WIPE_END
G92 E0
G1 Z.4 F18000
G1 X108.16 Y90.889
G1 Z.2
G1 E.6 F2700
G1 F1800
G1 X108.16 Y88.242 E.72261
G1 X108.081 Y87.886 E.7395
G1 X107.984 Y87.681 E.75001
G1 X107.515 Y87.252 E.77945
;WIDTH:0.627326
G1 X107.055 Y87.124 E.80265
G1 X107.54 Y87.111 E.82623
;WIDTH:0.599999
G1 X111.84 Y87.111 E1.02541
G1 X111.84 Y89.758 E1.14802
G1 X111.919 Y90.114 E1.16491
G1 X112.016 Y90.319 E1.17542
G1 X112.485 Y90.748 E1.20486
;WIDTH:0.627322
G1 X112.945 Y90.876 E1.22806
G1 X112.46 Y90.889 E1.25164
;WIDTH:0.599999
G1 X108.22 Y90.889 E1.44804
;WIPE_START
G1 F14400
G1 X108.16 Y88.242 E.97642
G1 X108.081 Y87.886 E.91146
G1 X107.984 Y87.681 E.87106
G1 X107.889 Y87.594 E.84804
;WIPE_END
G92 E0
G1 Z.4 F18000
G1 X105.484 Y90.252
G1 Z.2
G1 E.6 F2700
G1 F1800
G1 X105.484 Y91.788 E.67115
G1 X104.194 Y91.788 E.7309
G1 X104.194 Y90.774 E.77787
G1 X104.027 Y90.272 E.80238
G1 X103.986 Y90.251 E.80451
G1 X105.424 Y90.252 E.87112
;WIPE_START
G1 F14400
G1 X105.484 Y91.788 E.59731
G1 X104.194 Y91.788 E.36753
G1 X104.194 Y91.247 E.27112
;WIPE_END
G92 E0
G1 Z.4 F18000
G1 X95.438 Y87.131
G1 Z.2
G1 E.6 F2700
;WIDTH:0.640184
G1 F1800
G1 X95.109 Y87.259 E.61753
;WIDTH:0.603972
G1 X94.647 Y87.695 E.64717
;WIDTH:0.599999
G1 X94.555 Y87.897 E.65745
G1 X94.48 Y88.247 E.67403
G1 X94.484 Y89.197 E.71804
G1 X94.617 Y89.645 E.73969
G1 X94.843 Y89.953 E.75739
G1 X95.04 Y90.102 E.76883
G1 X94.829 Y90.241 E.78053
G1 X94.621 Y90.518 E.79658
G1 X94.507 Y90.889 E.81456
G1 X92.999 Y90.889 E.88441
G1 X92.45 Y90.962 E.91006
G1 X91.937 Y91.176 E.93581
G1 X91.507 Y91.507 E.96095
G1 X91.176 Y91.937 E.98609
G1 X90.962 Y92.45 E1.01184
G1 X90.889 Y92.999 E1.03749
G1 X90.889 Y94.552 E1.10943
;WIDTH:0.628378
G1 X90.875 Y94.957 E1.12916
;WIDTH:0.656756
G1 X90.861 Y95.361 E1.14979
G1 X90.816 Y95.231 E1.15681
;WIDTH:0.637127
G1 X90.472 Y94.769 E1.18527
;WIDTH:0.599999
G1 X90.284 Y94.637 E1.19591
G1 X89.806 Y94.484 E1.21916
G1 X88.764 Y94.485 E1.26743
G1 X88.393 Y94.594 E1.28534
G1 X88.149 Y94.734 E1.29837
G1 X87.919 Y95.027 E1.31562
G1 X87.661 Y94.734 E1.3337
G1 X87.527 Y94.644 E1.34118
G1 X87.111 Y94.507 E1.36147
G1 X87.111 Y92.999 E1.43132
G1 X87.038 Y92.45 E1.45697
G1 X86.824 Y91.937 E1.48272
G1 X86.493 Y91.507 E1.50786
G1 X86.063 Y91.176 E1.533
G1 X85.55 Y90.962 E1.55875
G1 X85.001 Y90.889 E1.5844
G1 X83.876 Y90.889 E1.63651
;WIDTH:0.644012
G1 X82.608 Y90.867 E1.6999
G1 X83.039 Y90.653 E1.72395
;WIDTH:0.599999
G1 X83.406 Y90.217 E1.75035
G1 X83.52 Y89.753 E1.77248
G1 X83.516 Y88.803 E1.81649
G1 X83.438 Y88.454 E1.83305
G1 X83.266 Y88.149 E1.84927
G1 X82.975 Y87.923 E1.86634
G1 X83.267 Y87.661 E1.88451
G1 X83.357 Y87.527 E1.89199
G1 X83.493 Y87.111 E1.91226
G1 X85.001 Y87.111 E1.98211
G1 X85.55 Y87.038 E2.00776
G1 X86.063 Y86.824 E2.03351
G1 X86.493 Y86.493 E2.05865
G1 X86.824 Y86.063 E2.08379
G1 X87.038 Y85.55 E2.10954
G1 X87.111 Y85.001 E2.13519
G1 X87.111 Y83.605 E2.19985
;WIDTH:0.640182
G1 X87.131 Y82.562 E2.25166
G1 X87.249 Y82.876 E2.26832
;WIDTH:0.60588
G1 X87.619 Y83.311 E2.29505
;WIDTH:0.599999
G1 X87.78 Y83.404 E2.30366
G1 X88.194 Y83.516 E2.32353
G1 X89.236 Y83.515 E2.3718
G1 X89.608 Y83.405 E2.38977
G1 X89.866 Y83.254 E2.40362
G1 X90.095 Y82.937 E2.42173
G1 X90.324 Y83.254 E2.43984
G1 X90.473 Y83.356 E2.4482
G1 X90.889 Y83.493 E2.46849
G1 X90.889 Y85.001 E2.53834
G1 X90.962 Y85.55 E2.56399
G1 X91.176 Y86.063 E2.58974
G1 X91.507 Y86.493 E2.61488
G1 X91.937 Y86.824 E2.64002
G1 X92.45 Y87.038 E2.66577
G1 X92.999 Y87.111 E2.69142
G1 X94.271 Y87.111 E2.75034
;WIDTH:0.640184
G1 X95.378 Y87.13 E2.80532
;WIPE_START
G1 F14400
G1 X95.109 Y87.259 E2.75218
G1 X94.647 Y87.695 E2.63903
G1 X94.555 Y87.897 E2.59949
G1 X94.48 Y88.247 E2.53573
G1 X94.484 Y89.197 E2.36651
G1 X94.617 Y89.645 E2.28327
G1 X94.843 Y89.953 E2.21522
G1 X94.887 Y89.987 E2.20532
;WIPE_END
G92 E0
G1 Z.4 F18000
G1 X86.212 Y104.194
G1 Z.2
G1 E.6 F2700
;WIDTH:0.599999
G1 F1800
G1 X87.226 Y104.194 E.64697
G1 X87.749 Y103.993 E.67292
G1 X87.748 Y105.484 E.74199
G1 X86.212 Y105.484 E.81314
G1 X86.212 Y104.254 E.87012
;WIPE_START
G1 F14400
G1 X87.226 Y104.194 E.68919
G1 X87.749 Y103.993 E.58939
G1 X87.748 Y105.484 E.32381
G1 X87.447 Y105.484 E.27012
;WIPE_END
G92 E0
G1 Z.4 F18000
G1 X87.111 Y108.16
G1 Z.2
G1 E.6 F2700
G1 F1800
G1 X89.758 Y108.16 E.72261
G1 X90.114 Y108.081 E.7395
G1 X90.319 Y107.984 E.75001
;WIDTH:0.605881
G1 X90.751 Y107.516 E.77982
;WIDTH:0.640188
G1 X90.869 Y107.203 E.79643
G1 X90.886 Y107.54 E.81319
;WIDTH:0.605881
G1 X90.889 Y108.345 E.85087
;WIDTH:0.599999
G1 X90.889 Y111.84 E1.01276
G1 X88.242 Y111.84 E1.13537
G1 X87.886 Y111.92 E1.15227
G1 X87.68 Y112.016 E1.1628
G1 X87.252 Y112.485 E1.19221
;WIDTH:0.627322
G1 X87.124 Y112.945 E1.21541
G1 X87.111 Y112.46 E1.23899
;WIDTH:0.599999
G1 X87.111 Y108.22 E1.43539
;WIPE_START
G1 F14400
G1 X89.758 Y108.16 E.96377
G1 X90.114 Y108.081 E.89881
G1 X90.319 Y107.984 E.85841
G1 X90.407 Y107.889 E.83539
;WIPE_END
G92 E0
G1 Z.4 F18000
G1 X91.788 Y114.516
G1 Z.2
G1 E.6 F2700
G1 F1800
G1 X91.788 Y115.806 E.65975
G1 X90.774 Y115.806 E.70672
G1 X90.272 Y115.973 E.73123
G1 X90.251 Y116.014 E.73336
G1 X90.252 Y114.516 E.80275
G1 X91.728 Y114.516 E.87112
;WIPE_START
G1 F14400
G1 X91.788 Y115.806 E.64109
G1 X90.774 Y115.806 E.46047
G1 X90.272 Y115.973 E.36623
G1 X90.251 Y116.014 E.35802
G1 X90.251 Y115.526 E.27112
;WIPE_END
G92 E0
G1 Z.4 F18000
G1 X95.437 Y129.131
G1 Z.2
G1 E.6 F2700
;WIDTH:0.640184
G1 F1800
G1 X95.233 Y129.193 E.61059
;WIDTH:0.618632
G1 X94.769 Y129.528 E.63799
;WIDTH:0.599999
G1 X94.637 Y129.716 E.64863
G1 X94.484 Y130.194 E.67188
G1 X94.485 Y131.236 E.72015
G1 X94.594 Y131.607 E.73806
G1 X94.734 Y131.851 E.75109
G1 X95.051 Y132.095 E.76962
G1 X94.734 Y132.339 E.78815
G1 X94.644 Y132.473 E.79563
G1 X94.507 Y132.889 E.81592
G1 X92.999 Y132.889 E.88577
G1 X92.45 Y132.962 E.91142
G1 X91.937 Y133.176 E.93717
G1 X91.507 Y133.507 E.96231
G1 X91.176 Y133.937 E.98745
G1 X90.962 Y134.45 E1.0132
G1 X90.889 Y134.999 E1.03885
G1 X90.889 Y136.898 E1.12681
;WIDTH:0.631116
G1 X90.874 Y137.539 E1.15817
G1 X90.746 Y137.122 E1.1795
;WIDTH:0.599999
G1 X90.653 Y136.961 E1.18811
G1 X90.217 Y136.594 E1.21451
G1 X89.753 Y136.48 E1.23664
G1 X88.803 Y136.484 E1.28065
G1 X88.454 Y136.562 E1.29721
G1 X88.149 Y136.734 E1.31343
G1 X87.923 Y137.025 E1.3305
G1 X87.661 Y136.734 E1.34864
G1 X87.527 Y136.643 E1.35614
G1 X87.111 Y136.507 E1.37641
G1 X87.111 Y134.999 E1.44626
G1 X87.038 Y134.45 E1.47191
G1 X86.824 Y133.937 E1.49766
G1 X86.493 Y133.507 E1.5228
G1 X86.063 Y133.176 E1.54794
G1 X85.55 Y132.962 E1.57369
G1 X85.001 Y132.889 E1.59934
G1 X83.876 Y132.889 E1.65145
;WIDTH:0.644012
G1 X82.608 Y132.867 E1.71484
G1 X83.039 Y132.653 E1.73889
;WIDTH:0.599999
G1 X83.406 Y132.217 E1.76529
G1 X83.52 Y131.753 E1.78742
G1 X83.516 Y130.803 E1.83143
G1 X83.438 Y130.454 E1.84799
G1 X83.254 Y130.134 E1.86509
G1 X82.937 Y129.905 E1.8832
G1 X83.254 Y129.676 E1.90131
G1 X83.356 Y129.527 E1.90967
G1 X83.493 Y129.111 E1.92996
G1 X85.001 Y129.111 E1.99981
G1 X85.55 Y129.038 E2.02546
G1 X86.063 Y128.824 E2.05121
G1 X86.493 Y128.493 E2.07635
G1 X86.824 Y128.063 E2.10149
G1 X87.038 Y127.55 E2.12724
G1 X87.111 Y127.001 E2.15289
G1 X87.111 Y125.766 E2.2101
;WIDTH:0.640182
G1 X87.131 Y124.563 E2.26985
G1 X87.315 Y124.979 E2.29244
;WIDTH:0.599999
G1 X87.718 Y125.379 E2.31874
G1 X88.193 Y125.516 E2.34164
G1 X89.236 Y125.515 E2.38995
G1 X89.607 Y125.406 E2.40786
G1 X89.851 Y125.266 E2.42089
G1 X90.095 Y124.949 E2.43942
G1 X90.339 Y125.266 E2.45795
G1 X90.473 Y125.357 E2.46545
G1 X90.889 Y125.493 E2.48572
G1 X90.889 Y127.001 E2.55557
G1 X90.962 Y127.55 E2.58122
G1 X91.176 Y128.063 E2.60697
G1 X91.507 Y128.493 E2.63211
G1 X91.937 Y128.824 E2.65725
G1 X92.45 Y129.038 E2.683
G1 X92.999 Y129.111 E2.70865
G1 X94.552 Y129.111 E2.78059
;WIDTH:0.640184
G1 X95.377 Y129.129 E2.82157
;WIPE_START
G1 F14400
G1 X95.233 Y129.193 E2.7935
G1 X94.769 Y129.528 E2.69156
G1 X94.637 Y129.716 E2.65064
G1 X94.484 Y130.194 E2.56124
G1 X94.485 Y131.236 E2.37563
G1 X94.594 Y131.607 E2.30675
G1 X94.734 Y131.851 E2.25664
G1 X94.89 Y131.971 E2.22157
;WIPE_END
G92 E0
