; generated by PrusaSlicer 2.6.0-alpha5+win64 on 2023-03-21 at 18:01:48 UTC

; 

; external perimeters extrusion width = 0.40mm
; perimeters extrusion width = 0.40mm
; infill extrusion width = 0.40mm
; solid infill extrusion width = 0.40mm
; top infill extrusion width = 0.40mm
; support material extrusion width = 0.40mm

M107
M190 S60 ; set bed temperature and wait for it to be reached
M104 S215 ; set temperature
;TYPE:Custom
SET_GCODE_VARIABLE MACRO=START_PRINT VARIABLE=bed_temp VALUE=60
SET_GCODE_VARIABLE MACRO=START_PRINT VARIABLE=extruder_temp VALUE=215
START_PRINT
M109 S215 ; set temperature and wait for it to be reached
G21 ; set units to millimeters
G90 ; use absolute coordinates
M82 ; use absolute distances for extrusion
G92 E0
; Filament gcode
M107
;LAYER_CHANGE
;Z:0.25
;HEIGHT:0.25
;BEFORE_LAYER_CHANGE
;0.25


G1 Z.25 F18000
;AFTER_LAYER_CHANGE
;0.25
G1 E-.7 F2700
G92 E0
G1 Z.55 F18000
G1 X88.341 Y88.341
G1 Z.25
G1 E.7 F2700
;TYPE:Skirt/Brim
;WIDTH:0.4
G1 F1800
G1 X88.759 Y87.923 E.72128
G1 X89.606 Y87.322 E.75867
G1 X90.402 Y86.916 E.79084
G1 X91.385 Y86.585 E.82818
G1 X92.553 Y86.4 E.87075
G1 X127.447 Y86.4 E2.12689
G1 X128.474 Y86.551 E2.16426
G1 X129.464 Y86.861 E2.20161
G1 X130.394 Y87.322 E2.23898
G1 X131.351 Y88.017 E2.28156
G1 X132.077 Y88.759 E2.31893
G1 X132.678 Y89.606 E2.35632
G1 X133.139 Y90.536 E2.39369
G1 X133.449 Y91.526 E2.43104
G1 X133.589 Y92.408 E2.46319
G1 X133.618 Y127 E3.70846
G1 X133.449 Y128.474 E3.76187
G1 X133.139 Y129.464 E3.79922
G1 X132.678 Y130.395 E3.83662
G1 X132.077 Y131.241 E3.87398
G1 X131.241 Y132.077 E3.91654
G1 X130.394 Y132.678 E3.95393
G1 X129.598 Y133.084 E3.9861
G1 X128.474 Y133.449 E4.02864
G1 X127 Y133.618 E4.08205
G1 X92.553 Y133.6 E5.3221
G1 X91.526 Y133.449 E5.35947
G1 X90.536 Y133.139 E5.39682
G1 X89.606 Y132.678 E5.43419
G1 X88.759 Y132.077 E5.47158
G1 X87.923 Y131.241 E5.51414
G1 X87.322 Y130.394 E5.55153
G1 X86.916 Y129.598 E5.5837
G1 X86.551 Y128.474 E5.62624
G1 X86.382 Y127 E5.67965
G1 X86.4 Y92.553 E6.9197
G1 X86.551 Y91.526 E6.95707
G1 X86.861 Y90.536 E6.99442
G1 X87.322 Y89.606 E7.03179
G1 X87.923 Y88.759 E7.06918
G1 X88.298 Y88.384 E7.08827
G1 X88.535 Y88.626 F18000
G1 F1800
G1 X88.984 Y88.186 E7.1109
G1 X89.787 Y87.617 E7.14633
G1 X90.534 Y87.236 E7.17652
G1 X91.466 Y86.922 E7.21192
G1 X92.581 Y86.745 E7.25256
G1 X127.42 Y86.745 E8.50672
G1 X128.393 Y86.888 E8.54212
G1 X129.332 Y87.181 E8.57753
G1 X130.213 Y87.617 E8.61292
G1 X131.126 Y88.28 E8.65354
G1 X131.814 Y88.984 E8.68898
G1 X132.383 Y89.787 E8.72441
G1 X132.819 Y90.668 E8.7598
G1 X133.112 Y91.607 E8.79521
G1 X133.243 Y92.436 E8.82542
G1 X133.255 Y127.42 E10.0848
G1 X133.078 Y128.534 E10.12541
G1 X132.764 Y129.466 E10.16081
G1 X132.307 Y130.337 E10.19622
G1 X131.72 Y131.126 E10.23162
G1 X131.126 Y131.72 E10.26186
G1 X130.337 Y132.307 E10.29726
G1 X129.466 Y132.764 E10.33267
G1 X128.393 Y133.112 E10.37328
G1 X127 Y133.271 E10.42375
G1 X92.58 Y133.255 E11.66283
G1 X91.466 Y133.078 E11.70344
G1 X90.534 Y132.764 E11.73884
G1 X89.663 Y132.307 E11.77425
G1 X88.874 Y131.72 E11.80965
G1 X88.186 Y131.016 E11.84509
G1 X87.617 Y130.214 E11.88049
G1 X87.236 Y129.466 E11.91071
G1 X86.888 Y128.393 E11.95132
G1 X86.729 Y127 E12.00179
G1 X86.745 Y92.581 E13.24083
G1 X86.888 Y91.607 E13.27627
G1 X87.181 Y90.668 E13.31168
G1 X87.693 Y89.663 E13.35228
G1 X88.281 Y88.874 E13.3877
G1 X88.492 Y88.667 E13.39834
;WIPE_START
G1 F14400
G1 X88.984 Y88.186 E13.27578
G1 X89.787 Y87.617 E13.10048
G1 X90.534 Y87.236 E12.95111
G1 X91.466 Y86.922 E12.77593
G1 X91.896 Y86.854 E12.69834
;WIPE_END
G92 E0
G1 Z.55 F18000
G1 X92.838 Y92.687
G1 Z.25
G1 E.7 F2700
;TYPE:Perimeter
;WIDTH:0.399999
G1 F1800
G1 X93.043 Y92.621 E.70775
G1 X126.93 Y92.63 E1.92764
G1 X127.174 Y92.673 E1.93656
G1 X127.357 Y92.905 E1.9472
G1 X127.379 Y93.078 E1.95348
G1 X127.379 Y126.878 E3.17024
G1 X127.319 Y127.185 E3.1815
G1 X127.165 Y127.314 E3.18873
G1 X126.957 Y127.379 E3.19657
G1 X93.122 Y127.379 E4.41459
G1 X92.835 Y127.324 E4.42511
G1 X92.706 Y127.214 E4.43121
G1 X92.621 Y126.979 E4.44021
G1 X92.621 Y93.043 E5.66187
G1 X92.688 Y92.832 E5.66984
G1 X92.794 Y92.726 E5.67524
G1 X92.73 Y92.344 F18000
;TYPE:External perimeter
G1 F1800
G1 X92.783 Y92.312 E5.67747
G1 X93.016 Y92.275 E5.68596
G1 X126.93 Y92.283 E6.90682
G1 X127.232 Y92.329 E6.91782
G1 X127.505 Y92.485 E6.92914
G1 X127.688 Y92.783 E6.94173
G1 X127.725 Y93.078 E6.95243
G1 X127.725 Y126.878 E8.16919
G1 X127.64 Y127.333 E8.18585
G1 X127.515 Y127.505 E8.1935
G1 X127.217 Y127.688 E8.20609
G1 X126.984 Y127.725 E8.21458
G1 X93.122 Y127.725 E9.43357
G1 X92.674 Y127.642 E9.44997
G1 X92.418 Y127.424 E9.46207
G1 X92.275 Y126.992 E9.47845
G1 X92.275 Y93.079 E10.69928
G1 X92.312 Y92.784 E10.70998
G1 X92.49 Y92.492 E10.72229
G1 X92.679 Y92.376 E10.73027
G1 X92.787 Y92.369 F18000
;WIPE_START
G1 F14400
G1 X92.783 Y92.312 E10.70852
G1 X93.016 Y92.275 E10.6665
G1 X96.588 Y92.276 E10.03027
;WIPE_END
G92 E0
G1 Z.55 F18000
G1 X127.327 Y93.587
G1 Z.25
G1 E.7 F2700
;TYPE:Solid infill
;WIDTH:0.401831
G1 F1800
G1 X126.577 Y92.837 E.73838
G1 X126.084 Y92.837 E.75622
G1 X127.171 Y93.924 E.81185
G1 X127.171 Y94.416 E.82966
G1 X125.592 Y92.837 E.91047
G1 X125.099 Y92.837 E.92831
G1 X127.171 Y94.909 E1.03435
G1 X127.171 Y95.401 E1.05216
G1 X124.607 Y92.837 E1.18338
G1 X124.114 Y92.837 E1.20122
G1 X127.171 Y95.893 E1.35765
G1 X127.171 Y96.386 E1.37549
G1 X123.622 Y92.837 E1.55713
G1 X123.129 Y92.837 E1.57497
G1 X127.171 Y96.878 E1.78181
G1 X127.171 Y97.371 E1.79965
G1 X122.637 Y92.836 E2.03172
G1 X122.144 Y92.836 E2.04956
G1 X127.171 Y97.863 E2.30684
G1 X127.171 Y98.355 E2.32465
G1 X121.652 Y92.836 E2.60711
G1 X121.159 Y92.836 E2.62495
G1 X127.171 Y98.848 E2.93264
G1 X127.171 Y99.34 E2.95045
G1 X120.666 Y92.836 E3.28335
G1 X120.174 Y92.836 E3.30116
G1 X127.171 Y99.833 E3.65926
G1 X127.171 Y100.325 E3.67707
G1 X119.681 Y92.836 E4.06038
G1 X119.189 Y92.836 E4.07819
G1 X127.171 Y100.817 E4.48668
G1 X127.171 Y101.31 E4.50452
G1 X118.696 Y92.835 E4.93826
G1 X118.204 Y92.835 E4.95607
G1 X127.171 Y101.802 E5.41499
G1 X127.171 Y102.295 E5.43283
G1 X117.711 Y92.835 E5.91699
G1 X117.219 Y92.835 E5.9348
G1 X127.171 Y102.787 E6.44414
G1 X127.171 Y103.279 E6.46195
G1 X116.726 Y92.835 E6.99649
G1 X116.234 Y92.835 E7.0143
G1 X127.171 Y103.772 E7.57405
G1 X127.171 Y104.264 E7.59186
G1 X115.741 Y92.835 E8.17681
G1 X115.249 Y92.835 E8.19462
G1 X127.171 Y104.757 E8.80478
G1 X127.171 Y105.249 E8.82259
G1 X114.756 Y92.834 E9.45798
G1 X114.264 Y92.834 E9.47579
G1 X127.171 Y105.742 E10.13639
G1 X127.171 Y106.234 E10.1542
G1 X113.771 Y92.834 E10.84
G1 X113.279 Y92.834 E10.85781
G1 X127.171 Y106.726 E11.56879
G1 X127.171 Y107.219 E11.58663
G1 X112.786 Y92.834 E12.32284
G1 X112.294 Y92.834 E12.34065
G1 X127.171 Y107.711 E13.10204
G1 X127.171 Y108.204 E13.11988
G1 X111.801 Y92.834 E13.90651
G1 X111.309 Y92.834 E13.92432
G1 X127.171 Y108.696 E14.73613
G1 X127.171 Y109.188 E14.75394
G1 X110.816 Y92.834 E15.59095
G1 X110.324 Y92.833 E15.60876
G1 X127.171 Y109.681 E16.471
G1 X127.171 Y110.173 E16.48881
G1 X109.831 Y92.833 E17.37626
G1 X109.338 Y92.833 E17.3941
G1 X127.171 Y110.666 E18.30678
G1 X127.171 Y111.158 E18.32459
G1 X108.846 Y92.833 E19.26245
G1 X108.353 Y92.833 E19.28029
G1 X127.171 Y111.65 E20.24336
G1 X127.171 Y112.143 E20.2612
G1 X107.861 Y92.833 E21.24947
G1 X107.368 Y92.833 E21.26731
G1 X127.171 Y112.635 E22.28079
G1 X127.171 Y113.128 E22.29863
G1 X106.876 Y92.833 E23.33731
G1 X106.383 Y92.832 E23.35515
G1 X127.171 Y113.62 E24.41906
G1 X127.171 Y114.112 E24.43687
G1 X105.891 Y92.832 E25.52596
G1 X105.398 Y92.832 E25.5438
G1 X127.171 Y114.605 E26.65813
G1 X127.171 Y115.097 E26.67594
G1 X104.906 Y92.832 E27.81545
G1 X104.413 Y92.832 E27.83329
G1 X127.171 Y115.59 E28.99803
G1 X127.171 Y116.082 E29.01584
G1 X103.921 Y92.832 E30.20576
G1 X103.428 Y92.832 E30.2236
G1 X127.171 Y116.574 E31.43872
G1 X127.171 Y117.067 E31.45656
G1 X102.936 Y92.832 E32.69689
G1 X102.443 Y92.831 E32.71473
G1 X127.171 Y117.559 E33.98029
G1 X127.171 Y118.052 E33.99813
G1 X101.951 Y92.831 E35.2889
G1 X101.458 Y92.831 E35.30674
G1 X127.171 Y118.544 E36.62271
G1 X127.171 Y119.036 E36.64052
G1 X100.966 Y92.831 E37.98167
G1 X100.473 Y92.831 E37.99951
G1 X127.171 Y119.529 E39.36589
G1 X127.171 Y120.021 E39.3837
G1 X99.981 Y92.831 E40.77526
G1 X99.488 Y92.831 E40.7931
G1 X127.171 Y120.514 E42.2099
G1 X127.171 Y121.006 E42.22771
G1 X98.995 Y92.831 E43.66971
G1 X98.503 Y92.83 E43.68752
G1 X127.171 Y121.498 E45.15473
G1 X127.171 Y121.991 E45.17257
G1 X98.01 Y92.83 E46.66501
G1 X97.518 Y92.83 E46.68282
G1 X127.171 Y122.483 E48.20044
G1 X127.171 Y122.976 E48.21828
G1 X97.025 Y92.83 E49.76113
G1 X96.533 Y92.83 E49.77894
G1 X127.171 Y123.468 E51.34697
G1 X127.171 Y123.96 E51.36478
G1 X96.04 Y92.83 E52.95802
G1 X95.548 Y92.83 E52.97583
G1 X127.171 Y124.453 E54.59427
G1 X127.171 Y124.945 E54.61208
G1 X95.055 Y92.83 E56.25573
G1 X94.563 Y92.83 E56.27354
G1 X127.171 Y125.438 E57.94239
G1 X127.171 Y125.93 E57.9602
G1 X94.07 Y92.829 E59.65429
G1 X93.578 Y92.829 E59.6721
G1 X127.171 Y126.422 E61.39137
G1 X127.17 Y126.914 E61.40918
G1 X93.085 Y92.829 E63.15363
G1 X92.978 Y92.842 E63.15753
G1 X92.894 Y92.894 E63.16111
G1 X92.842 Y92.979 E63.16472
G1 X92.829 Y93.066 E63.1679
G1 X126.934 Y127.171 E64.91337
G1 X126.442 Y127.171 E64.93118
G1 X92.829 Y93.558 E66.65147
G1 X92.829 Y94.05 E66.66928
G1 X125.95 Y127.171 E68.36439
G1 X125.457 Y127.171 E68.38223
G1 X92.829 Y94.543 E70.05211
G1 X92.829 Y95.035 E70.06992
G1 X124.965 Y127.171 E71.71462
G1 X124.472 Y127.171 E71.73246
G1 X92.829 Y95.528 E73.35193
G1 X92.829 Y96.02 E73.36974
G1 X123.98 Y127.171 E74.96403
G1 X123.488 Y127.171 E74.98184
G1 X92.829 Y96.512 E76.55095
G1 X92.829 Y97.005 E76.56879
G1 X122.995 Y127.171 E78.11266
G1 X122.503 Y127.171 E78.13047
G1 X92.829 Y97.497 E79.64916
G1 X92.829 Y97.99 E79.667
G1 X122.01 Y127.171 E81.16046
G1 X121.518 Y127.171 E81.17827
G1 X92.829 Y98.482 E82.64655
G1 X92.829 Y98.974 E82.66436
G1 X121.026 Y127.171 E84.10746
G1 X120.533 Y127.171 E84.1253
G1 X92.829 Y99.467 E85.54317
G1 X92.829 Y99.959 E85.56098
G1 X120.041 Y127.171 E86.95367
G1 X119.548 Y127.171 E86.97151
G1 X92.829 Y100.452 E88.33897
G1 X92.829 Y100.944 E88.35678
G1 X119.056 Y127.171 E89.69906
G1 X118.564 Y127.171 E89.71687
G1 X92.829 Y101.436 E91.03397
G1 X92.829 Y101.929 E91.05181
G1 X118.071 Y127.171 E92.34368
G1 X117.579 Y127.171 E92.36149
G1 X92.829 Y102.421 E93.62818
G1 X92.829 Y102.914 E93.64602
G1 X117.086 Y127.171 E94.88748
G1 X116.594 Y127.171 E94.90529
G1 X92.829 Y103.406 E96.12157
G1 X92.829 Y103.898 E96.13938
G1 X116.102 Y127.171 E97.33048
G1 X115.609 Y127.171 E97.34832
G1 X92.829 Y104.391 E98.51418
G1 X92.829 Y104.883 E98.53199
G1 X115.117 Y127.171 E99.67267
G1 X114.624 Y127.171 E99.69051
G1 X92.829 Y105.376 E100.80596
G1 X92.829 Y105.868 E100.82377
G1 X114.132 Y127.171 E101.91404
G1 X113.64 Y127.171 E101.93185
G1 X92.829 Y106.36 E102.99694
G1 X92.829 Y106.853 E103.01478
G1 X113.147 Y127.171 E104.05464
G1 X112.655 Y127.171 E104.07245
G1 X92.829 Y107.345 E105.08713
G1 X92.829 Y107.838 E105.10497
G1 X112.162 Y127.171 E106.09442
G1 X111.67 Y127.171 E106.11223
G1 X92.829 Y108.33 E107.0765
G1 X92.829 Y108.822 E107.09431
G1 X111.178 Y127.171 E108.0334
G1 X110.685 Y127.171 E108.05124
G1 X92.829 Y109.315 E108.9651
G1 X92.829 Y109.807 E108.98291
G1 X110.193 Y127.171 E109.87159
G1 X109.7 Y127.171 E109.88943
G1 X92.829 Y110.3 E110.75288
G1 X92.829 Y110.792 E110.77069
G1 X109.208 Y127.171 E111.60896
G1 X108.716 Y127.171 E111.62677
G1 X92.829 Y111.284 E112.43986
G1 X92.829 Y111.777 E112.4577
G1 X108.223 Y127.171 E113.24555
G1 X107.731 Y127.171 E113.26336
G1 X92.829 Y112.269 E114.02603
G1 X92.829 Y112.762 E114.04387
G1 X107.238 Y127.171 E114.78131
G1 X106.746 Y127.171 E114.79912
G1 X92.829 Y113.254 E115.51138
G1 X92.829 Y113.746 E115.52919
G1 X106.254 Y127.171 E116.21627
G1 X105.761 Y127.171 E116.23411
G1 X92.829 Y114.239 E116.89596
G1 X92.829 Y114.731 E116.91377
G1 X105.269 Y127.171 E117.55044
G1 X104.776 Y127.171 E117.56828
G1 X92.829 Y115.224 E118.17972
G1 X92.829 Y115.716 E118.19753
G1 X104.284 Y127.171 E118.78379
G1 X103.792 Y127.171 E118.8016
G1 X92.829 Y116.208 E119.36268
G1 X92.829 Y116.701 E119.38052
G1 X103.299 Y127.171 E119.91637
G1 X102.807 Y127.171 E119.93418
G1 X92.829 Y117.193 E120.44485
G1 X92.829 Y117.686 E120.46269
G1 X102.314 Y127.171 E120.94813
G1 X101.822 Y127.171 E120.96594
G1 X92.829 Y118.178 E121.4262
G1 X92.829 Y118.67 E121.44401
G1 X101.33 Y127.171 E121.87908
G1 X100.837 Y127.171 E121.89692
G1 X92.829 Y119.163 E122.30676
G1 X92.829 Y119.655 E122.32457
G1 X100.345 Y127.171 E122.70923
G1 X99.852 Y127.171 E122.72707
G1 X92.829 Y120.148 E123.0865
G1 X92.829 Y120.64 E123.10431
G1 X99.36 Y127.171 E123.43856
G1 X98.868 Y127.171 E123.45637
G1 X92.829 Y121.132 E123.76544
G1 X92.829 Y121.625 E123.78328
G1 X98.375 Y127.171 E124.06712
G1 X97.883 Y127.171 E124.08493
G1 X92.829 Y122.117 E124.34359
G1 X92.829 Y122.61 E124.36143
G1 X97.39 Y127.171 E124.59486
G1 X96.898 Y127.171 E124.61267
G1 X92.829 Y123.102 E124.82092
G1 X92.829 Y123.594 E124.83873
G1 X96.406 Y127.171 E125.0218
G1 X95.913 Y127.171 E125.03964
G1 X92.829 Y124.087 E125.19748
G1 X92.829 Y124.579 E125.21529
G1 X95.421 Y127.171 E125.34795
G1 X94.928 Y127.171 E125.36579
G1 X92.829 Y125.072 E125.47322
G1 X92.829 Y125.564 E125.49103
G1 X94.436 Y127.171 E125.57328
G1 X93.944 Y127.171 E125.59109
G1 X92.829 Y126.056 E125.64815
G1 X92.829 Y126.549 E125.66599
G1 X93.607 Y127.327 E125.70581
M106 S255
;LAYER_CHANGE
;Z:0.5
;HEIGHT:0.25
;BEFORE_LAYER_CHANGE
;0.5


G1 Z.5 F18000
;AFTER_LAYER_CHANGE
;0.5
G1 E125.00581 F2700
G92 E0
G1 Z.8 F18000
G1 X92.641 Y92.49
G1 Z.5
G1 E.7 F2700
;TYPE:Perimeter
;WIDTH:0.399999
G1 F9000
G1 X93.057 Y92.371 E.71558
G1 X126.903 Y92.377 E1.934
G1 X127.088 Y92.4 E1.94071
G1 X127.374 Y92.512 E1.95177
G1 X127.554 Y92.718 E1.96162
G1 X127.629 Y93.046 E1.97373
G1 X127.629 Y126.901 E3.19247
G1 X127.624 Y127.007 E3.19629
G1 X127.492 Y127.377 E3.21043
G1 X127.293 Y127.541 E3.21971
G1 X126.958 Y127.629 E3.23218
G1 X93.099 Y127.629 E4.45106
G1 X92.993 Y127.624 E4.45488
G1 X92.623 Y127.492 E4.46902
G1 X92.459 Y127.293 E4.4783
G1 X92.371 Y126.958 E4.49077
G1 X92.371 Y93.033 E5.71203
G1 X92.47 Y92.709 E5.72423
G1 X92.604 Y92.537 E5.73208
G1 X92.495 Y92.181 F18000
;TYPE:External perimeter
G1 F480.005
G1 X93.02 Y92.025 E5.7518
G1 X93.67 Y92.025 E5.7752
G1 X126.394 Y92.03 E6.95322
G1 F485.014
G1 X127.042 Y92.03 E6.97655
G1 X127.446 Y92.136 E6.99159
G1 F486.695
G1 X127.577 Y92.232 E6.99744
G1 F511.49
G1 X127.768 Y92.423 E7.00716
G1 X127.912 Y92.697 E7.0183
G1 F480.002
G1 X127.975 Y93.046 E7.03107
G1 X127.975 Y93.696 E7.05447
G1 X127.975 Y126.251 E8.22641
G1 X127.975 Y126.901 E8.24981
G1 X127.95 Y127.196 E8.26047
G1 F486.516
G1 X127.783 Y127.575 E8.27538
G1 F485.381
G1 X127.572 Y127.787 E8.28615
G1 X127.301 Y127.925 E8.2971
G1 F480.002
G1 X126.985 Y127.975 E8.30862
G1 X126.335 Y127.975 E8.33202
G1 X93.749 Y127.975 E9.50508
G1 X93.099 Y127.975 E9.52848
G1 X92.804 Y127.95 E9.53914
G1 F486.516
G1 X92.425 Y127.783 E9.55405
G1 F485.375
G1 X92.213 Y127.572 E9.56482
G1 X92.075 Y127.301 E9.57577
G1 F479.997
G1 X92.025 Y126.985 E9.58729
G1 X92.025 Y126.335 E9.61069
G1 X92.025 Y93.789 E10.78231
G1 F480
G1 X92.025 Y93.139 E10.80571
G1 X92.05 Y92.804 E10.8178
G1 F486.517
G1 X92.217 Y92.425 E10.83271
G1 X92.45 Y92.22 E10.84388
G1 F527.616
G1 X92.838 Y92.386 F18000
;WIPE_START
G1 F14400
G1 X93.02 Y92.025 E10.73657
G1 X96.347 Y92.025 E10.14388
;WIPE_END
G92 E0
G1 Z.8 F18000
G1 X127.006 Y127.568
G1 Z.5
G1 E.7 F2700
;TYPE:Solid infill
;WIDTH:0.40043
G1 F11626.968
G1 X127.318 Y127.257 E.71588
G1 X127.409 Y127.049 E.72406
G1 X127.421 Y126.663 E.73798
G1 X126.663 Y127.421 E.77662
G1 X126.173 Y127.421 E.79428
G1 X127.421 Y126.173 E.85789
G1 X127.421 Y125.683 E.87555
G1 X125.683 Y127.421 E.96414
G1 X125.192 Y127.421 E.98184
G1 X127.421 Y125.192 E1.09546
G1 X127.421 Y124.702 E1.11312
G1 X124.702 Y127.421 E1.25172
G1 X124.211 Y127.421 E1.26942
G1 X127.421 Y124.211 E1.43304
G1 X127.421 Y123.721 E1.4507
G1 X123.721 Y127.421 E1.6393
G1 X123.23 Y127.421 E1.657
