; generated by PrusaSlicer 2.6.0-alpha5+win64 on 2023-03-21 at 16:43:12 UTC

; 

; external perimeters extrusion width = 0.40mm
; perimeters extrusion width = 0.40mm
; infill extrusion width = 0.40mm
; solid infill extrusion width = 0.40mm
; top infill extrusion width = 0.40mm
; support material extrusion width = 0.40mm

M107
M190 S60 ; set bed temperature and wait for it to be reached
M104 S215 ; set temperature
;TYPE:Custom
SET_GCODE_VARIABLE MACRO=START_PRINT VARIABLE=bed_temp VALUE=60
SET_GCODE_VARIABLE MACRO=START_PRINT VARIABLE=extruder_temp VALUE=215
START_PRINT
M109 S215 ; set temperature and wait for it to be reached
G21 ; set units to millimeters
G90 ; use absolute coordinates
M82 ; use absolute distances for extrusion
G92 E0
; Filament gcode
M107
;LAYER_CHANGE
;Z:0.2
;HEIGHT:0.2
;BEFORE_LAYER_CHANGE
;0.2


G1 Z.2 F18000
;AFTER_LAYER_CHANGE
;0.2
G1 E-.7 F2700
G92 E0
G1 X88.343 Y88.343 F18000
G1 E.7 F2700
;TYPE:Skirt/Brim
;WIDTH:0.4
G1 F1800
G1 X88.76 Y87.927 E.71749
G1 X89.606 Y87.326 E.7483
G1 X90.506 Y86.877 E.77816
G1 X91.388 Y86.588 E.80572
G1 X92.552 Y86.403 E.84071
G1 X127.448 Y86.403 E1.87682
G1 X128.475 Y86.555 E1.90765
G1 X129.465 Y86.865 E1.93845
G1 X130.515 Y87.4 E1.97344
G1 X131.347 Y88.019 E2.00423
G1 X132.073 Y88.76 E2.03503
G1 X132.674 Y89.606 E2.06584
G1 X133.135 Y90.535 E2.09663
G1 X133.412 Y91.388 E2.12326
G1 X133.585 Y92.411 E2.15407
G1 X133.614 Y127 E3.18106
G1 X133.445 Y128.475 E3.22514
G1 X133.135 Y129.465 E3.25594
G1 X132.674 Y130.394 E3.28673
G1 X132.073 Y131.24 E3.31754
G1 X131.24 Y132.073 E3.35252
G1 X130.394 Y132.674 E3.38333
G1 X129.595 Y133.081 E3.40995
G1 X128.475 Y133.445 E3.44492
G1 X127 Y133.614 E3.489
G1 X92.551 Y133.597 E4.51184
G1 X91.525 Y133.445 E4.54264
G1 X90.535 Y133.135 E4.57344
G1 X89.606 Y132.674 E4.60423
G1 X88.76 Y132.073 E4.63504
G1 X87.927 Y131.24 E4.67002
G1 X87.342 Y130.421 E4.6999
G1 X86.919 Y129.595 E4.72745
G1 X86.555 Y128.475 E4.76242
G1 X86.386 Y127 E4.8065
G1 X86.403 Y92.552 E5.82931
G1 X86.555 Y91.525 E5.86014
G1 X86.865 Y90.535 E5.89094
G1 X87.326 Y89.606 E5.92173
G1 X87.927 Y88.76 E5.95254
G1 X88.301 Y88.386 E5.96824
G1 X88.545 Y88.635 F18000
G1 F1800
G1 X88.992 Y88.198 E5.9868
G1 X89.766 Y87.647 E6.01501
G1 X90.541 Y87.249 E6.04088
G1 X91.471 Y86.935 E6.07002
G1 X92.58 Y86.759 E6.10336
G1 X127.42 Y86.759 E7.1378
G1 X128.391 Y86.902 E7.16694
G1 X129.328 Y87.195 E7.19609
G1 X130.328 Y87.704 E7.22941
G1 X131.116 Y88.29 E7.25857
G1 X131.802 Y88.992 E7.28771
G1 X132.369 Y89.792 E7.31682
G1 X132.805 Y90.672 E7.34598
G1 X133.065 Y91.471 E7.37093
G1 X133.229 Y92.439 E7.40008
G1 X133.257 Y127 E8.42624
G1 X133.098 Y128.391 E8.46781
G1 X132.805 Y129.328 E8.49696
G1 X132.369 Y130.208 E8.52612
G1 X131.71 Y131.115 E8.55941
G1 X131.008 Y131.802 E8.58857
G1 X130.208 Y132.37 E8.6177
G1 X129.459 Y132.751 E8.64265
G1 X128.391 Y133.098 E8.67599
G1 X127 Y133.257 E8.71756
G1 X92.58 Y133.241 E9.73953
G1 X91.471 Y133.065 E9.77287
G1 X90.541 Y132.751 E9.80201
G1 X89.672 Y132.296 E9.83113
G1 X88.884 Y131.71 E9.86029
G1 X88.29 Y131.115 E9.88525
G1 X87.704 Y130.328 E9.91438
G1 X87.249 Y129.459 E9.9435
G1 X86.902 Y128.391 E9.97684
G1 X86.743 Y127 E10.01841
G1 X86.759 Y92.58 E11.04038
G1 X86.902 Y91.609 E11.06952
G1 X87.195 Y90.672 E11.09867
G1 X87.704 Y89.672 E11.13199
G1 X88.29 Y88.884 E11.16115
G1 X88.502 Y88.677 E11.16995
;WIPE_START
G1 F14400
G1 X88.992 Y88.198 E11.04789
G1 X89.766 Y87.647 E10.87865
G1 X90.541 Y87.249 E10.72346
G1 X91.471 Y86.935 E10.54862
G1 X91.907 Y86.866 E10.46995
;WIPE_END
G92 E0
G1 X93.018 Y93.051 F18000
G1 E.7 F2700
;TYPE:Perimeter
;WIDTH:0.399999
G1 F1800
G1 X93.081 Y93.014 E.70217
G1 X126.951 Y93.023 E1.70781
G1 X126.986 Y93.076 E1.7097
G1 X126.986 Y126.881 E2.71341
G1 X126.973 Y126.947 E2.71541
G1 X126.928 Y126.986 E2.71718
G1 X93.107 Y126.986 E3.72137
G1 X93.014 Y126.933 E3.72455
G1 X93.014 Y93.11 E4.7288
G1 X92.718 Y92.851 F18000
G1 F1800
G1 X92.841 Y92.721 E4.73411
G1 X93.049 Y92.657 E4.74057
G1 X126.933 Y92.666 E5.74663
G1 X127.157 Y92.704 E5.75338
G1 X127.282 Y92.851 E5.75911
G1 X127.343 Y93.076 E5.76603
G1 X127.343 Y126.881 E6.76974
G1 X127.287 Y127.17 E6.77848
G1 X127.147 Y127.284 E6.78384
G1 X126.956 Y127.343 E6.78978
G1 X93.119 Y127.343 E7.79444
G1 X92.926 Y127.31 E7.80025
G1 X92.735 Y127.193 E7.8069
G1 X92.657 Y126.978 E7.81369
G1 X92.657 Y93.077 E8.82025
G1 X92.702 Y92.909 E8.82541
G1 X92.4 Y92.685 F18000
;TYPE:External perimeter
G1 F1800
G1 X92.509 Y92.508 E8.83158
G1 X92.767 Y92.346 E8.84063
G1 X93.017 Y92.3 E8.84818
G1 X126.933 Y92.309 E9.85519
G1 X127.225 Y92.352 E9.86395
G1 X127.487 Y92.503 E9.87293
G1 X127.664 Y92.791 E9.88297
G1 X127.7 Y93.076 E9.8915
G1 X127.7 Y126.881 E10.89521
G1 X127.618 Y127.322 E10.90853
G1 X127.497 Y127.487 E10.91461
G1 X127.209 Y127.664 E10.92465
G1 X126.984 Y127.7 E10.93142
G1 X93.119 Y127.7 E11.93691
G1 X92.685 Y127.619 E11.95002
G1 X92.438 Y127.409 E11.95965
G1 X92.3 Y126.992 E11.97269
G1 X92.3 Y93.088 E12.97934
G1 X92.336 Y92.792 E12.98819
G1 X92.369 Y92.737 E12.99009
G1 X92.608 Y92.67 F18000
;WIPE_START
G1 F14400
G1 X92.509 Y92.508 E12.94228
G1 X92.767 Y92.346 E12.88802
G1 X93.017 Y92.3 E12.84274
G1 X96.12 Y92.301 E12.29009
;WIPE_END
G92 E0
G1 X126.209 Y93.076 F18000
G1 E.7 F2700
;TYPE:Solid infill
;WIDTH:0.400652
G1 F1800
G1 X126.772 Y93.639 E.72368
G1 X126.772 Y94.145 E.73873
G1 X125.864 Y93.237 E.77693
G1 X125.358 Y93.237 E.79198
G1 X126.772 Y94.651 E.85146
G1 X126.772 Y95.157 E.86651
G1 X124.851 Y93.236 E.94732
G1 X124.345 Y93.236 E.96237
G1 X126.772 Y95.662 E1.06444
G1 X126.772 Y96.168 E1.07949
G1 X123.839 Y93.236 E1.20285
G1 X123.333 Y93.236 E1.2179
G1 X126.772 Y96.674 E1.36255
G1 X126.772 Y97.18 E1.3776
G1 X122.827 Y93.236 E1.54353
G1 X122.321 Y93.236 E1.55858
G1 X126.772 Y97.686 E1.7458
G1 X126.772 Y98.192 E1.76085
G1 X121.815 Y93.236 E1.96935
G1 X121.309 Y93.236 E1.9844
G1 X126.772 Y98.698 E2.21419
G1 X126.772 Y99.204 E2.22924
G1 X120.803 Y93.235 E2.48034
G1 X120.297 Y93.235 E2.49539
G1 X126.772 Y99.71 E2.76777
G1 X126.772 Y100.216 E2.78282
G1 X119.791 Y93.235 E3.07649
G1 X119.285 Y93.235 E3.09154
G1 X126.772 Y100.722 E3.40649
G1 X126.772 Y101.227 E3.42151
G1 X118.779 Y93.235 E3.75773
G1 X118.273 Y93.235 E3.77278
G1 X126.772 Y101.733 E4.13028
G1 X126.772 Y102.239 E4.14533
G1 X117.767 Y93.235 E4.52412
G1 X117.261 Y93.235 E4.53917
G1 X126.772 Y102.745 E4.93924
G1 X126.772 Y103.251 E4.95429
G1 X116.755 Y93.234 E5.37567
G1 X116.249 Y93.234 E5.39072
G1 X126.772 Y103.757 E5.83339
G1 X126.772 Y104.263 E5.84844
G1 X115.743 Y93.234 E6.31239
G1 X115.237 Y93.234 E6.32744
G1 X126.772 Y104.769 E6.81268
G1 X126.772 Y105.275 E6.82773
G1 X114.731 Y93.234 E7.33425
G1 X114.225 Y93.234 E7.3493
G1 X126.772 Y105.781 E7.87711
G1 X126.772 Y106.287 E7.89216
G1 X113.719 Y93.234 E8.44125
G1 X113.213 Y93.234 E8.4563
G1 X126.772 Y106.792 E9.02666
G1 X126.772 Y107.298 E9.04171
G1 X112.707 Y93.233 E9.63338
G1 X112.201 Y93.233 E9.64843
G1 X126.772 Y107.804 E10.26138
G1 X126.772 Y108.31 E10.27643
G1 X111.695 Y93.233 E10.91067
G1 X111.188 Y93.233 E10.92575
G1 X126.772 Y108.816 E11.58129
G1 X126.772 Y109.322 E11.59634
G1 X110.682 Y93.233 E12.27317
G1 X110.176 Y93.233 E12.28822
G1 X126.772 Y109.828 E12.98634
G1 X126.772 Y110.334 E13.00139
G1 X109.67 Y93.233 E13.72079
G1 X109.164 Y93.232 E13.73584
G1 X126.772 Y110.84 E14.47655
G1 X126.772 Y111.346 E14.4916
G1 X108.658 Y93.232 E15.25359
G1 X108.152 Y93.232 E15.26864
G1 X126.772 Y111.852 E16.05192
G1 X126.772 Y112.357 E16.06694
G1 X107.646 Y93.232 E16.87148
G1 X107.14 Y93.232 E16.88653
G1 X126.772 Y112.863 E17.71236
G1 X126.772 Y113.369 E17.72741
G1 X106.634 Y93.232 E18.57453
G1 X106.128 Y93.232 E18.58958
G1 X126.772 Y113.875 E19.45798
G1 X126.772 Y114.381 E19.47303
G1 X105.622 Y93.232 E20.36272
G1 X105.116 Y93.231 E20.37777
G1 X126.772 Y114.887 E21.28876
G1 X126.772 Y115.393 E21.30381
G1 X104.61 Y93.231 E22.23609
G1 X104.104 Y93.231 E22.25114
G1 X126.772 Y115.899 E23.2047
G1 X126.772 Y116.405 E23.21975
G1 X103.598 Y93.231 E24.1946
G1 X103.092 Y93.231 E24.20965
G1 X126.772 Y116.911 E25.20579
G1 X126.772 Y117.417 E25.22084
G1 X102.586 Y93.231 E26.23826
G1 X102.08 Y93.231 E26.25331
G1 X126.772 Y117.922 E27.292
G1 X126.772 Y118.428 E27.30705
G1 X101.574 Y93.231 E28.36702
G1 X101.068 Y93.23 E28.38207
G1 X126.772 Y118.934 E29.46335
G1 X126.772 Y119.44 E29.4784
G1 X100.562 Y93.23 E30.58096
G1 X100.056 Y93.23 E30.59601
G1 X126.772 Y119.946 E31.71986
G1 X126.772 Y120.452 E31.73491
G1 X99.55 Y93.23 E32.88005
G1 X99.044 Y93.23 E32.8951
G1 X126.772 Y120.958 E34.06152
G1 X126.772 Y121.464 E34.07657
G1 X98.538 Y93.23 E35.26428
G1 X98.032 Y93.23 E35.27933
G1 X126.772 Y121.97 E36.48832
G1 X126.772 Y122.476 E36.50337
G1 X97.525 Y93.23 E37.73367
G1 X97.019 Y93.229 E37.74872
G1 X126.772 Y122.982 E39.00033
G1 X126.772 Y123.487 E39.01535
G1 X96.513 Y93.229 E40.28822
G1 X96.007 Y93.229 E40.30327
G1 X126.772 Y123.993 E41.59743
G1 X126.772 Y124.499 E41.61248
G1 X95.501 Y93.229 E42.92792
G1 X94.995 Y93.229 E42.94297
G1 X126.772 Y125.005 E44.2797
G1 X126.772 Y125.511 E44.29475
G1 X94.489 Y93.229 E45.65276
G1 X93.983 Y93.229 E45.66781
G1 X126.772 Y126.017 E47.04711
G1 X126.772 Y126.523 E47.06216
G1 X93.477 Y93.229 E48.46274
G1 X93.228 Y93.228 E48.47015
G1 X93.228 Y93.486 E48.47782
G1 X126.514 Y126.772 E49.87805
G1 X126.008 Y126.772 E49.8931
G1 X93.228 Y93.992 E51.27204
G1 X93.228 Y94.497 E51.28706
G1 X125.503 Y126.772 E52.64476
G1 X124.997 Y126.772 E52.65981
G1 X93.228 Y95.003 E53.99622
G1 X93.228 Y95.509 E54.01127
G1 X124.491 Y126.772 E55.3264
G1 X123.985 Y126.772 E55.34145
G1 X93.228 Y96.015 E56.63529
G1 X93.228 Y96.521 E56.65034
G1 X123.479 Y126.772 E57.9229
G1 X122.973 Y126.772 E57.93795
G1 X93.228 Y97.027 E59.18922
G1 X93.228 Y97.533 E59.20427
G1 X122.467 Y126.772 E60.43425
G1 X121.961 Y126.772 E60.4493
G1 X93.228 Y98.039 E61.658
G1 X93.228 Y98.545 E61.67305
G1 X121.455 Y126.772 E62.86046
G1 X120.949 Y126.772 E62.87551
G1 X93.228 Y99.051 E64.04164
G1 X93.228 Y99.557 E64.05669
G1 X120.443 Y126.772 E65.20153
G1 X119.938 Y126.772 E65.21655
G1 X93.228 Y100.062 E66.34015
G1 X93.228 Y100.568 E66.3552
G1 X119.432 Y126.772 E67.45751
G1 X118.926 Y126.772 E67.47256
G1 X93.228 Y101.074 E68.55359
G1 X93.228 Y101.58 E68.56864
G1 X118.42 Y126.772 E69.62838
G1 X117.914 Y126.772 E69.64343
G1 X93.228 Y102.086 E70.68188
G1 X93.228 Y102.592 E70.69693
G1 X117.408 Y126.772 E71.7141
G1 X116.902 Y126.772 E71.72915
G1 X93.228 Y103.098 E72.72503
G1 X93.228 Y103.604 E72.74008
G1 X116.396 Y126.772 E73.71468
G1 X115.89 Y126.772 E73.72973
G1 X93.228 Y104.11 E74.68304
G1 X93.228 Y104.616 E74.69809
G1 X115.384 Y126.772 E75.63012
G1 X114.878 Y126.772 E75.64517
G1 X93.228 Y105.122 E76.55591
G1 X93.228 Y105.627 E76.57093
G1 X114.373 Y126.772 E77.46043
G1 X113.867 Y126.772 E77.47548
G1 X93.228 Y106.133 E78.34369
G1 X93.228 Y106.639 E78.35874
G1 X113.361 Y126.772 E79.20567
G1 X112.855 Y126.772 E79.22072
G1 X93.228 Y107.145 E80.04636
G1 X93.228 Y107.651 E80.06141
G1 X112.349 Y126.772 E80.86576
G1 X111.843 Y126.772 E80.88081
G1 X93.228 Y108.157 E81.66388
G1 X93.228 Y108.663 E81.67893
G1 X111.337 Y126.772 E82.44071
G1 X110.831 Y126.772 E82.45576
G1 X93.228 Y109.169 E83.19626
G1 X93.228 Y109.675 E83.21131
G1 X110.325 Y126.772 E83.93052
G1 X109.819 Y126.772 E83.94557
G1 X93.228 Y110.181 E84.6435
G1 X93.228 Y110.687 E84.65855
G1 X109.313 Y126.772 E85.33519
G1 X108.808 Y126.772 E85.35021
G1 X93.228 Y111.192 E86.00561
G1 X93.228 Y111.698 E86.02066
G1 X108.302 Y126.772 E86.65477
G1 X107.796 Y126.772 E86.66982
G1 X93.228 Y112.204 E87.28265
G1 X93.228 Y112.71 E87.2977
G1 X107.29 Y126.772 E87.88924
G1 X106.784 Y126.772 E87.90429
G1 X93.228 Y113.216 E88.47454
G1 X93.228 Y113.722 E88.48959
G1 X106.278 Y126.772 E89.03856
G1 X105.772 Y126.772 E89.05361
G1 X93.228 Y114.228 E89.58129
G1 X93.228 Y114.734 E89.59634
G1 X105.266 Y126.772 E90.10274
G1 X104.76 Y126.772 E90.11779
G1 X93.228 Y115.24 E90.6029
G1 X93.228 Y115.746 E90.61795
G1 X104.254 Y126.772 E91.08178
G1 X103.748 Y126.772 E91.09683
G1 X93.228 Y116.252 E91.53937
G1 X93.228 Y116.758 E91.55442
G1 X103.243 Y126.772 E91.9757
G1 X102.737 Y126.772 E91.99075
G1 X93.228 Y117.263 E92.39076
G1 X93.228 Y117.769 E92.40581
G1 X102.231 Y126.772 E92.78454
G1 X101.725 Y126.772 E92.79959
G1 X93.228 Y118.275 E93.15703
G1 X93.228 Y118.781 E93.17208
G1 X101.219 Y126.772 E93.50823
G1 X100.713 Y126.772 E93.52328
G1 X93.228 Y119.287 E93.83815
G1 X93.228 Y119.793 E93.8532
G1 X100.207 Y126.772 E94.14678
G1 X99.701 Y126.772 E94.16183
G1 X93.228 Y120.299 E94.43413
G1 X93.228 Y120.805 E94.44918
G1 X99.195 Y126.772 E94.70019
G1 X98.689 Y126.772 E94.71524
G1 X93.228 Y121.311 E94.94497
G1 X93.228 Y121.817 E94.96002
G1 X98.183 Y126.772 E95.16846
G1 X97.677 Y126.772 E95.18351
G1 X93.228 Y122.323 E95.37066
G1 X93.228 Y122.828 E95.38568
G1 X97.172 Y126.772 E95.55159
G1 X96.666 Y126.772 E95.56664
G1 X93.228 Y123.334 E95.71126
G1 X93.228 Y123.84 E95.72631
G1 X96.16 Y126.772 E95.84965
G1 X95.654 Y126.772 E95.8647
G1 X93.228 Y124.346 E95.96675
G1 X93.228 Y124.852 E95.9818
G1 X95.148 Y126.772 E96.06257
G1 X94.642 Y126.772 E96.07762
G1 X93.228 Y125.358 E96.1371
G1 X93.228 Y125.864 E96.15215
G1 X94.136 Y126.772 E96.19035
G1 X93.63 Y126.772 E96.2054
G1 X93.068 Y126.209 E96.22906
M106 S255
;LAYER_CHANGE
;Z:0.4
;HEIGHT:0.2
;BEFORE_LAYER_CHANGE
;0.4


G1 Z.4 F18000
;AFTER_LAYER_CHANGE
;0.4
G1 E95.52906 F2700
G92 E0
G1 Z.7 F18000
G1 X92.874 Y92.882
G1 Z.4
G1 E.7 F2700
;TYPE:Perimeter
;WIDTH:0.399999
G1 F9000
G1 X93.094 Y92.814 E.70684
G1 X126.881 Y92.82 E1.71002
G1 X127.048 Y92.845 E1.71503
G1 X127.136 Y92.908 E1.71824
G1 X127.186 Y93.126 E1.72488
G1 X127.186 Y126.929 E2.72853
G1 X127.122 Y127.122 E2.73457
G1 X126.929 Y127.186 E2.74061
G1 X93.092 Y127.186 E3.74527
G1 X92.882 Y127.126 E3.75175
G1 X92.814 Y126.906 E3.75859
G1 X92.814 Y93.092 E4.76257
G1 X92.857 Y92.94 E4.76726
G1 X92.527 Y92.762 F18000
G1 F9000
G1 X92.69 Y92.561 E4.77494
G1 X93.057 Y92.457 E4.78627
G1 X127.005 Y92.463 E5.79423
G1 X127.313 Y92.573 E5.80394
G1 X127.487 Y92.792 E5.81224
G1 X127.543 Y93.126 E5.8223
G1 X127.543 Y126.907 E6.8253
G1 X127.523 Y127.083 E6.83056
G1 X127.434 Y127.315 E6.83794
G1 X127.24 Y127.472 E6.84535
G1 X126.957 Y127.543 E6.85401
G1 X93.043 Y127.543 E7.86096
G1 X92.762 Y127.473 E7.86956
G1 X92.561 Y127.31 E7.87724
G1 X92.457 Y126.943 E7.88857
G1 X92.457 Y93.043 E8.8951
G1 X92.512 Y92.821 E8.90189
G1 X92.21 Y92.597 F18000
;TYPE:External perimeter
G1 F620.532
G1 X92.274 Y92.472 E8.90606
G1 X92.558 Y92.226 E8.91722
G1 F600.027
G1 X93.019 Y92.1 E8.93141
G1 X93.619 Y92.1 E8.94922
G1 F601.003
G1 X126.331 Y92.106 E9.92048
G1 F654.195
G1 X126.925 Y92.106 E9.93812
G1 F623.857
G1 X127.411 Y92.203 E9.95283
G1 X127.632 Y92.363 E9.96093
G1 X127.823 Y92.652 E9.97122
G1 F600
G1 X127.9 Y93.126 E9.98548
G1 X127.9 Y93.726 E10.00329
G1 X127.9 Y126.307 E10.97066
G1 X127.9 Y126.907 E10.98847
G1 X127.854 Y127.277 E10.99954
G1 F620.545
G1 X127.726 Y127.528 E11.00791
G1 X127.528 Y127.726 E11.01622
G1 X127.277 Y127.854 E11.02459
G1 F600
G1 X126.985 Y127.9 E11.03337
G1 X126.385 Y127.9 E11.05118
G1 X93.726 Y127.9 E12.02087
G1 X93.126 Y127.9 E12.03868
G1 X92.723 Y127.854 E12.05072
G1 F620.529
G1 X92.472 Y127.726 E12.05909
G1 X92.226 Y127.442 E12.07025
G1 F599.998
G1 X92.1 Y126.981 E12.08444
G1 X92.1 Y126.381 E12.10225
G1 X92.1 Y93.726 E13.07182
G1 X92.1 Y93.126 E13.08963
G1 X92.146 Y92.723 E13.10167
G1 F620.577
G1 X92.183 Y92.65 E13.1041
G1 F677.875
G1 X92.349 Y92.577 F18000
;WIPE_START
G1 F14400
G1 X92.274 Y92.472 E13.06849
G1 X92.558 Y92.226 E13.00156
G1 X93.019 Y92.1 E12.91643
G1 X95.895 Y92.101 E12.4041
;WIPE_END
G92 E0
G1 Z.7 F18000
G1 X127.132 Y126.406
G1 Z.4
G1 E.7 F2700
;TYPE:Solid infill
;WIDTH:0.40198
G1 F14036.651
G1 X126.567 Y126.971 E.72386
G1 X126.059 Y126.971 E.73903
G1 X126.972 Y126.059 E.77756
G1 X126.972 Y125.551 E.79273
G1 X125.552 Y126.971 E.85269
G1 X125.044 Y126.971 E.86786
G1 X126.972 Y125.044 E.94924
G1 X126.972 Y124.536 E.96441
G1 X124.537 Y126.971 E1.06722
G1 X124.029 Y126.971 E1.08239
G1 X126.972 Y124.028 E1.20665
G1 X126.972 Y123.52 E1.22182
G1 X123.521 Y126.97 E1.36751
G1 X123.014 Y126.97 E1.38265
