; generated by PrusaSlicer 2.6.0-alpha5+win64 on 2023-03-21 at 16:10:34 UTC

; 

; external perimeters extrusion width = 1.20mm
; perimeters extrusion width = 1.20mm
; infill extrusion width = 1.20mm
; solid infill extrusion width = 1.20mm
; top infill extrusion width = 1.20mm
; first layer extrusion width = 1.20mm

M107
M190 S60 ; set bed temperature and wait for it to be reached
M104 S215 ; set temperature
;TYPE:Custom
SET_GCODE_VARIABLE MACRO=START_PRINT VARIABLE=bed_temp VALUE=60
SET_GCODE_VARIABLE MACRO=START_PRINT VARIABLE=extruder_temp VALUE=215
START_PRINT
M109 S215 ; set temperature and wait for it to be reached
G21 ; set units to millimeters
G90 ; use absolute coordinates
M82 ; use absolute distances for extrusion
G92 E0
; Filament gcode
M107
;LAYER_CHANGE
;Z:0.2
;HEIGHT:0.2
;BEFORE_LAYER_CHANGE
;0.2


G1 Z.2 F18000
;AFTER_LAYER_CHANGE
;0.2
G1 E-.7 F2700
G92 E0
G1 X95.527 Y95.307 F18000
G1 E.7 F2700
;TYPE:Skirt/Brim
;WIDTH:1.2
G1 F3600
G1 X96.62 Y94.401 E.83659
G1 X97.614 Y93.787 E.949
G1 X98.445 Y93.394 E1.03744
G1 X99.552 Y93.017 E1.14995
G1 X100.697 Y92.781 E1.26243
G1 X101.872 Y92.69 E1.37582
G1 X118.125 Y92.69 E2.93955
G1 X119.042 Y92.747 E3.02795
G1 X120.194 Y92.951 E3.14051
G1 X121.533 Y93.385 E3.27594
G1 X122.365 Y93.776 E3.36439
G1 X123.361 Y94.387 E3.47681
G1 X124.282 Y95.127 E3.59048
G1 X125.093 Y95.968 E3.70289
G1 X125.923 Y97.11 E3.83872
G1 X126.478 Y98.15 E3.95214
G1 X126.893 Y99.242 E4.06453
G1 X127.122 Y100.132 E4.15295
G1 X127.314 Y102 E4.33362
G1 X127.3 Y118.46 E5.91726
G1 X127.169 Y119.621 E6.02967
G1 X126.893 Y120.758 E6.14224
G1 X126.371 Y122.077 E6.27872
G1 X125.794 Y123.095 E6.3913
G1 X125.253 Y123.838 E6.47973
G1 X124.465 Y124.701 E6.59217
G1 X123.574 Y125.458 E6.70466
G1 X122.596 Y126.098 E6.81711
G1 X121.544 Y126.61 E6.92968
G1 X120.448 Y126.983 E7.04107
G1 X119.051 Y127.251 E7.17793
G1 X118.126 Y127.31 E7.26711
G1 X101.874 Y127.31 E8.83074
G1 X100.958 Y127.253 E8.91904
G1 X99.806 Y127.049 E9.0316
G1 X98.69 Y126.703 E9.14401
G1 X97.625 Y126.219 E9.25656
G1 X96.629 Y125.606 E9.36908
G1 X95.727 Y124.88 E9.48048
G1 X94.914 Y124.04 E9.59295
G1 X94.073 Y122.885 E9.73041
G1 X93.526 Y121.858 E9.84236
G1 X93.184 Y120.997 E9.93149
G1 X92.881 Y119.879 E10.04293
G1 X92.717 Y118.722 E10.15536
G1 X92.716 Y101.29 E11.83252
G1 X92.878 Y100.135 E11.94473
G1 X93.181 Y99.014 E12.05645
G1 X93.624 Y97.933 E12.16885
G1 X94.2 Y96.915 E12.28138
G1 X94.739 Y96.171 E12.36977
G1 X95.486 Y95.352 E12.47642
G1 X96.32 Y96.15 F18000
G1 F3600
G1 X97.301 Y95.336 E12.59906
G1 X98.873 Y94.47 E12.77174
G1 X99.841 Y94.137 E12.87023
G1 X100.843 Y93.929 E12.96869
G1 X101.872 Y93.847 E13.06801
G1 X118.897 Y93.895 E14.70602
G1 X119.906 Y94.072 E14.80458
G1 X121.108 Y94.462 E14.92616
G1 X122.682 Y95.324 E15.09882
G1 X123.49 Y95.971 E15.19841
G1 X124.202 Y96.706 E15.29686
G1 X124.947 Y97.731 E15.41877
G1 X125.431 Y98.642 E15.51802
G1 X125.985 Y100.349 E15.69069
G1 X126.157 Y102 E15.85039
G1 X126.145 Y118.387 E17.42701
G1 X126.032 Y119.404 E17.52546
G1 X125.793 Y120.4 E17.62401
G1 X125.324 Y121.585 E17.74663
G1 X124.817 Y122.475 E17.84518
G1 X123.673 Y123.857 E18.01779
G1 X122.894 Y124.522 E18.11633
G1 X122.038 Y125.084 E18.21485
G1 X121.118 Y125.534 E18.31339
G1 X120.159 Y125.863 E18.41094
G1 X118.905 Y126.104 E18.5338
G1 X101.103 Y126.105 E20.24656
G1 X100.094 Y125.928 E20.34512
G1 X99.116 Y125.627 E20.44357
G1 X98.182 Y125.205 E20.54218
G1 X97.31 Y124.67 E20.64061
G1 X96.518 Y124.036 E20.73822
G1 X95.805 Y123.302 E20.83667
G1 X95.05 Y122.265 E20.96008
G1 X94.285 Y120.639 E21.13297
G1 X94.017 Y119.661 E21.23053
G1 X93.872 Y118.648 E21.32899
G1 X93.855 Y101.613 E22.96795
G1 X93.968 Y100.596 E23.0664
G1 X94.282 Y99.371 E23.18807
G1 X94.672 Y98.424 E23.28661
G1 X95.178 Y97.534 E23.38511
G1 X96.282 Y96.196 E23.552
;WIPE_START
G1 F14400
G1 X97.301 Y95.336 E23.31449
G1 X98.873 Y94.47 E22.9948
G1 X99.631 Y94.209 E22.852
;WIPE_END
G92 E0
G1 X100.65 Y100.724 F18000
G1 E.7 F2700
;TYPE:External perimeter
;WIDTH:0.38292
G1 F3600
G1 X101.069 Y100.392 E.71511
G1 X101.557 Y100.184 E.73011
G1 X102.073 Y100.104 E.74487
G1 X117.927 Y100.104 E1.19308
G1 X118.466 Y100.19 E1.20851
G1 X118.956 Y100.406 E1.22365
G1 X119.35 Y100.724 E1.23796
G1 X119.629 Y101.104 E1.25129
G1 X119.81 Y101.535 E1.26451
G1 X119.888 Y102.006 E1.27801
G1 X119.9 Y102.199 E1.28348
G1 X119.9 Y117.801 E1.72457
G1 X119.843 Y118.337 E1.73981
G1 X119.661 Y118.839 E1.75491
G1 X119.35 Y119.276 E1.77007
G1 X118.931 Y119.608 E1.78518
G1 X118.443 Y119.816 E1.80018
G1 X117.927 Y119.896 E1.81494
G1 X102.073 Y119.896 E2.26315
G1 X101.534 Y119.81 E2.27858
G1 X101.044 Y119.594 E2.29372
G1 X100.631 Y119.253 E2.30886
G1 X100.328 Y118.814 E2.32394
G1 X100.152 Y118.314 E2.33893
G1 X100.1 Y117.801 E2.35351
G1 X100.1 Y102.199 E2.7946
G1 X100.157 Y101.663 E2.80984
G1 X100.339 Y101.161 E2.82494
G1 X100.615 Y100.773 E2.8384
M106 S255
;LAYER_CHANGE
;Z:0.4
;HEIGHT:0.2
;BEFORE_LAYER_CHANGE
;0.4


G1 Z.4 F18000
;AFTER_LAYER_CHANGE
;0.4
G1 F4103.268
G1 X100.65 Y100.724 E2.8401
G1 F4017.642
G1 X101.069 Y100.392 E2.85521
G1 F3061.314
G1 X101.557 Y100.184 E2.87021
G1 F2054.479
G1 X102.073 Y100.104 E2.88497
G1 X102.547 Y100.104 E2.89837
G1 X117.453 Y100.104 E3.31978
G1 X117.927 Y100.104 E3.33318
G1 X118.466 Y100.19 E3.34861
G1 F3151.815
G1 X118.956 Y100.406 E3.36375
G1 F4123.59
G1 X119.35 Y100.724 E3.37806
G1 F4182.246
G1 X119.629 Y101.104 E3.39139
G1 F3321.406
G1 X119.81 Y101.535 E3.40461
G1 F2063.715
G1 X119.888 Y102.006 E3.41811
G1 F2054.479
G1 X119.9 Y102.199 E3.42358
G1 X119.9 Y102.674 E3.43701
G1 X119.9 Y117.326 E3.85124
G1 X119.9 Y117.801 E3.86467
G1 X119.843 Y118.337 E3.87991
G1 F2836.304
G1 X119.661 Y118.839 E3.89501
G1 F3926.075
G1 X119.35 Y119.276 E3.91017
G1 F4017.641
G1 X118.931 Y119.608 E3.92528
G1 F3061.376
G1 X118.443 Y119.816 E3.94028
G1 F2054.479
G1 X117.927 Y119.896 E3.95504
G1 X117.453 Y119.896 E3.96844
G1 X102.547 Y119.896 E4.38985
G1 X102.073 Y119.896 E4.40325
G1 X101.534 Y119.81 E4.41868
G1 F3151.963
G1 X101.044 Y119.594 E4.43382
G1 F4123.321
G1 X100.631 Y119.253 E4.44896
G1 F3811.263
G1 X100.331 Y118.821 E4.46383
G1 F2750.574
G1 X100.152 Y118.314 E4.47903
G1 F2054.479
G1 X100.1 Y117.801 E4.49361
G1 X100.1 Y117.326 E4.50704
G1 X100.1 Y102.674 E4.92127
G1 X100.1 Y102.199 E4.9347
G1 X100.156 Y101.663 E4.94994
G1 F2846.501
G1 X100.34 Y101.161 E4.96506
G1 F3841.493
G1 X100.581 Y100.822 E4.97682
;LAYER_CHANGE
;Z:0.6
;HEIGHT:0.2
;BEFORE_LAYER_CHANGE
;0.6


G1 Z0.400 F18000
;AFTER_LAYER_CHANGE
;0.6
;TYPE:Overhang perimeter
;WIDTH:0.4
;HEIGHT:0.4
G1 F120
G1 Z0.401 X101.108 Y100.922 E4.99023
G1 Z0.402 X101.404 Y100.734 E5.00855
G1 Z0.403 X101.727 Y100.629 E5.02629
G1 Z0.403 X101.914 Y100.604 E5.03615
G1 Z0.406 X102.891 Y100.604 E5.08719
G1 Z0.445 X117.111 Y100.604 E5.83011
G1 Z0.448 X118.088 Y100.604 E5.88115
G1 Z0.449 X118.434 Y100.67 E5.89955
G1 Z0.449 X118.596 Y100.734 E5.90865
G1 Z0.450 X118.892 Y100.922 E5.92697
G1 Z0.450 X119.02 Y101.042 E5.93614
G1 Z0.451 X119.132 Y101.178 E5.94534
G1 Z0.452 X119.301 Y101.485 E5.96365
G1 Z0.453 X119.388 Y101.825 E5.98199
G1 Z0.453 X119.4 Y102.019 E5.99214
G1 Z0.456 X119.4 Y103.007 E6.04376
G1 Z0.495 X119.4 Y116.993 E6.77446
G1 Z0.497 X119.4 Y117.981 E6.82608
G1 Z0.498 X119.388 Y118.175 E6.83623
G1 Z0.499 X119.301 Y118.515 E6.85457
G1 Z0.500 X119.132 Y118.822 E6.87288
G1 Z0.500 X119.02 Y118.958 E6.88208
G1 Z0.501 X118.892 Y119.078 E6.89125
G1 Z0.502 X118.596 Y119.266 E6.90957
G1 Z0.503 X118.262 Y119.374 E6.92791
G1 Z0.503 X118.088 Y119.396 E6.93707
G1 Z0.506 X117.111 Y119.396 E6.98811
G1 Z0.545 X102.889 Y119.396 E7.73114
G1 Z0.548 X101.912 Y119.396 E7.78218
G1 Z0.548 X101.738 Y119.374 E7.79134
G1 Z0.549 X101.404 Y119.266 E7.80968
G1 Z0.550 X101.108 Y119.078 E7.828
G1 Z0.550 X100.98 Y118.958 E7.83717
G1 Z0.551 X100.868 Y118.822 E7.84637
G1 Z0.552 X100.699 Y118.515 E7.86468
G1 Z0.553 X100.612 Y118.175 E7.88302
G1 Z0.553 X100.6 Y117.981 E7.89317
G1 Z0.556 X100.6 Y116.993 E7.94479
G1 Z0.595 X100.6 Y103.007 E8.67549
G1 Z0.597 X100.6 Y102.019 E8.72711
G1 Z0.598 X100.612 Y101.825 E8.73726
G1 Z0.599 X100.699 Y101.485 E8.7556
G1 Z0.599 X100.774 Y101.326 E8.76478
G1 Z0.600 X100.929 Y101.106 E8.77884
;LAYER_CHANGE
;Z:0.8
;HEIGHT:0.2
;BEFORE_LAYER_CHANGE
;0.8


G1 Z0.600 F18000
;AFTER_LAYER_CHANGE
;0.8
;TYPE:External perimeter
;WIDTH:1.2
G1 F2181
G1 Z0.601 X101.108 Y100.922 E8.80354
G1 Z0.602 X101.404 Y100.734 E8.83728
G1 Z0.603 X101.723 Y100.63 E8.86956
G1 Z0.603 X101.915 Y100.604 E8.8882
G1 Z0.606 X103.115 Y100.604 E9.00365
G1 Z0.644 X116.888 Y100.604 E10.32877
G1 Z0.648 X118.088 Y100.604 E10.44422
G1 Z0.649 X118.435 Y100.671 E10.47822
G1 Z0.649 X118.596 Y100.734 E10.49485
G1 Z0.650 X118.892 Y100.922 E10.52859
G1 Z0.650 X119.02 Y101.042 E10.54547
G1 Z0.651 X119.132 Y101.178 E10.56242
G1 Z0.652 X119.301 Y101.485 E10.59614
G1 Z0.653 X119.388 Y101.825 E10.62991
G1 Z0.653 X119.4 Y102.019 E10.64861
G1 Z0.657 X119.4 Y103.219 E10.76406
G1 Z0.694 X119.4 Y116.781 E12.06888
G1 Z0.697 X119.4 Y117.981 E12.18433
G1 Z0.698 X119.388 Y118.175 E12.20303
G1 Z0.699 X119.301 Y118.515 E12.2368
G1 Z0.700 X119.132 Y118.822 E12.27052
G1 Z0.700 X119.02 Y118.958 E12.28747
G1 Z0.701 X118.892 Y119.078 E12.30435
G1 Z0.702 X118.596 Y119.266 E12.33809
G1 Z0.703 X118.262 Y119.374 E12.37186
G1 Z0.703 X118.088 Y119.396 E12.38873
G1 Z0.706 X116.888 Y119.396 E12.50418
G1 Z0.744 X103.112 Y119.396 E13.82959
G1 Z0.748 X101.912 Y119.396 E13.94504
G1 Z0.748 X101.738 Y119.374 E13.96191
G1 Z0.749 X101.404 Y119.266 E13.99568
G1 Z0.750 X101.108 Y119.078 E14.02942
G1 Z0.750 X100.98 Y118.958 E14.0463
G1 Z0.751 X100.868 Y118.822 E14.06325
G1 Z0.752 X100.699 Y118.515 E14.09697
G1 Z0.753 X100.612 Y118.175 E14.13074
G1 Z0.753 X100.6 Y117.981 E14.14944
G1 Z0.757 X100.6 Y116.781 E14.26489
G1 Z0.794 X100.6 Y103.219 E15.56971
G1 Z0.797 X100.6 Y102.019 E15.68516
G1 Z0.798 X100.612 Y101.825 E15.70386
G1 Z0.799 X100.7 Y101.483 E15.73784
G1 Z0.799 X100.774 Y101.326 E15.75454
G1 Z0.800 X100.929 Y101.106 E15.78043
G1 F5185.468
;LAYER_CHANGE
;Z:1
;HEIGHT:0.2
;BEFORE_LAYER_CHANGE
;1


G1 Z0.800 F18000
;AFTER_LAYER_CHANGE
;1
G1 F2181
G1 Z0.801 X101.108 Y100.922 E15.8052
G1 Z0.802 X101.404 Y100.734 E15.83894
G1 Z0.803 X101.738 Y100.626 E15.87271
G1 Z0.803 X101.912 Y100.604 E15.88958
G1 Z0.806 X103.112 Y100.604 E16.00503
G1 Z0.844 X116.888 Y100.604 E17.33044
G1 Z0.848 X118.088 Y100.604 E17.44589
G1 Z0.849 X118.435 Y100.671 E17.47989
G1 Z0.849 X118.596 Y100.734 E17.49652
G1 Z0.850 X118.892 Y100.922 E17.53026
G1 Z0.850 X119.02 Y101.042 E17.54714
G1 Z0.851 X119.132 Y101.178 E17.56409
G1 Z0.852 X119.301 Y101.485 E17.59781
G1 Z0.853 X119.388 Y101.825 E17.63158
G1 Z0.853 X119.4 Y102.019 E17.65028
G1 Z0.857 X119.4 Y103.219 E17.76573
G1 Z0.894 X119.4 Y116.781 E19.07055
G1 Z0.897 X119.4 Y117.981 E19.186
G1 Z0.898 X119.388 Y118.175 E19.2047
G1 Z0.899 X119.301 Y118.515 E19.23847
G1 Z0.900 X119.132 Y118.822 E19.27219
G1 Z0.900 X119.02 Y118.958 E19.28914
G1 Z0.901 X118.892 Y119.078 E19.30602
G1 Z0.902 X118.596 Y119.266 E19.33976
G1 Z0.903 X118.262 Y119.374 E19.37353
G1 Z0.903 X118.088 Y119.396 E19.3904
G1 Z0.906 X116.888 Y119.396 E19.50585
G1 Z0.944 X103.112 Y119.396 E20.83126
G1 Z0.948 X101.912 Y119.396 E20.94671
G1 Z0.948 X101.738 Y119.374 E20.96358
G1 Z0.949 X101.404 Y119.266 E20.99735
G1 Z0.950 X101.108 Y119.078 E21.03109
G1 Z0.950 X100.98 Y118.958 E21.04797
G1 Z0.951 X100.868 Y118.822 E21.06492
G1 Z0.952 X100.699 Y118.515 E21.09864
G1 Z0.953 X100.612 Y118.175 E21.13241
G1 Z0.953 X100.6 Y117.981 E21.15111
G1 Z0.957 X100.6 Y116.781 E21.26656
G1 Z0.994 X100.6 Y103.219 E22.57138
G1 Z0.997 X100.6 Y102.019 E22.68683
G1 Z0.998 X100.612 Y101.825 E22.70553
G1 Z0.999 X100.701 Y101.482 E22.73962
G1 Z0.999 X100.774 Y101.326 E22.75619
G1 Z1.000 X100.929 Y101.107 E22.782
;LAYER_CHANGE
;Z:1.2
;HEIGHT:0.2
;BEFORE_LAYER_CHANGE
;1.2


G1 Z1.000 F18000
;AFTER_LAYER_CHANGE
;1.2
G1 F2181
G1 Z1.001 X101.108 Y100.922 E22.80677
G1 Z1.002 X101.404 Y100.734 E22.84051
G1 Z1.003 X101.738 Y100.626 E22.87428
G1 Z1.003 X101.912 Y100.604 E22.89115
G1 Z1.006 X103.112 Y100.604 E23.0066
G1 Z1.044 X116.888 Y100.604 E24.33201
G1 Z1.048 X118.088 Y100.604 E24.44746
G1 Z1.049 X118.436 Y100.671 E24.48156
G1 Z1.049 X118.596 Y100.734 E24.4981
G1 Z1.050 X118.892 Y100.922 E24.53184
G1 Z1.050 X119.02 Y101.042 E24.54872
G1 Z1.051 X119.132 Y101.178 E24.56567
G1 Z1.052 X119.301 Y101.485 E24.59939
G1 Z1.053 X119.388 Y101.825 E24.63316
G1 Z1.053 X119.4 Y102.019 E24.65186
G1 Z1.057 X119.4 Y103.219 E24.76731
G1 Z1.094 X119.4 Y116.781 E26.07213
G1 Z1.097 X119.4 Y117.981 E26.18758
G1 Z1.098 X119.388 Y118.175 E26.20628
G1 Z1.099 X119.301 Y118.515 E26.24005
G1 Z1.100 X119.132 Y118.822 E26.27377
G1 Z1.100 X119.02 Y118.958 E26.29072
G1 Z1.101 X118.892 Y119.078 E26.3076
G1 Z1.102 X118.596 Y119.266 E26.34134
G1 Z1.103 X118.262 Y119.374 E26.37511
G1 Z1.103 X118.088 Y119.396 E26.39198
G1 Z1.106 X116.888 Y119.396 E26.50743
G1 Z1.144 X103.112 Y119.396 E27.83284
G1 Z1.148 X101.912 Y119.396 E27.94829
G1 Z1.148 X101.738 Y119.374 E27.96516
G1 Z1.149 X101.404 Y119.266 E27.99893
G1 Z1.150 X101.108 Y119.078 E28.03267
G1 Z1.150 X100.98 Y118.958 E28.04955
G1 Z1.151 X100.868 Y118.822 E28.0665
G1 Z1.152 X100.699 Y118.515 E28.10022
G1 Z1.153 X100.612 Y118.175 E28.13399
G1 Z1.153 X100.6 Y117.981 E28.15269
G1 Z1.157 X100.6 Y116.781 E28.26814
G1 Z1.194 X100.6 Y103.219 E29.57296
G1 Z1.197 X100.6 Y102.019 E29.68841
G1 Z1.198 X100.612 Y101.825 E29.70711
G1 Z1.199 X100.699 Y101.485 E29.74088
G1 Z1.199 X100.774 Y101.326 E29.75779
G1 Z1.200 X100.928 Y101.106 E29.78363
G1 F5185.468
;LAYER_CHANGE
;Z:1.4
;HEIGHT:0.2
;BEFORE_LAYER_CHANGE
;1.4


G1 Z1.200 F18000
;AFTER_LAYER_CHANGE
;1.4
G1 F2181
G1 Z1.201 X101.108 Y100.922 E29.8084
G1 Z1.202 X101.404 Y100.734 E29.84214
G1 Z1.203 X101.738 Y100.626 E29.87591
G1 Z1.203 X101.912 Y100.604 E29.89278
G1 Z1.206 X103.112 Y100.604 E30.00823
G1 Z1.244 X116.888 Y100.604 E31.33364
G1 Z1.248 X118.088 Y100.604 E31.44909
G1 Z1.249 X118.436 Y100.671 E31.48319
G1 Z1.249 X118.596 Y100.734 E31.49973
G1 Z1.250 X118.892 Y100.922 E31.53347
G1 Z1.250 X119.02 Y101.042 E31.55035
G1 Z1.251 X119.132 Y101.178 E31.5673
G1 Z1.252 X119.301 Y101.485 E31.60102
G1 Z1.253 X119.388 Y101.825 E31.63479
G1 Z1.253 X119.4 Y102.019 E31.65349
G1 Z1.257 X119.4 Y103.219 E31.76894
G1 Z1.294 X119.4 Y116.781 E33.07376
G1 Z1.297 X119.4 Y117.981 E33.18921
G1 Z1.298 X119.388 Y118.175 E33.20791
G1 Z1.299 X119.301 Y118.515 E33.24168
G1 Z1.300 X119.132 Y118.822 E33.2754
G1 Z1.300 X119.02 Y118.958 E33.29235
G1 Z1.301 X118.892 Y119.078 E33.30923
G1 Z1.302 X118.596 Y119.266 E33.34297
G1 Z1.303 X118.262 Y119.374 E33.37674
G1 Z1.303 X118.088 Y119.396 E33.39361
G1 Z1.306 X116.888 Y119.396 E33.50906
G1 Z1.344 X103.112 Y119.396 E34.83447
G1 Z1.348 X101.912 Y119.396 E34.94992
G1 Z1.348 X101.738 Y119.374 E34.96679
G1 Z1.349 X101.404 Y119.266 E35.00056
G1 Z1.350 X101.108 Y119.078 E35.0343
G1 Z1.350 X100.98 Y118.958 E35.05118
G1 Z1.351 X100.868 Y118.822 E35.06813
G1 Z1.352 X100.699 Y118.515 E35.10185
G1 Z1.353 X100.612 Y118.175 E35.13562
G1 Z1.353 X100.6 Y117.981 E35.15432
G1 Z1.357 X100.6 Y116.781 E35.26977
G1 Z1.394 X100.6 Y103.219 E36.57459
G1 Z1.397 X100.6 Y102.019 E36.69004
G1 Z1.398 X100.612 Y101.825 E36.70874
G1 Z1.399 X100.699 Y101.485 E36.74251
G1 Z1.399 X100.774 Y101.326 E36.75942
G1 Z1.400 X100.929 Y101.107 E36.78523
G1 F5185.468
;LAYER_CHANGE
;Z:1.6
;HEIGHT:0.2
;BEFORE_LAYER_CHANGE
;1.6


G1 Z1.400 F18000
;AFTER_LAYER_CHANGE
;1.6
G1 F2181
G1 Z1.401 X101.108 Y100.922 E36.81
G1 Z1.402 X101.404 Y100.734 E36.84374
G1 Z1.403 X101.738 Y100.626 E36.87751
G1 Z1.403 X101.912 Y100.604 E36.89438
G1 Z1.406 X103.112 Y100.604 E37.00983
G1 Z1.444 X116.888 Y100.604 E38.33524
G1 Z1.448 X118.088 Y100.604 E38.45069
G1 Z1.449 X118.437 Y100.671 E38.48488
G1 Z1.449 X118.596 Y100.734 E38.50133
G1 Z1.450 X118.892 Y100.922 E38.53507
G1 Z1.450 X119.02 Y101.042 E38.55195
G1 Z1.451 X119.132 Y101.178 E38.5689
G1 Z1.452 X119.301 Y101.485 E38.60262
G1 Z1.453 X119.388 Y101.825 E38.63639
G1 Z1.453 X119.4 Y102.019 E38.65509
G1 Z1.457 X119.4 Y103.219 E38.77054
G1 Z1.494 X119.4 Y116.781 E40.07536
G1 Z1.497 X119.4 Y117.981 E40.19081
